; generated by PrusaSlicer 2.3.3+linux-x64 on 2021-10-28 at 15:55:00 UTC

; 

; external perimeters extrusion width = 0.45mm
; perimeters extrusion width = 0.45mm
; infill extrusion width = 0.45mm
; solid infill extrusion width = 0.45mm
; top infill extrusion width = 0.40mm
; first layer extrusion width = 0.70mm

M107
M104 S200 ; set temperature
;TYPE:Custom
G28 ; home all axes
G1 Z5 F5000 ; lift nozzle
M109 S200 ; set temperature and wait for it to be reached
G21 ; set units to millimeters
G90 ; use absolute coordinates
M82 ; use absolute distances for extrusion
G92 E0
; Filament gcode
;LAYER_CHANGE
;Z:0.35
;HEIGHT:0.35
G1 Z0.350 F7800.000
G1 E-2.00000 F2400.000
G92 E0
G1 X19.921 Y17.894 F7800.000
G1 E2.00000 F2400.000
;TYPE:Skirt
;WIDTH:0.7
G1 F1800.000
G1 X21.631 Y16.132 E2.22329
G1 X23.289 Y14.595 E2.42886
G1 X24.922 Y13.222 E2.62288
G1 X26.977 Y11.664 E2.85735
G1 X28.741 Y10.464 E3.05136
G1 X30.534 Y9.366 E3.24255
G1 X32.708 Y8.175 E3.46791
G1 X34.715 Y7.209 E3.67046
G1 X36.682 Y6.376 E3.86466
G1 X39.143 Y5.480 E4.10289
G1 X41.147 Y4.864 E4.29352
G1 X43.370 Y4.297 E4.50212
G1 X45.597 Y3.846 E4.70866
G1 X47.700 Y3.527 E4.90209
G1 X50.272 Y3.268 E5.13714
G1 X52.384 Y3.165 E5.32948
G1 X54.532 Y3.162 E5.52479
G1 X56.947 Y3.276 E5.74461
G1 X59.197 Y3.500 E5.95025
G1 X61.461 Y3.840 E6.15833
G1 X63.689 Y4.289 E6.36506
G1 X65.905 Y4.851 E6.57295
G1 X68.108 Y5.529 E6.78251
G1 X70.231 Y6.302 E6.98795
G1 X72.346 Y7.192 E7.19655
G1 X74.409 Y8.185 E7.40481
G1 X76.390 Y9.264 E7.60988
G1 X78.353 Y10.462 E7.81906
G1 X80.220 Y11.735 E8.02450
G1 X82.035 Y13.108 E8.23142
G1 X83.801 Y14.588 E8.44098
G1 X85.458 Y16.125 E8.64642
G1 X87.052 Y17.757 E8.85387
G1 X88.576 Y19.483 E9.06329
G1 X89.998 Y21.266 E9.27060
G1 X91.314 Y23.097 E9.47567
G1 X92.563 Y25.028 E9.68484
G1 X93.706 Y27.006 E9.89253
G1 X94.746 Y29.035 E10.09984
G1 X95.673 Y31.091 E10.30491
G1 X96.513 Y33.226 E10.51351
G1 X97.235 Y35.373 E10.71952
G1 X97.859 Y37.587 E10.92870
G1 X98.362 Y39.790 E11.13414
G1 X98.762 Y42.049 E11.34275
G1 X99.047 Y44.322 E11.55101
G1 X99.216 Y46.583 E11.75717
G1 X99.273 Y48.837 E11.96223
G1 X99.223 Y51.003 E12.15927
G1 X96.192 Y150.821 E21.23986
G1 X96.004 Y153.255 E21.46180
G1 X95.738 Y155.359 E21.65469
G1 X95.344 Y157.592 E21.86084
G1 X94.794 Y159.975 E22.08318
G1 X94.218 Y162.016 E22.27604
G1 X93.524 Y164.087 E22.47468
G1 X92.595 Y166.445 E22.70510
G1 X91.719 Y168.383 E22.89853
G1 X90.684 Y170.401 E23.10469
G1 X89.548 Y172.370 E23.31142
G1 X88.396 Y174.158 E23.50486
G1 X86.970 Y176.152 E23.72777
G1 X85.556 Y177.925 E23.93392
G1 X84.154 Y179.516 E24.12678
G1 X82.442 Y181.280 E24.35027
G1 X80.785 Y182.818 E24.55585
G1 X79.152 Y184.191 E24.74986
G1 X77.086 Y185.755 E24.98549
G1 X75.327 Y186.952 E25.17892
G1 X73.387 Y188.137 E25.38566
G1 X71.390 Y189.225 E25.59239
G1 X69.480 Y190.147 E25.78524
G1 X67.099 Y191.152 E26.02029
G1 X65.087 Y191.882 E26.21488
G1 X63.055 Y192.511 E26.40832
G1 X60.550 Y193.149 E26.64337
G1 X58.458 Y193.569 E26.83738
G1 X56.223 Y193.907 E27.04295
G1 X53.954 Y194.134 E27.25027
G1 X51.830 Y194.243 E27.44370
G1 X49.372 Y194.248 E27.66719
G1 X47.107 Y194.135 E27.87335
G1 X44.839 Y193.908 E28.08065
G1 X42.584 Y193.568 E28.28797
G1 X40.350 Y193.117 E28.49528
G1 X38.140 Y192.554 E28.70259
G1 X35.962 Y191.882 E28.90990
G1 X33.819 Y191.102 E29.11721
G1 X31.718 Y190.216 E29.32452
G1 X29.664 Y189.227 E29.53183
G1 X27.662 Y188.137 E29.73914
G1 X25.717 Y186.948 E29.94646
G1 X23.833 Y185.664 E30.15376
G1 X22.016 Y184.287 E30.36108
G1 X20.269 Y182.822 E30.56839
G1 X18.598 Y181.271 E30.77570
G1 X17.014 Y179.648 E30.98185
G1 X15.497 Y177.929 E31.19032
G1 X14.076 Y176.147 E31.39763
G1 X12.745 Y174.296 E31.60494
G1 X11.508 Y172.381 E31.81225
G1 X10.368 Y170.406 E32.01957
G1 X9.328 Y168.377 E32.22688
G1 X8.390 Y166.299 E32.43419
G1 X7.562 Y164.189 E32.64034
G1 X6.831 Y162.016 E32.84881
G1 X6.214 Y159.821 E33.05612
G1 X5.706 Y157.598 E33.26343
G1 X5.312 Y155.365 E33.46959
G1 X5.027 Y153.091 E33.67805
G1 X4.857 Y150.830 E33.88420
G1 X4.800 Y148.551 E34.09152
G1 X4.851 Y146.411 E34.28611
G1 X7.881 Y46.591 E43.36690
G1 X8.049 Y44.352 E43.57102
G1 X8.312 Y42.221 E43.76633
G1 X8.729 Y39.820 E43.98788
G1 X9.279 Y37.438 E44.21022
G1 X9.856 Y35.396 E44.40308
G1 X10.548 Y33.331 E44.60114
G1 X11.475 Y30.973 E44.83156
G1 X12.355 Y29.029 E45.02557
G1 X13.378 Y27.034 E45.22948
G1 X14.620 Y24.892 E45.45461
G1 X15.777 Y23.106 E45.64807
G1 X17.104 Y21.260 E45.85481
G1 X18.502 Y19.507 E46.05871
G1 X19.881 Y17.939 E46.24856
G1 E44.24856 F2400.000
G92 E0
G1 X77.411 Y164.522 F7800.000
G1 E2.00000 F2400.000
;TYPE:External perimeter
G1 F1800.000
G1 X77.608 Y164.445 E2.01924
G1 X77.977 Y164.341 E2.05416
G1 X78.356 Y164.274 E2.08909
G1 X78.739 Y164.245 E2.12401
G1 X79.123 Y164.255 E2.15893
G1 X79.504 Y164.303 E2.19386
G1 X79.878 Y164.388 E2.22878
G1 X80.242 Y164.511 E2.26370
G1 X80.592 Y164.669 E2.29862
G1 X80.925 Y164.861 E2.33355
G1 X81.237 Y165.085 E2.36847
G1 X81.525 Y165.339 E2.40339
G1 X81.786 Y165.620 E2.43831
G1 X82.018 Y165.927 E2.47324
G1 X82.218 Y166.254 E2.50816
G1 X82.385 Y166.600 E2.54308
G1 X82.516 Y166.961 E2.57801
G1 X82.612 Y167.339 E2.61340
G1 X82.681 Y167.912 E2.66594
G1 X82.645 Y168.498 E2.71935
G1 X82.544 Y168.889 E2.75606
G1 X82.400 Y169.244 E2.79082
G1 X82.159 Y169.719 E2.83934
G1 X81.974 Y170.028 E2.87209
G1 X81.666 Y170.456 E2.91998
G1 X81.326 Y170.860 E2.96797
G1 X81.069 Y171.127 E3.00173
G1 X80.777 Y171.372 E3.03635
G1 X80.601 Y171.494 E3.05580
G1 X80.246 Y171.675 E3.09210
G1 X79.699 Y171.851 E3.14436
G1 X79.314 Y171.919 E3.17987
G1 X78.931 Y171.948 E3.21481
G1 X78.547 Y171.938 E3.24974
G1 X78.166 Y171.891 E3.28466
G1 X77.791 Y171.805 E3.31958
G1 X77.427 Y171.683 E3.35451
G1 X77.077 Y171.525 E3.38943
G1 X76.745 Y171.333 E3.42435
G1 X76.433 Y171.109 E3.45927
G1 X76.145 Y170.855 E3.49420
G1 X75.884 Y170.573 E3.52912
G1 X75.652 Y170.267 E3.56404
G1 X75.451 Y169.939 E3.59897
G1 X75.285 Y169.593 E3.63389
G1 X75.153 Y169.232 E3.66881
G1 X75.059 Y168.860 E3.70373
G1 X75.001 Y168.480 E3.73866
G1 X74.982 Y168.097 E3.77358
G1 X75.001 Y167.713 E3.80850
G1 X75.059 Y167.333 E3.84342
G1 X75.153 Y166.961 E3.87833
G1 X75.280 Y166.613 E3.91206
G1 X75.545 Y166.092 E3.96518
G1 X75.764 Y165.771 E4.00055
G1 X76.011 Y165.476 E4.03547
G1 X76.286 Y165.208 E4.07039
G1 X76.586 Y164.969 E4.10532
G1 X76.909 Y164.760 E4.14024
G1 X77.355 Y164.544 E4.18535
G1 X77.434 Y164.312 F7800.000
G1 E2.18535 F2400.000
G92 E0
G1 X52.009 Y119.522 F7800.000
G1 E2.00000 F2400.000
;TYPE:Perimeter
G1 F1800.000
G1 X51.442 Y119.830 E2.05866
G1 X51.015 Y119.998 E2.10036
G1 X50.585 Y120.119 E2.14096
G1 X50.146 Y120.196 E2.18155
G1 X49.701 Y120.230 E2.22215
G1 X49.254 Y120.218 E2.26274
G1 X48.811 Y120.163 E2.30333
G1 X48.376 Y120.064 E2.34393
G1 X47.953 Y119.921 E2.38452
G1 X47.546 Y119.738 E2.42512
G1 X47.159 Y119.515 E2.46571
G1 X46.797 Y119.254 E2.50631
G1 X46.462 Y118.959 E2.54690
G1 X46.159 Y118.631 E2.58749
G1 X45.889 Y118.275 E2.62809
G1 X45.656 Y117.894 E2.66868
G1 X45.462 Y117.492 E2.70928
G1 X45.310 Y117.073 E2.74987
G1 X45.200 Y116.640 E2.79046
G1 X45.133 Y116.199 E2.83106
G1 X45.111 Y115.753 E2.87165
G1 X45.133 Y115.308 E2.91219
G1 X45.198 Y114.872 E2.95222
G1 X45.376 Y114.234 E3.01247
G1 X45.554 Y113.810 E3.05431
G1 X45.768 Y113.418 E3.09490
G1 X46.019 Y113.049 E3.13550
G1 X46.306 Y112.707 E3.17609
G1 X46.626 Y112.395 E3.21668
G1 X46.975 Y112.117 E3.25728
G1 X47.350 Y111.875 E3.29787
G1 X47.747 Y111.671 E3.33847
G1 X48.163 Y111.508 E3.37906
G1 X48.593 Y111.387 E3.41966
G1 X49.032 Y111.309 E3.46025
G1 X49.477 Y111.276 E3.50084
G1 X49.924 Y111.287 E3.54144
G1 X50.367 Y111.343 E3.58203
G1 X50.802 Y111.442 E3.62263
G1 X51.225 Y111.584 E3.66322
G1 X51.632 Y111.768 E3.70381
G1 X52.019 Y111.991 E3.74441
G1 X52.381 Y112.252 E3.78500
G1 X52.716 Y112.547 E3.82560
G1 X53.019 Y112.874 E3.86619
G1 X53.289 Y113.230 E3.90679
G1 X53.522 Y113.611 E3.94738
G1 X53.716 Y114.013 E3.98797
G1 X53.868 Y114.433 E4.02857
G1 X53.978 Y114.865 E4.06916
G1 X54.045 Y115.307 E4.10976
G1 X54.067 Y115.753 E4.15035
G1 X54.045 Y116.199 E4.19095
G1 X53.978 Y116.640 E4.23154
G1 X53.868 Y117.073 E4.27213
G1 X53.716 Y117.492 E4.31273
G1 X53.522 Y117.894 E4.35332
G1 X53.289 Y118.275 E4.39392
G1 X53.019 Y118.631 E4.43451
G1 X52.716 Y118.959 E4.47511
G1 X52.381 Y119.254 E4.51570
G1 X52.057 Y119.487 E4.55195
G1 X51.693 Y118.979 F7800.000
;TYPE:External perimeter
G1 F1800.000
G1 X51.178 Y119.263 E4.60541
G1 X50.816 Y119.405 E4.64073
G1 X50.446 Y119.509 E4.67565
G1 X50.068 Y119.575 E4.71057
G1 X49.685 Y119.604 E4.74550
G1 X49.301 Y119.594 E4.78042
G1 X48.920 Y119.547 E4.81534
G1 X48.546 Y119.461 E4.85026
G1 X48.182 Y119.339 E4.88519
G1 X47.831 Y119.181 E4.92011
G1 X47.499 Y118.989 E4.95503
G1 X47.187 Y118.765 E4.98996
G1 X46.899 Y118.511 E5.02488
G1 X46.638 Y118.229 E5.05980
G1 X46.406 Y117.923 E5.09472
G1 X46.206 Y117.595 E5.12965
G1 X46.039 Y117.249 E5.16457
G1 X45.908 Y116.888 E5.19949
G1 X45.813 Y116.516 E5.23441
G1 X45.756 Y116.136 E5.26934
G1 X45.737 Y115.753 E5.30426
G1 X45.756 Y115.369 E5.33916
G1 X45.810 Y115.002 E5.37290
G1 X45.967 Y114.440 E5.42601
G1 X46.118 Y114.081 E5.46138
G1 X46.302 Y113.744 E5.49631
G1 X46.518 Y113.427 E5.53123
G1 X46.765 Y113.132 E5.56615
G1 X47.040 Y112.864 E5.60107
G1 X47.340 Y112.625 E5.63600
G1 X47.663 Y112.416 E5.67092
G1 X48.005 Y112.241 E5.70584
G1 X48.362 Y112.101 E5.74076
G1 X48.732 Y111.997 E5.77569
G1 X49.110 Y111.930 E5.81061
G1 X49.493 Y111.901 E5.84553
G1 X49.877 Y111.911 E5.88045
G1 X50.258 Y111.959 E5.91538
G1 X50.632 Y112.044 E5.95030
G1 X50.996 Y112.167 E5.98522
G1 X51.347 Y112.325 E6.02014
G1 X51.679 Y112.517 E6.05507
G1 X51.991 Y112.741 E6.08999
G1 X52.279 Y112.995 E6.12491
G1 X52.540 Y113.276 E6.15984
G1 X52.772 Y113.583 E6.19476
G1 X52.972 Y113.910 E6.22968
G1 X53.139 Y114.256 E6.26460
G1 X53.270 Y114.617 E6.29953
G1 X53.365 Y114.989 E6.33445
G1 X53.422 Y115.369 E6.36937
G1 X53.442 Y115.753 E6.40429
G1 X53.422 Y116.136 E6.43922
G1 X53.365 Y116.516 E6.47414
G1 X53.270 Y116.888 E6.50906
G1 X53.139 Y117.249 E6.54398
G1 X52.972 Y117.595 E6.57891
G1 X52.772 Y117.923 E6.61383
G1 X52.540 Y118.229 E6.64875
G1 X52.279 Y118.511 E6.68367
G1 X51.991 Y118.765 E6.71860
G1 X51.741 Y118.944 E6.74655
G1 X51.707 Y119.379 F7800.000
G1 E4.74655 F2400.000
G92 E0
G1 X52.506 Y111.572 F7800.000
G1 E2.00000 F2400.000
;TYPE:Perimeter
G1 F1800.000
G1 X52.598 Y111.307 E2.02549
G1 X53.312 Y111.343 E2.09046
G1 X55.163 Y111.528 E2.25957
G1 X57.002 Y111.805 E2.42868
G1 X58.825 Y112.174 E2.59779
G1 X60.627 Y112.633 E2.76690
G1 X62.404 Y113.181 E2.93602
G1 X64.152 Y113.817 E3.10513
G1 X65.866 Y114.539 E3.27424
G1 X67.541 Y115.346 E3.44335
G1 X69.174 Y116.236 E3.61246
G1 X70.761 Y117.205 E3.78158
G1 X72.298 Y118.253 E3.95069
G1 X73.781 Y119.376 E4.11980
G1 X75.205 Y120.571 E4.28891
G1 X76.569 Y121.836 E4.45802
G1 X77.867 Y123.168 E4.62714
G1 X79.098 Y124.562 E4.79625
G1 X80.257 Y126.016 E4.96536
G1 X81.343 Y127.526 E5.13447
G1 X82.352 Y129.089 E5.30358
G1 X83.282 Y130.699 E5.47270
G1 X84.130 Y132.354 E5.64181
G1 X84.895 Y134.050 E5.81092
G1 X85.575 Y135.781 E5.98003
G1 X86.167 Y137.544 E6.14914
G1 X86.671 Y139.334 E6.31826
G1 X87.085 Y141.147 E6.48737
G1 X87.408 Y142.979 E6.65648
G1 X87.639 Y144.824 E6.82559
G1 X87.778 Y146.679 E6.99470
G1 X87.824 Y148.538 E7.16382
G1 X87.778 Y150.397 E7.33293
G1 X87.639 Y152.252 E7.50204
G1 X87.408 Y154.097 E7.67115
G1 X87.085 Y155.929 E7.84026
G1 X86.671 Y157.742 E8.00938
G1 X86.167 Y159.532 E8.17849
G1 X85.575 Y161.295 E8.34760
G1 X84.895 Y163.027 E8.51671
G1 X84.130 Y164.722 E8.68582
G1 X83.479 Y165.992 E8.81566
G1 X83.317 Y165.656 E8.84962
G1 X83.052 Y165.222 E8.89588
G1 X82.745 Y164.816 E8.94215
G1 X82.398 Y164.443 E8.98842
G1 X82.017 Y164.106 E9.03468
G1 X81.604 Y163.809 E9.08095
G1 X81.163 Y163.555 E9.12721
G1 X80.699 Y163.346 E9.17348
G1 X80.217 Y163.184 E9.21975
G1 X79.721 Y163.070 E9.26601
G1 X79.216 Y163.007 E9.31228
G1 X78.708 Y162.995 E9.35854
G1 X78.200 Y163.033 E9.40481
G1 X77.699 Y163.121 E9.45107
G1 X77.209 Y163.259 E9.49734
G1 X76.736 Y163.445 E9.54361
G1 X76.283 Y163.677 E9.58987
G1 X75.855 Y163.953 E9.63614
G1 X75.458 Y164.270 E9.68240
G1 X75.093 Y164.625 E9.72867
G1 X74.766 Y165.015 E9.77494
G1 X74.467 Y165.454 E9.82325
G1 X74.131 Y166.114 E9.89062
G1 X73.957 Y166.593 E9.93694
G1 X73.832 Y167.085 E9.98312
G1 X73.756 Y167.589 E10.02938
G1 X73.731 Y168.097 E10.07565
G1 X73.756 Y168.605 E10.12192
G1 X73.832 Y169.108 E10.16818
G1 X73.958 Y169.601 E10.21445
G1 X74.132 Y170.079 E10.26071
G1 X74.352 Y170.538 E10.30698
G1 X74.618 Y170.972 E10.35325
G1 X74.925 Y171.377 E10.39951
G1 X75.271 Y171.750 E10.44578
G1 X75.653 Y172.087 E10.49204
G1 X76.066 Y172.384 E10.53831
G1 X76.506 Y172.639 E10.58457
G1 X76.970 Y172.848 E10.63084
G1 X77.452 Y173.010 E10.67711
G1 X77.948 Y173.123 E10.72337
G1 X78.499 Y173.192 E10.77385
G1 X77.868 Y173.907 E10.86059
G1 X76.524 Y175.281 E11.03535
G1 X75.205 Y176.505 E11.19892
G1 X73.781 Y177.700 E11.36803
G1 X72.298 Y178.823 E11.53715
G1 X70.761 Y179.871 E11.70626
G1 X69.174 Y180.841 E11.87537
G1 X67.541 Y181.730 E12.04448
G1 X65.866 Y182.537 E12.21359
G1 X64.152 Y183.259 E12.38271
G1 X62.404 Y183.895 E12.55182
G1 X60.627 Y184.444 E12.72093
G1 X58.825 Y184.903 E12.89004
G1 X57.002 Y185.271 E13.05915
G1 X55.163 Y185.548 E13.22827
G1 X53.312 Y185.733 E13.39738
G1 X51.455 Y185.826 E13.56649
G1 X49.595 Y185.826 E13.73560
G1 X47.737 Y185.733 E13.90471
G1 X45.887 Y185.548 E14.07383
G1 X44.048 Y185.271 E14.24294
G1 X42.225 Y184.903 E14.41205
G1 X40.422 Y184.444 E14.58116
G1 X38.645 Y183.895 E14.75027
G1 X36.898 Y183.259 E14.91939
G1 X35.184 Y182.537 E15.08850
G1 X33.508 Y181.730 E15.25761
G1 X31.875 Y180.841 E15.42672
G1 X30.288 Y179.871 E15.59583
G1 X28.751 Y178.823 E15.76495
G1 X27.269 Y177.700 E15.93406
G1 X25.844 Y176.505 E16.10317
G1 X24.481 Y175.240 E16.27228
G1 X23.182 Y173.908 E16.44139
G1 X21.951 Y172.514 E16.61051
G1 X20.792 Y171.060 E16.77962
G1 X19.706 Y169.550 E16.94873
G1 X18.697 Y167.987 E17.11784
G1 X17.767 Y166.377 E17.28695
G1 X16.919 Y164.722 E17.45607
G1 X16.154 Y163.027 E17.62518
G1 X15.474 Y161.295 E17.79429
G1 X14.882 Y159.532 E17.96340
G1 X14.378 Y157.742 E18.13251
G1 X13.965 Y155.929 E18.30163
G1 X13.642 Y154.097 E18.47074
G1 X13.410 Y152.252 E18.63985
G1 X13.331 Y151.188 E18.73686
G1 X13.973 Y151.814 E18.81841
G1 X14.549 Y152.251 E18.88416
G1 X15.007 Y152.515 E18.93225
G1 X15.471 Y152.725 E18.97851
G1 X15.953 Y152.887 E19.02478
G1 X16.449 Y153.000 E19.07104
G1 X16.954 Y153.063 E19.11731
G1 X17.463 Y153.076 E19.16357
G1 X17.970 Y153.038 E19.20984
G1 X18.471 Y152.949 E19.25611
G1 X18.961 Y152.812 E19.30237
G1 X19.435 Y152.626 E19.34864
G1 X19.887 Y152.394 E19.39490
G1 X20.315 Y152.118 E19.44117
G1 X20.713 Y151.800 E19.48744
G1 X21.077 Y151.445 E19.53370
G1 X21.404 Y151.055 E19.57997
G1 X21.691 Y150.635 E19.62623
G1 X21.934 Y150.188 E19.67250
G1 X22.131 Y149.719 E19.71876
G1 X22.281 Y149.233 E19.76503
G1 X22.382 Y148.734 E19.81130
G1 X22.433 Y148.228 E19.85756
G1 X22.433 Y147.719 E19.90383
G1 X22.382 Y147.213 E19.95009
G1 X22.281 Y146.714 E19.99636
G1 X22.131 Y146.228 E20.04263
G1 X21.934 Y145.759 E20.08889
G1 X21.691 Y145.312 E20.13516
G1 X21.404 Y144.892 E20.18142
G1 X21.077 Y144.502 E20.22769
G1 X20.698 Y144.133 E20.27577
G1 X20.122 Y143.696 E20.34153
G1 X19.664 Y143.432 E20.38961
G1 X19.200 Y143.223 E20.43588
G1 X18.718 Y143.060 E20.48214
G1 X18.222 Y142.947 E20.52841
G1 X17.717 Y142.884 E20.57468
G1 X17.208 Y142.871 E20.62094
G1 X16.701 Y142.909 E20.66721
G1 X16.200 Y142.998 E20.71347
G1 X15.710 Y143.135 E20.75974
G1 X15.236 Y143.321 E20.80601
G1 X14.784 Y143.554 E20.85227
G1 X14.356 Y143.830 E20.89854
G1 X13.958 Y144.147 E20.94480
G1 X13.719 Y144.380 E20.97520
G1 X13.481 Y144.262 E20.99939
G1 X13.642 Y142.979 E21.11695
G1 X13.965 Y141.147 E21.28607
G1 X14.378 Y139.334 E21.45518
G1 X14.882 Y137.544 E21.62429
G1 X15.474 Y135.781 E21.79340
G1 X16.154 Y134.050 E21.96251
G1 X16.919 Y132.354 E22.13163
G1 X17.767 Y130.699 E22.30074
G1 X18.697 Y129.089 E22.46985
G1 X19.706 Y127.526 E22.63896
G1 X20.792 Y126.016 E22.80807
G1 X21.951 Y124.562 E22.97719
G1 X23.182 Y123.168 E23.14630
