; generated by PrusaSlicer 2.3.3+win64 on 2021-11-18 at 21:09:00 UTC

; 

; external perimeters extrusion width = 0.45mm
; perimeters extrusion width = 0.45mm
; infill extrusion width = 0.45mm
; solid infill extrusion width = 0.45mm
; top infill extrusion width = 0.40mm
; first layer extrusion width = 0.42mm

M73 P0 R83
M73 Q0 S83
M201 X1000 Y1000 Z200 E5000 ; sets maximum accelerations, mm/sec^2
M203 X200 Y200 Z12 E120 ; sets maximum feedrates, mm/sec
M204 P1250 R1250 T1250 ; sets acceleration (P, T) and retract acceleration (R), mm/sec^2
M205 X8.00 Y8.00 Z0.40 E4.50 ; sets the jerk limits, mm/sec
M205 S0 T0 ; sets the minimum extruding and travel feed rate, mm/sec
M107
;TYPE:Custom
M862.3 P "MK3" ; printer model check
M862.1 P0.4 ; nozzle diameter check
M115 U3.10.0 ; tell printer latest fw version
G90 ; use absolute coordinates
M83 ; extruder relative mode
M104 S215 ; set extruder temp
M140 S60 ; set bed temp
M190 S60 ; wait for bed temp
M109 S215 ; wait for extruder temp
G28 W ; home all without mesh bed level
G80 ; mesh bed leveling
G1 Y-3.0 F1000.0 ; go outside print area
G92 E0.0
G1 X60.0 E9.0 F1000.0 ; intro line
G1 X100.0 E12.5 F1000.0 ; intro line
G92 E0.0
M221 S95

; Don't change E values below. Excessive value can damage the printer.
M907 E430 ; set extruder motor current
G21 ; set units to millimeters
G90 ; use absolute coordinates
M83 ; use relative distances for extrusion
M900 K0.05 ; Filament gcode LA 1.5
M900 K30 ; Filament gcode LA 1.0
;LAYER_CHANGE
;Z:0.2
;HEIGHT:0.2
;BEFORE_LAYER_CHANGE
G92 E0.0
;0.2


G1 E-0.80000 F2100.000
G1 Z0.400 F10800.000
;AFTER_LAYER_CHANGE
;0.2
G1 X26.424 Y119.624
G1 Z0.200
G1 E0.80000 F2100.000
M204 S1000
;TYPE:Skirt
;WIDTH:0.42
G1 F1200.000
G1 X27.445 Y119.220 E0.03443
G1 X45.760 Y115.040 E0.58903
G1 X47.716 Y114.653 E0.06253
G1 X49.776 Y114.351 E0.06527
G1 X53.701 Y114.063 E0.12340
G1 X55.732 Y114.060 E0.06366
G1 X57.809 Y114.160 E0.06521
G1 X59.826 Y114.357 E0.06354
G1 X63.819 Y115.047 E0.12704
G1 X82.106 Y119.221 E0.58814
G1 X83.233 Y119.687 E0.03824
G1 X84.148 Y120.405 E0.03644
G1 X84.635 Y121.002 E0.02417
G1 X84.988 Y121.625 E0.02245
G1 X92.670 Y138.669 E0.58616
G1 X94.139 Y142.463 E0.12757
G1 X95.221 Y146.347 E0.12643
G1 X95.644 Y148.466 E0.06774
G1 X96.137 Y152.465 E0.12634
G1 X96.237 Y154.506 E0.06407
G1 X96.237 Y156.546 E0.06395
G1 X95.942 Y160.563 E0.12631
G1 X95.634 Y162.645 E0.06598
G1 X94.751 Y166.572 E0.12619
G1 X94.124 Y168.632 E0.06753
G1 X92.670 Y172.381 E0.12607
G1 X84.986 Y189.430 E0.58634
G1 X84.559 Y190.157 E0.02644
G1 X84.067 Y190.727 E0.02360
G1 X83.122 Y191.427 E0.03689
G1 X82.101 Y191.831 E0.03443
G1 X63.782 Y196.012 E0.58915
G1 X61.774 Y196.407 E0.06414
G1 X57.868 Y196.886 E0.12340
G1 X55.787 Y196.990 E0.06533
G1 X53.760 Y196.990 E0.06354
G1 X49.719 Y196.694 E0.12704
G1 X45.727 Y196.004 E0.12704
G1 X27.439 Y191.830 E0.58814
G1 X26.312 Y191.363 E0.03824
G1 X25.396 Y190.644 E0.03652
G1 X24.910 Y190.049 E0.02409
G1 X24.558 Y189.426 E0.02245
G1 X16.875 Y172.382 E0.58616
G1 X15.406 Y168.588 E0.12757
G1 X14.324 Y164.704 E0.12643
G1 X13.901 Y162.585 E0.06774
G1 X13.409 Y158.586 E0.12634
G1 X13.308 Y156.545 E0.06407
G1 X13.308 Y154.505 E0.06395
G1 X13.603 Y150.487 E0.12631
G1 X13.911 Y148.406 E0.06598
G1 X14.794 Y144.479 E0.12619
G1 X15.421 Y142.419 E0.06753
G1 X16.875 Y138.670 E0.12607
G1 X24.560 Y121.621 E0.58634
G1 X24.986 Y120.894 E0.02644
G1 X25.478 Y120.324 E0.02360
G1 X26.376 Y119.660 E0.03501
; printing object Optical_Layer_V3_Alt.stl id:0 copy 0
;WIPE_START
G1 F8640.000
G1 X27.445 Y119.220 E-0.26695
G1 X29.526 Y118.745 E-0.49305
;WIPE_END
G1 E-0.04000 F2100.000
G1 Z0.600 F10800.000
G1 X53.144 Y150.110
G1 Z0.200
G1 E0.80000 F2100.000
;TYPE:Perimeter
G1 F1200.000
G1 X53.625 Y149.832 E0.01742
G1 X54.152 Y149.655 E0.01742
G1 X54.703 Y149.586 E0.01742
G1 X55.257 Y149.628 E0.01742
G1 X55.792 Y149.778 E0.01742
G1 X56.286 Y150.032 E0.01742
G1 X56.721 Y150.378 E0.01742
G1 X57.078 Y150.804 E0.01742
G1 X57.344 Y151.292 E0.01742
G1 X57.505 Y151.816 E0.01721
G1 X57.559 Y152.253 E0.01380
G1 X57.531 Y152.792 E0.01691
G1 X57.394 Y153.330 E0.01741
G1 X57.153 Y153.830 E0.01742
G1 X56.818 Y154.273 E0.01742
G1 X56.401 Y154.641 E0.01742
G1 X55.920 Y154.919 E0.01742
G1 X55.393 Y155.096 E0.01742
G1 X54.842 Y155.165 E0.01742
G1 X54.288 Y155.123 E0.01742
G1 X53.753 Y154.973 E0.01742
G1 X53.259 Y154.719 E0.01742
G1 X52.825 Y154.373 E0.01742
G1 X52.467 Y153.947 E0.01742
G1 X52.202 Y153.459 E0.01742
G1 X52.040 Y152.935 E0.01721
G1 X51.986 Y152.498 E0.01380
G1 X52.014 Y151.959 E0.01691
G1 X52.151 Y151.421 E0.01741
G1 X52.392 Y150.921 E0.01742
G1 X52.727 Y150.478 E0.01742
G1 X53.099 Y150.150 E0.01554
G1 X53.348 Y150.433 F10800.000
;TYPE:External perimeter
G1 F1200.000
G1 X53.781 Y150.178 E0.01574
G1 X54.236 Y150.025 E0.01505
G1 X54.713 Y149.965 E0.01505
G1 X55.191 Y150.001 E0.01505
G1 X55.654 Y150.131 E0.01505
G1 X56.081 Y150.350 E0.01505
G1 X56.456 Y150.649 E0.01505
G1 X56.765 Y151.017 E0.01505
G1 X56.994 Y151.439 E0.01505
G1 X57.135 Y151.895 E0.01498
G1 X57.181 Y152.267 E0.01173
G1 X57.157 Y152.735 E0.01470
G1 X57.038 Y153.200 E0.01505
G1 X56.830 Y153.633 E0.01505
G1 X56.540 Y154.015 E0.01505
M73 P0 R82
G1 X56.180 Y154.333 E0.01505
G1 X55.764 Y154.573 E0.01505
G1 X55.309 Y154.726 E0.01505
G1 X54.833 Y154.786 E0.01505
G1 X54.354 Y154.750 E0.01505
G1 X53.892 Y154.620 E0.01505
G1 X53.464 Y154.401 E0.01505
G1 X53.089 Y154.101 E0.01505
G1 X52.780 Y153.734 E0.01505
G1 X52.551 Y153.312 E0.01505
G1 X52.410 Y152.855 E0.01498
G1 X52.364 Y152.484 E0.01173
G1 X52.388 Y152.016 E0.01470
G1 X52.507 Y151.551 E0.01505
G1 X52.715 Y151.118 E0.01505
G1 X53.005 Y150.735 E0.01505
G1 X53.303 Y150.472 E0.01247
G1 X53.306 Y150.035 F10800.000
;WIPE_START
G1 F8640.000
G1 X53.781 Y150.178 E-0.12954
G1 X54.236 Y150.025 E-0.11086
G1 X54.713 Y149.965 E-0.11087
G1 X55.191 Y150.001 E-0.11086
G1 X55.654 Y150.131 E-0.11087
G1 X56.081 Y150.350 E-0.11087
G1 X56.339 Y150.556 E-0.07613
;WIPE_END
G1 E-0.04000 F2100.000
G1 Z0.600 F10800.000
G1 X48.561 Y153.733
G1 Z0.200
G1 E0.80000 F2100.000
;TYPE:Perimeter
G1 F1200.000
G1 X48.873 Y154.192 E0.01741
G1 X49.089 Y154.704 E0.01741
G1 X49.199 Y155.248 E0.01741
G1 X49.199 Y155.803 E0.01741
G1 X49.089 Y156.347 E0.01741
G1 X48.873 Y156.859 E0.01741
G1 X48.561 Y157.318 E0.01741
G1 X48.164 Y157.706 E0.01741
G1 X47.697 Y158.007 E0.01742
G1 X47.180 Y158.211 E0.01742
G1 X46.633 Y158.308 E0.01742
G1 X46.078 Y158.294 E0.01742
G1 X45.536 Y158.171 E0.01742
G1 X45.029 Y157.943 E0.01742
G1 X44.578 Y157.619 E0.01742
G1 X44.200 Y157.212 E0.01742
G1 X43.910 Y156.738 E0.01742
G1 X43.719 Y156.216 E0.01743
G1 X43.637 Y155.670 E0.01731
G1 X43.648 Y155.238 E0.01354
G1 X43.757 Y154.701 E0.01719
G1 X43.973 Y154.189 E0.01742
G1 X44.287 Y153.730 E0.01742
G1 X44.685 Y153.343 E0.01742
G1 X45.152 Y153.042 E0.01742
G1 X45.669 Y152.839 E0.01742
G1 X46.209 Y152.744 E0.01719
G1 X46.640 Y152.745 E0.01353
G1 X47.180 Y152.840 E0.01719
G1 X47.697 Y153.043 E0.01742
G1 X48.164 Y153.345 E0.01742
G1 X48.518 Y153.691 E0.01553
G1 X48.254 Y153.961 F10800.000
;TYPE:External perimeter
G1 F1200.000
G1 X48.541 Y154.373 E0.01573
G1 X48.727 Y154.815 E0.01504
G1 X48.822 Y155.286 E0.01504
G1 X48.822 Y155.765 E0.01504
G1 X48.727 Y156.236 E0.01504
G1 X48.541 Y156.678 E0.01504
G1 X48.270 Y157.074 E0.01504
G1 X47.927 Y157.410 E0.01505
G1 X47.524 Y157.670 E0.01505
G1 X47.077 Y157.846 E0.01505
G1 X46.604 Y157.930 E0.01505
G1 X46.124 Y157.918 E0.01505
G1 X45.656 Y157.812 E0.01505
G1 X45.219 Y157.614 E0.01505
G1 X44.829 Y157.334 E0.01505
G1 X44.502 Y156.983 E0.01505
G1 X44.251 Y156.573 E0.01505
G1 X44.087 Y156.122 E0.01506
G1 X44.015 Y155.646 E0.01509
G1 X44.024 Y155.281 E0.01147
G1 X44.119 Y154.813 E0.01497
G1 X44.306 Y154.371 E0.01505
G1 X44.577 Y153.974 E0.01505
G1 X44.921 Y153.639 E0.01505
G1 X45.324 Y153.379 E0.01505
G1 X45.771 Y153.204 E0.01505
G1 X46.241 Y153.121 E0.01497
G1 X46.607 Y153.122 E0.01146
G1 X47.077 Y153.205 E0.01497
G1 X47.524 Y153.381 E0.01505
G1 X47.927 Y153.641 E0.01505
G1 X48.212 Y153.919 E0.01247
G1 X48.648 Y153.889 F10800.000
;WIPE_START
G1 F8640.000
G1 X48.541 Y154.373 E-0.12947
G1 X48.727 Y154.815 E-0.11079
G1 X48.822 Y155.286 E-0.11079
G1 X48.822 Y155.765 E-0.11079
G1 X48.727 Y156.236 E-0.11079
G1 X48.541 Y156.678 E-0.11079
G1 X48.354 Y156.952 E-0.07659
;WIPE_END
G1 E-0.04000 F2100.000
G1 Z0.600 F10800.000
G1 X52.392 Y163.450
G1 Z0.200
G1 E0.80000 F2100.000
;TYPE:Perimeter
G1 F1200.000
G1 X52.929 Y163.239 E0.01809
G1 X53.485 Y163.083 E0.01809
G1 X54.053 Y162.982 E0.01809
G1 X54.628 Y162.939 E0.01809
G1 X55.205 Y162.954 E0.01809
G1 X55.778 Y163.026 E0.01809
G1 X56.340 Y163.154 E0.01809
G1 X56.887 Y163.338 E0.01809
G1 X57.413 Y163.575 E0.01809
G1 X57.913 Y163.863 E0.01809
G1 X58.381 Y164.200 E0.01809
G1 X58.814 Y164.582 E0.01809
G1 X59.206 Y165.005 E0.01809
G1 X59.555 Y165.465 E0.01809
G1 X59.856 Y165.957 E0.01809
G1 X60.106 Y166.477 E0.01809
G1 X60.301 Y167.013 E0.01786
G1 X60.383 Y167.304 E0.00951
G1 X60.496 Y167.863 E0.01786
G1 X60.553 Y168.437 E0.01809
G1 X60.553 Y169.014 E0.01809
G1 X60.496 Y169.588 E0.01809
G1 X60.382 Y170.154 E0.01809
G1 X60.211 Y170.705 E0.01809
G1 X59.987 Y171.237 E0.01809
G1 X59.711 Y171.743 E0.01809
G1 X59.386 Y172.220 E0.01809
G1 X59.015 Y172.662 E0.01809
G1 X58.602 Y173.065 E0.01809
G1 X58.151 Y173.425 E0.01809
G1 X57.667 Y173.738 E0.01809
G1 X57.153 Y174.001 E0.01809
G1 X56.616 Y174.212 E0.01809
G1 X56.061 Y174.368 E0.01809
G1 X55.492 Y174.468 E0.01809
G1 X54.917 Y174.512 E0.01809
G1 X54.340 Y174.497 E0.01809
G1 X53.768 Y174.425 E0.01809
G1 X53.205 Y174.297 E0.01809
G1 X52.658 Y174.113 E0.01809
G1 X52.132 Y173.876 E0.01809
G1 X51.632 Y173.587 E0.01809
G1 X51.164 Y173.251 E0.01809
G1 X50.731 Y172.869 E0.01809
G1 X50.339 Y172.446 E0.01809
G1 X49.990 Y171.986 E0.01809
G1 X49.690 Y171.494 E0.01809
G1 X49.439 Y170.974 E0.01809
G1 X49.242 Y170.431 E0.01809
G1 X49.100 Y169.872 E0.01809
G1 X49.015 Y169.308 E0.01788
G1 X48.992 Y168.992 E0.00993
G1 X48.992 Y168.437 E0.01742
G1 X49.049 Y167.863 E0.01809
G1 X49.164 Y167.297 E0.01809
G1 X49.334 Y166.746 E0.01809
G1 X49.558 Y166.214 E0.01809
G1 X49.834 Y165.707 E0.01809
G1 X50.159 Y165.231 E0.01809
G1 X50.530 Y164.789 E0.01809
G1 X50.943 Y164.386 E0.01809
G1 X51.394 Y164.026 E0.01809
G1 X51.879 Y163.713 E0.01809
G1 X52.339 Y163.477 E0.01621
G1 X52.511 Y163.813 F10800.000
;TYPE:External perimeter
G1 F1200.000
G1 X53.050 Y163.597 E0.01820
G1 X53.569 Y163.451 E0.01691
G1 X54.100 Y163.357 E0.01691
G1 X54.638 Y163.317 E0.01691
G1 X55.177 Y163.330 E0.01691
G1 X55.712 Y163.397 E0.01691
G1 X56.238 Y163.517 E0.01691
G1 X56.749 Y163.689 E0.01691
G1 X57.241 Y163.911 E0.01691
G1 X57.708 Y164.181 E0.01691
G1 X58.146 Y164.495 E0.01691
G1 X58.550 Y164.852 E0.01691
G1 X58.917 Y165.248 E0.01691
G1 X59.243 Y165.678 E0.01691
G1 X59.524 Y166.138 E0.01691
G1 X59.758 Y166.624 E0.01691
G1 X59.942 Y167.128 E0.01683
G1 X60.016 Y167.393 E0.00862
G1 X60.123 Y167.919 E0.01683
G1 X60.176 Y168.456 E0.01691
G1 X60.176 Y168.995 E0.01691
G1 X60.123 Y169.532 E0.01691
G1 X60.016 Y170.060 E0.01691
G1 X59.857 Y170.576 E0.01691
G1 X59.647 Y171.073 E0.01691
G1 X59.389 Y171.547 E0.01691
G1 X59.085 Y171.992 E0.01691
G1 X58.739 Y172.405 E0.01691
G1 X58.353 Y172.782 E0.01691
G1 X57.931 Y173.118 E0.01691
G1 X57.478 Y173.411 E0.01691
G1 X56.998 Y173.657 E0.01691
G1 X56.496 Y173.854 E0.01691
G1 X55.977 Y174.000 E0.01691
G1 X55.445 Y174.094 E0.01691
G1 X54.908 Y174.134 E0.01691
G1 X54.368 Y174.121 E0.01691
G1 X53.833 Y174.054 E0.01691
G1 X53.307 Y173.934 E0.01691
G1 X52.796 Y173.762 E0.01691
G1 X52.304 Y173.540 E0.01691
G1 X51.837 Y173.270 E0.01691
G1 X51.399 Y172.955 E0.01691
G1 X50.995 Y172.599 E0.01691
G1 X50.628 Y172.203 E0.01691
G1 X50.302 Y171.773 E0.01691
G1 X50.021 Y171.313 E0.01691
G1 X49.787 Y170.827 E0.01691
G1 X49.603 Y170.320 E0.01691
G1 X49.470 Y169.797 E0.01691
G1 X49.390 Y169.266 E0.01684
G1 X49.369 Y168.979 E0.00904
G1 X49.369 Y168.456 E0.01640
G1 X49.423 Y167.919 E0.01691
G1 X49.530 Y167.390 E0.01691
G1 X49.689 Y166.875 E0.01691
G1 X49.898 Y166.378 E0.01691
G1 X50.156 Y165.904 E0.01691
G1 X50.460 Y165.459 E0.01691
G1 X50.807 Y165.045 E0.01691
G1 X51.193 Y164.669 E0.01691
G1 X51.614 Y164.333 E0.01691
G1 X52.067 Y164.040 E0.01691
G1 X52.457 Y163.840 E0.01374
G1 X52.548 Y163.414 F10800.000
;WIPE_START
G1 F8640.000
G1 X53.050 Y163.597 E-0.14781
G1 X53.569 Y163.451 E-0.12454
G1 X54.100 Y163.357 E-0.12454
G1 X54.638 Y163.317 E-0.12454
G1 X55.177 Y163.330 E-0.12454
G1 X55.667 Y163.392 E-0.11403
;WIPE_END
G1 E-0.04000 F2100.000
G1 Z0.600 F10800.000
G1 X54.196 Y175.500
G1 Z0.200
G1 E0.80000 F2100.000
;TYPE:Perimeter
G1 F1200.000
G1 X54.708 Y175.436 E0.01617
G1 X55.222 Y175.475 E0.01617
G1 X55.713 Y175.613 E0.01596
G1 X56.081 Y175.791 E0.01286
G1 X56.487 Y176.084 E0.01567
G1 X56.837 Y176.462 E0.01616
G1 X57.106 Y176.902 E0.01617
G1 X57.283 Y177.386 E0.01617
G1 X57.359 Y177.896 E0.01617
G1 X57.334 Y178.411 E0.01617
G1 X57.207 Y178.911 E0.01617
G1 X56.983 Y179.376 E0.01617
G1 X56.671 Y179.787 E0.01617
G1 X56.285 Y180.128 E0.01617
G1 X55.838 Y180.386 E0.01617
G1 X55.349 Y180.551 E0.01617
G1 X54.837 Y180.615 E0.01617
G1 X54.323 Y180.576 E0.01617
G1 X53.826 Y180.436 E0.01617
G1 X53.367 Y180.201 E0.01617
G1 X52.964 Y179.880 E0.01617
G1 X52.633 Y179.484 E0.01617
G1 X52.386 Y179.032 E0.01617
G1 X52.234 Y178.539 E0.01617
G1 X52.183 Y178.025 E0.01617
G1 X52.234 Y177.512 E0.01617
G1 X52.386 Y177.019 E0.01617
G1 X52.629 Y176.572 E0.01596
G1 X52.886 Y176.252 E0.01286
G1 X53.261 Y175.922 E0.01567
G1 X53.707 Y175.665 E0.01616
G1 X54.139 Y175.519 E0.01429
G1 X54.260 Y175.877 F10800.000
;TYPE:External perimeter
G1 F1200.000
G1 X54.718 Y175.815 E0.01449
G1 X55.157 Y175.848 E0.01381
G1 X55.578 Y175.967 E0.01373
G1 X55.888 Y176.116 E0.01078
G1 X56.236 Y176.368 E0.01346
G1 X56.535 Y176.690 E0.01380
G1 X56.765 Y177.066 E0.01381
G1 X56.915 Y177.480 E0.01381
G1 X56.981 Y177.915 E0.01381
G1 X56.959 Y178.355 E0.01381
G1 X56.850 Y178.782 E0.01381
G1 X56.659 Y179.178 E0.01381
G1 X56.393 Y179.529 E0.01381
G1 X56.063 Y179.821 E0.01381
G1 X55.682 Y180.041 E0.01381
G1 X55.265 Y180.181 E0.01381
G1 X54.828 Y180.236 E0.01381
G1 X54.389 Y180.203 E0.01381
G1 X53.965 Y180.084 E0.01381
G1 X53.573 Y179.883 E0.01381
G1 X53.229 Y179.608 E0.01381
G1 X52.946 Y179.271 E0.01381
G1 X52.735 Y178.884 E0.01381
G1 X52.605 Y178.464 E0.01381
G1 X52.562 Y178.025 E0.01381
G1 X52.605 Y177.587 E0.01381
G1 X52.735 Y177.167 E0.01381
G1 X52.945 Y176.782 E0.01373
G1 X53.160 Y176.514 E0.01078
G1 X53.482 Y176.230 E0.01346
G1 X53.863 Y176.010 E0.01380
G1 X54.203 Y175.896 E0.01123
G1 X54.375 Y175.494 F10800.000
;WIPE_START
G1 F8640.000
G1 X54.718 Y175.815 E-0.12035
G1 X55.157 Y175.848 E-0.10167
G1 X55.578 Y175.967 E-0.10112
G1 X55.888 Y176.116 E-0.07938
G1 X56.236 Y176.368 E-0.09916
G1 X56.535 Y176.690 E-0.10163
G1 X56.765 Y177.066 E-0.10167
G1 X56.846 Y177.290 E-0.05502
;WIPE_END
G1 E-0.04000 F2100.000
G1 Z0.600 F10800.000
G1 X34.159 Y157.299
G1 Z0.200
G1 E0.80000 F2100.000
;TYPE:Perimeter
G1 F1200.000
G1 X33.784 Y157.629 E0.01567
G1 X33.338 Y157.886 E0.01616
G1 X32.849 Y158.051 E0.01617
G1 X32.337 Y158.115 E0.01617
G1 X31.823 Y158.076 E0.01617
G1 X31.326 Y157.936 E0.01617
G1 X30.867 Y157.701 E0.01617
G1 X30.464 Y157.380 E0.01617
G1 X30.133 Y156.984 E0.01617
G1 X29.886 Y156.532 E0.01617
G1 X29.734 Y156.039 E0.01617
G1 X29.683 Y155.525 E0.01617
G1 X29.734 Y155.012 E0.01617
G1 X29.886 Y154.519 E0.01617
G1 X30.129 Y154.072 E0.01596
G1 X30.386 Y153.752 E0.01286
G1 X30.761 Y153.422 E0.01567
G1 X31.207 Y153.165 E0.01616
G1 X31.696 Y153.000 E0.01617
G1 X32.208 Y152.936 E0.01617
G1 X32.722 Y152.975 E0.01617
G1 X33.219 Y153.114 E0.01617
G1 X33.678 Y153.350 E0.01617
G1 X34.081 Y153.671 E0.01617
G1 X34.413 Y154.066 E0.01617
G1 X34.659 Y154.519 E0.01617
G1 X34.811 Y155.012 E0.01617
G1 X34.863 Y155.525 E0.01617
G1 X34.811 Y156.039 E0.01617
G1 X34.659 Y156.532 E0.01617
G1 X34.416 Y156.979 E0.01596
G1 X34.197 Y157.252 E0.01098
G1 X33.903 Y157.016 F10800.000
;TYPE:External perimeter
G1 F1200.000
G1 X33.563 Y157.321 E0.01431
G1 X33.182 Y157.541 E0.01380
G1 X32.765 Y157.681 E0.01381
G1 X32.328 Y157.736 E0.01381
