; generated by PrusaSlicer 2.3.3+win64 on 2021-11-18 at 16:59:20 UTC

; 

; external perimeters extrusion width = 0.45mm
; perimeters extrusion width = 0.45mm
; infill extrusion width = 0.45mm
; solid infill extrusion width = 0.45mm
; top infill extrusion width = 0.40mm
; first layer extrusion width = 0.42mm

M73 P0 R76
M73 Q0 S77
M201 X1000 Y1000 Z200 E5000 ; sets maximum accelerations, mm/sec^2
M203 X200 Y200 Z12 E120 ; sets maximum feedrates, mm/sec
M204 P1250 R1250 T1250 ; sets acceleration (P, T) and retract acceleration (R), mm/sec^2
M205 X8.00 Y8.00 Z0.40 E4.50 ; sets the jerk limits, mm/sec
M205 S0 T0 ; sets the minimum extruding and travel feed rate, mm/sec
M107
;TYPE:Custom
M862.3 P "MK3" ; printer model check
M862.1 P0.4 ; nozzle diameter check
M115 U3.10.0 ; tell printer latest fw version
G90 ; use absolute coordinates
M83 ; extruder relative mode
M104 S215 ; set extruder temp
M140 S60 ; set bed temp
M190 S60 ; wait for bed temp
M109 S215 ; wait for extruder temp
G28 W ; home all without mesh bed level
G80 ; mesh bed leveling
G1 Y-3.0 F1000.0 ; go outside print area
G92 E0.0
G1 X60.0 E9.0 F1000.0 ; intro line
G1 X100.0 E12.5 F1000.0 ; intro line
G92 E0.0
M221 S95

; Don't change E values below. Excessive value can damage the printer.
M907 E430 ; set extruder motor current
G21 ; set units to millimeters
G90 ; use absolute coordinates
M83 ; use relative distances for extrusion
M900 K0.05 ; Filament gcode LA 1.5
M900 K30 ; Filament gcode LA 1.0
;LAYER_CHANGE
;Z:0.2
;HEIGHT:0.2
;BEFORE_LAYER_CHANGE
G92 E0.0
;0.2


G1 E-0.80000 F2100.000
G1 Z0.400 F10800.000
;AFTER_LAYER_CHANGE
;0.2
G1 X37.988 Y114.893
G1 Z0.200
G1 E0.80000 F2100.000
M204 S1000
;TYPE:Skirt
;WIDTH:0.42
G1 F1200.000
G1 X39.009 Y114.489 E0.03443
G1 X57.325 Y110.309 E0.58903
G1 X59.281 Y109.922 E0.06253
G1 X61.341 Y109.620 E0.06527
G1 X65.266 Y109.332 E0.12340
G1 X67.296 Y109.329 E0.06366
G1 X69.374 Y109.429 E0.06521
G1 X71.390 Y109.626 E0.06354
G1 X75.383 Y110.316 E0.12704
G1 X93.671 Y114.490 E0.58814
G1 X94.798 Y114.957 E0.03824
G1 X95.712 Y115.674 E0.03644
G1 X96.200 Y116.271 E0.02417
G1 X96.552 Y116.894 E0.02245
G1 X104.234 Y133.938 E0.58616
M73 Q0 S76
G1 X105.704 Y137.732 E0.12757
G1 X106.785 Y141.616 E0.12643
G1 X107.208 Y143.735 E0.06774
G1 X107.701 Y147.734 E0.12634
G1 X107.802 Y149.775 E0.06407
G1 X107.802 Y151.815 E0.06395
G1 X107.507 Y155.832 E0.12631
G1 X107.199 Y157.914 E0.06598
G1 X106.316 Y161.841 E0.12619
G1 X105.688 Y163.901 E0.06753
G1 X104.235 Y167.650 E0.12607
G1 X96.550 Y184.699 E0.58634
G1 X96.124 Y185.426 E0.02644
G1 X95.632 Y185.996 E0.02360
G1 X94.686 Y186.696 E0.03689
G1 X93.665 Y187.100 E0.03443
G1 X75.346 Y191.281 E0.58915
G1 X73.339 Y191.676 E0.06414
G1 X69.432 Y192.155 E0.12340
G1 X67.351 Y192.259 E0.06533
G1 X65.325 Y192.259 E0.06354
G1 X61.284 Y191.963 E0.12704
G1 X57.291 Y191.273 E0.12704
G1 X39.004 Y187.099 E0.58814
G1 X37.876 Y186.632 E0.03824
G1 X36.960 Y185.913 E0.03652
G1 X36.474 Y185.318 E0.02409
G1 X36.122 Y184.695 E0.02245
G1 X28.440 Y167.651 E0.58616
G1 X26.971 Y163.857 E0.12757
G1 X25.889 Y159.973 E0.12643
G1 X25.466 Y157.854 E0.06774
G1 X24.973 Y153.855 E0.12634
G1 X24.873 Y151.814 E0.06407
G1 X24.873 Y149.774 E0.06395
G1 X25.168 Y145.757 E0.12631
G1 X25.476 Y143.675 E0.06598
G1 X26.359 Y139.748 E0.12619
G1 X26.986 Y137.688 E0.06753
G1 X28.440 Y133.939 E0.12607
G1 X36.124 Y116.890 E0.58634
G1 X36.551 Y116.163 E0.02644
G1 X37.043 Y115.593 E0.02360
G1 X37.940 Y114.929 E0.03501
; printing object Optical_Layer_V4.stl id:0 copy 0
;WIPE_START
G1 F8640.000
G1 X39.009 Y114.489 E-0.26695
G1 X41.091 Y114.014 E-0.49305
;WIPE_END
G1 E-0.04000 F2100.000
G1 Z0.600 F10800.000
G1 X64.709 Y145.379
G1 Z0.200
G1 E0.80000 F2100.000
;TYPE:Perimeter
G1 F1200.000
G1 X65.190 Y145.101 E0.01742
G1 X65.716 Y144.924 E0.01742
G1 X66.268 Y144.855 E0.01742
G1 X66.822 Y144.897 E0.01742
G1 X67.357 Y145.047 E0.01742
G1 X67.851 Y145.301 E0.01742
G1 X68.285 Y145.647 E0.01742
G1 X68.642 Y146.073 E0.01742
G1 X68.908 Y146.561 E0.01742
G1 X69.070 Y147.085 E0.01721
G1 X69.124 Y147.522 E0.01380
G1 X69.096 Y148.061 E0.01691
G1 X68.959 Y148.599 E0.01741
G1 X68.718 Y149.099 E0.01742
G1 X68.382 Y149.542 E0.01742
G1 X67.966 Y149.910 E0.01742
G1 X67.485 Y150.188 E0.01742
G1 X66.958 Y150.365 E0.01742
G1 X66.407 Y150.434 E0.01742
G1 X65.853 Y150.392 E0.01742
G1 X65.318 Y150.242 E0.01742
G1 X64.823 Y149.988 E0.01742
G1 X64.389 Y149.642 E0.01742
G1 X64.032 Y149.216 E0.01742
G1 X63.766 Y148.728 E0.01742
G1 X63.604 Y148.204 E0.01721
G1 X63.551 Y147.767 E0.01380
G1 X63.578 Y147.228 E0.01691
G1 X63.715 Y146.690 E0.01741
G1 X63.956 Y146.190 E0.01742
G1 X64.292 Y145.747 E0.01742
G1 X64.664 Y145.419 E0.01554
G1 X64.913 Y145.702 F10800.000
;TYPE:External perimeter
G1 F1200.000
G1 X65.346 Y145.447 E0.01574
G1 X65.801 Y145.294 E0.01505
G1 X66.277 Y145.234 E0.01505
G1 X66.756 Y145.270 E0.01505
G1 X67.218 Y145.400 E0.01505
G1 X67.645 Y145.619 E0.01505
G1 X68.021 Y145.918 E0.01505
G1 X68.329 Y146.286 E0.01505
G1 X68.559 Y146.708 E0.01505
G1 X68.700 Y147.164 E0.01498
G1 X68.745 Y147.536 E0.01173
G1 X68.721 Y148.004 E0.01470
G1 X68.603 Y148.469 E0.01505
G1 X68.395 Y148.902 E0.01505
G1 X68.105 Y149.284 E0.01505
G1 X67.745 Y149.602 E0.01505
G1 X67.329 Y149.842 E0.01505
G1 X66.874 Y149.995 E0.01505
G1 X66.397 Y150.055 E0.01505
G1 X65.919 Y150.019 E0.01505
G1 X65.456 Y149.889 E0.01505
G1 X65.029 Y149.670 E0.01505
G1 X64.654 Y149.371 E0.01505
G1 X64.345 Y149.003 E0.01505
G1 X64.115 Y148.581 E0.01505
G1 X63.975 Y148.125 E0.01498
G1 X63.929 Y147.753 E0.01173
G1 X63.953 Y147.285 E0.01470
G1 X64.072 Y146.820 E0.01505
G1 X64.280 Y146.387 E0.01505
G1 X64.570 Y146.005 E0.01505
G1 X64.868 Y145.741 E0.01247
G1 X64.871 Y145.304 F10800.000
;WIPE_START
G1 F8640.000
G1 X65.346 Y145.447 E-0.12954
G1 X65.801 Y145.294 E-0.11086
G1 X66.277 Y145.234 E-0.11087
G1 X66.756 Y145.270 E-0.11086
G1 X67.218 Y145.400 E-0.11087
G1 X67.645 Y145.619 E-0.11087
G1 X67.903 Y145.825 E-0.07613
;WIPE_END
G1 E-0.04000 F2100.000
G1 Z0.600 F10800.000
G1 X60.125 Y149.002
G1 Z0.200
G1 E0.80000 F2100.000
;TYPE:Perimeter
G1 F1200.000
G1 X60.438 Y149.461 E0.01741
G1 X60.654 Y149.973 E0.01741
G1 X60.763 Y150.517 E0.01741
G1 X60.763 Y151.072 E0.01741
G1 X60.654 Y151.616 E0.01741
G1 X60.438 Y152.128 E0.01741
G1 X60.125 Y152.587 E0.01741
G1 X59.728 Y152.975 E0.01741
G1 X59.262 Y153.277 E0.01742
G1 X58.745 Y153.480 E0.01742
G1 X58.198 Y153.577 E0.01742
G1 X57.642 Y153.563 E0.01742
G1 X57.100 Y153.440 E0.01742
G1 X56.594 Y153.212 E0.01742
G1 X56.143 Y152.888 E0.01742
G1 X55.764 Y152.481 E0.01742
G1 X55.474 Y152.007 E0.01742
G1 X55.284 Y151.485 E0.01743
G1 X55.202 Y150.939 E0.01731
G1 X55.213 Y150.507 E0.01354
G1 X55.322 Y149.970 E0.01719
G1 X55.538 Y149.458 E0.01742
G1 X55.851 Y148.999 E0.01742
G1 X56.249 Y148.612 E0.01742
G1 X56.716 Y148.311 E0.01742
G1 X57.233 Y148.108 E0.01742
G1 X57.773 Y148.013 E0.01719
G1 X58.205 Y148.014 E0.01353
G1 X58.745 Y148.109 E0.01719
G1 X59.262 Y148.313 E0.01742
G1 X59.728 Y148.614 E0.01742
G1 X60.082 Y148.960 E0.01553
G1 X59.819 Y149.230 F10800.000
;TYPE:External perimeter
G1 F1200.000
G1 X60.105 Y149.642 E0.01573
G1 X60.291 Y150.084 E0.01504
G1 X60.386 Y150.555 E0.01504
G1 X60.386 Y151.034 E0.01504
G1 X60.291 Y151.505 E0.01504
G1 X60.105 Y151.947 E0.01504
G1 X59.835 Y152.343 E0.01504
G1 X59.492 Y152.679 E0.01505
G1 X59.089 Y152.939 E0.01505
G1 X58.642 Y153.115 E0.01505
G1 X58.169 Y153.199 E0.01505
G1 X57.689 Y153.187 E0.01505
G1 X57.221 Y153.081 E0.01505
G1 X56.783 Y152.883 E0.01505
G1 X56.393 Y152.603 E0.01505
G1 X56.066 Y152.252 E0.01505
G1 X55.816 Y151.842 E0.01505
G1 X55.651 Y151.391 E0.01506
G1 X55.579 Y150.915 E0.01509
G1 X55.589 Y150.550 E0.01147
G1 X55.684 Y150.082 E0.01497
G1 X55.871 Y149.640 E0.01505
G1 X56.141 Y149.243 E0.01505
G1 X56.485 Y148.908 E0.01505
G1 X56.889 Y148.648 E0.01505
G1 X57.336 Y148.473 E0.01505
G1 X57.806 Y148.390 E0.01497
G1 X58.172 Y148.391 E0.01146
G1 X58.642 Y148.474 E0.01497
G1 X59.089 Y148.650 E0.01505
G1 X59.492 Y148.910 E0.01505
G1 X59.776 Y149.188 E0.01247
G1 X60.213 Y149.158 F10800.000
;WIPE_START
G1 F8640.000
G1 X60.105 Y149.642 E-0.12947
G1 X60.291 Y150.084 E-0.11079
G1 X60.386 Y150.555 E-0.11079
G1 X60.386 Y151.034 E-0.11079
G1 X60.291 Y151.505 E-0.11079
G1 X60.105 Y151.947 E-0.11079
G1 X59.918 Y152.221 E-0.07659
;WIPE_END
G1 E-0.04000 F2100.000
G1 Z0.600 F10800.000
G1 X63.957 Y158.719
G1 Z0.200
G1 E0.80000 F2100.000
;TYPE:Perimeter
G1 F1200.000
G1 X64.494 Y158.508 E0.01809
G1 X65.049 Y158.352 E0.01809
G1 X65.618 Y158.252 E0.01809
G1 X66.193 Y158.208 E0.01809
G1 X66.770 Y158.223 E0.01809
G1 X67.342 Y158.295 E0.01809
G1 X67.905 Y158.423 E0.01809
G1 X68.452 Y158.607 E0.01809
G1 X68.978 Y158.844 E0.01809
G1 X69.477 Y159.133 E0.01809
G1 X69.946 Y159.469 E0.01809
G1 X70.379 Y159.851 E0.01809
G1 X70.771 Y160.274 E0.01809
G1 X71.119 Y160.734 E0.01809
G1 X71.420 Y161.226 E0.01809
G1 X71.671 Y161.746 E0.01809
G1 X71.865 Y162.282 E0.01786
G1 X71.948 Y162.573 E0.00951
G1 X72.060 Y163.132 E0.01786
G1 X72.118 Y163.706 E0.01809
G1 X72.118 Y164.283 E0.01809
G1 X72.060 Y164.857 E0.01809
G1 X71.946 Y165.423 E0.01809
G1 X71.776 Y165.974 E0.01809
G1 X71.552 Y166.506 E0.01809
G1 X71.276 Y167.013 E0.01809
G1 X70.951 Y167.489 E0.01809
G1 X70.580 Y167.931 E0.01809
G1 X70.167 Y168.334 E0.01809
G1 X69.716 Y168.694 E0.01809
G1 X69.231 Y169.007 E0.01809
G1 X68.718 Y169.270 E0.01809
G1 X68.181 Y169.481 E0.01809
G1 X67.625 Y169.637 E0.01809
G1 X67.057 Y169.737 E0.01809
G1 X66.482 Y169.781 E0.01809
G1 X65.905 Y169.766 E0.01809
G1 X65.332 Y169.694 E0.01809
G1 X64.770 Y169.566 E0.01809
G1 X64.223 Y169.382 E0.01809
G1 X63.697 Y169.145 E0.01809
G1 X63.197 Y168.856 E0.01809
G1 X62.729 Y168.520 E0.01809
G1 X62.296 Y168.138 E0.01809
G1 X61.903 Y167.715 E0.01809
G1 X61.555 Y167.255 E0.01809
G1 X61.254 Y166.763 E0.01809
G1 X61.004 Y166.243 E0.01809
G1 X60.806 Y165.701 E0.01809
G1 X60.664 Y165.141 E0.01809
G1 X60.579 Y164.577 E0.01788
G1 X60.556 Y164.261 E0.00993
G1 X60.557 Y163.706 E0.01742
G1 X60.614 Y163.132 E0.01809
G1 X60.728 Y162.566 E0.01809
G1 X60.898 Y162.015 E0.01809
G1 X61.123 Y161.483 E0.01809
G1 X61.398 Y160.977 E0.01809
G1 X61.724 Y160.500 E0.01809
G1 X62.094 Y160.058 E0.01809
G1 X62.507 Y159.655 E0.01809
G1 X62.959 Y159.295 E0.01809
G1 X63.443 Y158.982 E0.01809
G1 X63.903 Y158.746 E0.01621
G1 X64.075 Y159.082 F10800.000
;TYPE:External perimeter
G1 F1200.000
G1 X64.614 Y158.866 E0.01820
G1 X65.133 Y158.720 E0.01691
G1 X65.664 Y158.626 E0.01691
G1 X66.202 Y158.586 E0.01691
G1 X66.742 Y158.599 E0.01691
G1 X67.277 Y158.666 E0.01691
G1 X67.803 Y158.786 E0.01691
G1 X68.314 Y158.958 E0.01691
G1 X68.805 Y159.180 E0.01691
G1 X69.273 Y159.450 E0.01691
G1 X69.711 Y159.765 E0.01691
G1 X70.115 Y160.121 E0.01691
G1 X70.482 Y160.517 E0.01691
G1 X70.807 Y160.947 E0.01691
G1 X71.089 Y161.407 E0.01691
G1 X71.323 Y161.893 E0.01691
G1 X71.506 Y162.397 E0.01683
G1 X71.581 Y162.662 E0.00862
G1 X71.687 Y163.188 E0.01683
G1 X71.741 Y163.725 E0.01691
G1 X71.741 Y164.264 E0.01691
G1 X71.687 Y164.801 E0.01691
G1 X71.580 Y165.330 E0.01691
G1 X71.421 Y165.845 E0.01691
G1 X71.212 Y166.342 E0.01691
G1 X70.954 Y166.816 E0.01691
G1 X70.650 Y167.261 E0.01691
G1 X70.303 Y167.674 E0.01691
G1 X69.917 Y168.051 E0.01691
G1 X69.495 Y168.387 E0.01691
G1 X69.042 Y168.680 E0.01691
G1 X68.562 Y168.926 E0.01691
G1 X68.060 Y169.123 E0.01691
G1 X67.541 Y169.269 E0.01691
G1 X67.010 Y169.363 E0.01691
G1 X66.472 Y169.403 E0.01691
G1 X65.933 Y169.390 E0.01691
G1 X65.398 Y169.323 E0.01691
G1 X64.872 Y169.203 E0.01691
G1 X64.361 Y169.031 E0.01691
G1 X63.869 Y168.809 E0.01691
G1 X63.402 Y168.539 E0.01691
G1 X62.964 Y168.224 E0.01691
G1 X62.560 Y167.868 E0.01691
G1 X62.193 Y167.472 E0.01691
G1 X61.867 Y167.042 E0.01691
G1 X61.586 Y166.582 E0.01691
G1 X61.352 Y166.096 E0.01691
G1 X61.167 Y165.589 E0.01691
G1 X61.034 Y165.067 E0.01691
G1 X60.954 Y164.536 E0.01684
G1 X60.933 Y164.248 E0.00904
G1 X60.934 Y163.725 E0.01640
G1 X60.987 Y163.188 E0.01691
G1 X61.094 Y162.659 E0.01691
G1 X61.253 Y162.144 E0.01691
G1 X61.463 Y161.647 E0.01691
G1 X61.721 Y161.173 E0.01691
G1 X62.024 Y160.728 E0.01691
G1 X62.371 Y160.315 E0.01691
G1 X62.757 Y159.938 E0.01691
G1 X63.179 Y159.602 E0.01691
G1 X63.632 Y159.309 E0.01691
G1 X64.022 Y159.109 E0.01374
G1 X64.113 Y158.684 F10800.000
;WIPE_START
G1 F8640.000
G1 X64.614 Y158.866 E-0.14781
G1 X65.133 Y158.720 E-0.12454
G1 X65.664 Y158.626 E-0.12454
G1 X66.202 Y158.586 E-0.12454
G1 X66.742 Y158.599 E-0.12454
G1 X67.232 Y158.661 E-0.11403
;WIPE_END
G1 E-0.04000 F2100.000
G1 Z0.600 F10800.000
G1 X65.761 Y170.769
G1 Z0.200
G1 E0.80000 F2100.000
;TYPE:Perimeter
G1 F1200.000
G1 X66.273 Y170.705 E0.01617
G1 X66.787 Y170.744 E0.01617
G1 X67.277 Y170.882 E0.01596
G1 X67.646 Y171.061 E0.01286
G1 X68.051 Y171.353 E0.01567
G1 X68.402 Y171.731 E0.01616
G1 X68.671 Y172.171 E0.01617
G1 X68.847 Y172.655 E0.01617
G1 X68.924 Y173.165 E0.01617
G1 X68.898 Y173.681 E0.01617
G1 X68.771 Y174.180 E0.01617
G1 X68.547 Y174.645 E0.01617
G1 X68.236 Y175.056 E0.01617
G1 X67.849 Y175.397 E0.01617
G1 X67.402 Y175.655 E0.01617
G1 X66.914 Y175.820 E0.01617
G1 X66.402 Y175.884 E0.01617
G1 X65.887 Y175.845 E0.01617
G1 X65.391 Y175.706 E0.01617
G1 X64.932 Y175.470 E0.01617
G1 X64.529 Y175.149 E0.01617
G1 X64.197 Y174.754 E0.01617
G1 X63.951 Y174.301 E0.01617
G1 X63.799 Y173.808 E0.01617
G1 X63.747 Y173.295 E0.01617
G1 X63.799 Y172.781 E0.01617
G1 X63.951 Y172.288 E0.01617
G1 X64.194 Y171.841 E0.01596
G1 X64.451 Y171.521 E0.01286
G1 X64.826 Y171.191 E0.01567
G1 X65.272 Y170.934 E0.01616
G1 X65.704 Y170.788 E0.01429
G1 X65.824 Y171.146 F10800.000
;TYPE:External perimeter
G1 F1200.000
G1 X66.282 Y171.084 E0.01449
G1 X66.721 Y171.117 E0.01381
G1 X67.143 Y171.236 E0.01373
G1 X67.452 Y171.386 E0.01078
G1 X67.800 Y171.637 E0.01346
G1 X68.100 Y171.959 E0.01380
G1 X68.329 Y172.335 E0.01381
G1 X68.480 Y172.749 E0.01381
G1 X68.546 Y173.184 E0.01381
G1 X68.524 Y173.624 E0.01381
G1 X68.415 Y174.051 E0.01381
G1 X68.224 Y174.447 E0.01381
G1 X67.958 Y174.798 E0.01381
G1 X67.628 Y175.090 E0.01381
G1 X67.247 Y175.310 E0.01381
G1 X66.829 Y175.450 E0.01381
G1 X66.392 Y175.505 E0.01381
G1 X65.953 Y175.472 E0.01381
G1 X65.529 Y175.353 E0.01381
G1 X65.138 Y175.152 E0.01381
G1 X64.793 Y174.877 E0.01381
G1 X64.510 Y174.540 E0.01381
G1 X64.300 Y174.153 E0.01381
G1 X64.170 Y173.733 E0.01381
G1 X64.126 Y173.295 E0.01381
G1 X64.170 Y172.856 E0.01381
G1 X64.300 Y172.436 E0.01381
G1 X64.509 Y172.051 E0.01373
G1 X64.724 Y171.783 E0.01078
G1 X65.047 Y171.499 E0.01346
G1 X65.428 Y171.279 E0.01380
G1 X65.767 Y171.165 E0.01123
G1 X65.939 Y170.763 F10800.000
;WIPE_START
G1 F8640.000
G1 X66.282 Y171.084 E-0.12035
G1 X66.721 Y171.117 E-0.10167
G1 X67.143 Y171.236 E-0.10112
G1 X67.452 Y171.386 E-0.07938
G1 X67.800 Y171.637 E-0.09916
G1 X68.100 Y171.959 E-0.10163
G1 X68.329 Y172.335 E-0.10167
G1 X68.411 Y172.559 E-0.05502
;WIPE_END
G1 E-0.04000 F2100.000
G1 Z0.600 F10800.000
G1 X45.724 Y152.568
G1 Z0.200
G1 E0.80000 F2100.000
;TYPE:Perimeter
G1 F1200.000
G1 X45.349 Y152.898 E0.01567
G1 X44.902 Y153.155 E0.01616
G1 X44.414 Y153.320 E0.01617
G1 X43.902 Y153.384 E0.01617
G1 X43.387 Y153.345 E0.01617
G1 X42.891 Y153.206 E0.01617
G1 X42.432 Y152.970 E0.01617
G1 X42.029 Y152.649 E0.01617
G1 X41.697 Y152.254 E0.01617
G1 X41.451 Y151.801 E0.01617
G1 X41.299 Y151.308 E0.01617
G1 X41.247 Y150.795 E0.01617
G1 X41.299 Y150.281 E0.01617
G1 X41.451 Y149.788 E0.01617
G1 X41.694 Y149.341 E0.01596
G1 X41.951 Y149.021 E0.01286
G1 X42.326 Y148.691 E0.01567
G1 X42.772 Y148.434 E0.01616
G1 X43.261 Y148.269 E0.01617
G1 X43.773 Y148.205 E0.01617
G1 X44.287 Y148.244 E0.01617
G1 X44.783 Y148.383 E0.01617
G1 X45.242 Y148.619 E0.01617
G1 X45.646 Y148.940 E0.01617
G1 X45.977 Y149.335 E0.01617
G1 X46.224 Y149.788 E0.01617
G1 X46.376 Y150.281 E0.01617
G1 X46.427 Y150.795 E0.01617
G1 X46.376 Y151.308 E0.01617
G1 X46.224 Y151.801 E0.01617
G1 X45.980 Y152.248 E0.01596
G1 X45.761 Y152.521 E0.01098
G1 X45.467 Y152.285 F10800.000
;TYPE:External perimeter
G1 F1200.000
G1 X45.128 Y152.590 E0.01431
G1 X44.747 Y152.810 E0.01380
G1 X44.329 Y152.950 E0.01381
G1 X43.892 Y153.005 E0.01381
