; generated by PrusaSlicer 2.3.3+win64 on 2021-11-19 at 18:47:21 UTC

; 

; external perimeters extrusion width = 0.45mm
; perimeters extrusion width = 0.45mm
; infill extrusion width = 0.45mm
; solid infill extrusion width = 0.45mm
; top infill extrusion width = 0.40mm
; first layer extrusion width = 0.42mm

M73 P0 R107
M73 Q0 S107
M201 X1000 Y1000 Z200 E5000 ; sets maximum accelerations, mm/sec^2
M203 X200 Y200 Z12 E120 ; sets maximum feedrates, mm/sec
M204 P1250 R1250 T1250 ; sets acceleration (P, T) and retract acceleration (R), mm/sec^2
M205 X8.00 Y8.00 Z0.40 E4.50 ; sets the jerk limits, mm/sec
M205 S0 T0 ; sets the minimum extruding and travel feed rate, mm/sec
M107
;TYPE:Custom
M862.3 P "MK3" ; printer model check
M862.1 P0.4 ; nozzle diameter check
M115 U3.10.0 ; tell printer latest fw version
G90 ; use absolute coordinates
M83 ; extruder relative mode
M104 S215 ; set extruder temp
M140 S60 ; set bed temp
M190 S60 ; wait for bed temp
M109 S215 ; wait for extruder temp
G28 W ; home all without mesh bed level
G80 ; mesh bed leveling
G1 Y-3.0 F1000.0 ; go outside print area
G92 E0.0
G1 X60.0 E9.0 F1000.0 ; intro line
G1 X100.0 E12.5 F1000.0 ; intro line
G92 E0.0
M221 S95

; Don't change E values below. Excessive value can damage the printer.
M907 E430 ; set extruder motor current
G21 ; set units to millimeters
G90 ; use absolute coordinates
M83 ; use relative distances for extrusion
M900 K0.05 ; Filament gcode LA 1.5
M900 K30 ; Filament gcode LA 1.0
;LAYER_CHANGE
;Z:0.2
;HEIGHT:0.2
;BEFORE_LAYER_CHANGE
G92 E0.0
;0.2


M73 P0 R106
G1 E-0.80000 F2100.000
G1 Z0.400 F10800.000
;AFTER_LAYER_CHANGE
;0.2
G1 X34.406 Y150.096
G1 Z0.200
G1 E0.80000 F2100.000
M204 S1000
;TYPE:Skirt
;WIDTH:0.42
G1 F1200.000
G1 X37.376 Y149.694 E0.09399
G1 X40.366 Y149.688 E0.09375
G1 X43.787 Y150.157 E0.10826
G1 X46.676 Y150.972 E0.09411
G1 X49.420 Y152.158 E0.09375
G1 X52.259 Y153.865 E0.10387
G1 X54.816 Y155.966 E0.10378
G1 X56.852 Y158.155 E0.09372
G1 X58.583 Y160.597 E0.09387
G1 X60.124 Y163.539 E0.10411
G1 X61.170 Y166.486 E0.09804
G1 X61.787 Y169.427 E0.09423
G1 X62.023 Y172.872 E0.10826
G1 X61.813 Y175.862 E0.09399
G1 X61.209 Y178.794 E0.09387
G1 X60.113 Y181.921 E0.10387
G1 X58.671 Y184.704 E0.09828
G1 X56.950 Y187.153 E0.09387
G1 X54.695 Y189.590 E0.10411
G1 X52.263 Y191.568 E0.09828
G1 X49.709 Y193.129 E0.09387
G1 X46.677 Y194.464 E0.10387
G1 X43.485 Y195.341 E0.10378
G1 X40.519 Y195.743 E0.09384
G1 X37.385 Y195.743 E0.09828
G1 X34.097 Y195.275 E0.10414
G1 X31.216 Y194.462 E0.09384
G1 X28.341 Y193.213 E0.09828
G1 X25.518 Y191.479 E0.10387
G1 X23.197 Y189.583 E0.09399
G1 X21.149 Y187.399 E0.09387
G1 X19.230 Y184.708 E0.10363
G1 X17.723 Y181.761 E0.10378
G1 X16.727 Y178.943 E0.09372
G1 X16.111 Y176.005 E0.09411
G1 X15.877 Y172.564 E0.10815
G1 X16.087 Y169.574 E0.09399
G1 X16.690 Y166.642 E0.09387
G1 X17.786 Y163.515 E0.10387
G1 X19.228 Y160.732 E0.09828
G1 X20.950 Y158.283 E0.09387
G1 X23.199 Y155.851 E0.10387
G1 X25.777 Y153.775 E0.10378
G1 X28.337 Y152.225 E0.09384
G1 X31.215 Y150.974 E0.09840
G1 X34.348 Y150.112 E0.10187
; printing object Sample_Interface_V3.stl id:0 copy 0
;WIPE_START
G1 F8640.000
G1 X37.376 Y149.694 E-0.70588
G1 X37.611 Y149.693 E-0.05412
;WIPE_END
G1 E-0.04000 F2100.000
G1 Z0.600 F10800.000
G1 X38.553 Y169.449
G1 Z0.200
G1 E0.80000 F2100.000
;TYPE:Perimeter
G1 F1200.000
G1 X39.347 Y169.449 E0.02489
G1 X40.117 Y169.639 E0.02489
G1 X40.820 Y170.008 E0.02489
G1 X41.414 Y170.534 E0.02489
G1 X41.865 Y171.188 E0.02489
G1 X42.147 Y171.930 E0.02489
G1 X42.242 Y172.718 E0.02489
G1 X42.147 Y173.506 E0.02489
G1 X41.865 Y174.248 E0.02489
G1 X41.414 Y174.901 E0.02489
G1 X40.820 Y175.428 E0.02489
G1 X40.117 Y175.797 E0.02489
G1 X39.347 Y175.987 E0.02489
G1 X38.553 Y175.987 E0.02489
G1 X37.782 Y175.797 E0.02489
G1 X37.079 Y175.428 E0.02489
G1 X36.485 Y174.901 E0.02489
G1 X36.034 Y174.248 E0.02489
G1 X35.752 Y173.506 E0.02489
G1 X35.657 Y172.718 E0.02489
G1 X35.752 Y171.930 E0.02489
G1 X36.034 Y171.188 E0.02489
G1 X36.485 Y170.534 E0.02489
G1 X37.079 Y170.008 E0.02489
G1 X37.782 Y169.639 E0.02489
G1 X38.494 Y169.463 E0.02301
G1 X38.585 Y169.830 F10800.000
;TYPE:External perimeter
G1 F1200.000
G1 X39.301 Y169.826 E0.02245
G1 X39.983 Y169.994 E0.02202
G1 X40.604 Y170.321 E0.02202
G1 X41.130 Y170.786 E0.02202
G1 X41.529 Y171.364 E0.02202
G1 X41.778 Y172.021 E0.02202
G1 X41.863 Y172.718 E0.02202
G1 X41.778 Y173.415 E0.02202
G1 X41.529 Y174.072 E0.02202
G1 X41.130 Y174.650 E0.02202
G1 X40.604 Y175.115 E0.02202
G1 X39.983 Y175.442 E0.02202
G1 X39.301 Y175.610 E0.02202
G1 X38.598 Y175.610 E0.02202
G1 X37.917 Y175.442 E0.02202
G1 X37.295 Y175.115 E0.02202
G1 X36.769 Y174.650 E0.02202
G1 X36.370 Y174.072 E0.02202
G1 X36.121 Y173.415 E0.02202
G1 X36.037 Y172.718 E0.02202
G1 X36.121 Y172.021 E0.02202
G1 X36.370 Y171.364 E0.02202
G1 X36.769 Y170.786 E0.02202
G1 X37.295 Y170.321 E0.02202
G1 X37.917 Y169.994 E0.02202
G1 X38.526 Y169.844 E0.01969
G1 X38.740 Y169.461 F10800.000
;WIPE_START
G1 F8640.000
G1 X39.301 Y169.826 E-0.17884
G1 X39.983 Y169.994 E-0.16215
G1 X40.604 Y170.321 E-0.16215
G1 X41.130 Y170.786 E-0.16215
G1 X41.363 Y171.124 E-0.09471
;WIPE_END
G1 E-0.04000 F2100.000
G1 Z0.600 F10800.000
G1 X38.523 Y179.201
G1 Z0.200
G1 E0.80000 F2100.000
;TYPE:Perimeter
G1 F1200.000
G1 X39.377 Y179.201 E0.02678
G1 X40.206 Y179.405 E0.02678
G1 X40.962 Y179.802 E0.02678
G1 X41.601 Y180.369 E0.02678
G1 X42.087 Y181.071 E0.02678
G1 X42.390 Y181.870 E0.02678
G1 X42.492 Y182.718 E0.02678
G1 X42.390 Y183.566 E0.02678
G1 X42.087 Y184.364 E0.02678
G1 X41.601 Y185.067 E0.02678
G1 X40.962 Y185.634 E0.02678
G1 X40.206 Y186.031 E0.02678
G1 X39.377 Y186.235 E0.02678
G1 X38.523 Y186.235 E0.02678
G1 X37.693 Y186.031 E0.02678
G1 X36.937 Y185.634 E0.02678
G1 X36.298 Y185.067 E0.02678
G1 X35.813 Y184.364 E0.02678
G1 X35.510 Y183.566 E0.02678
G1 X35.407 Y182.718 E0.02678
G1 X35.510 Y181.870 E0.02678
G1 X35.813 Y181.071 E0.02678
G1 X36.298 Y180.369 E0.02678
G1 X36.937 Y179.802 E0.02678
G1 X37.693 Y179.405 E0.02678
G1 X38.464 Y179.215 E0.02490
G1 X38.555 Y179.581 F10800.000
;TYPE:External perimeter
G1 F1200.000
G1 X39.331 Y179.578 E0.02434
G1 X40.071 Y179.760 E0.02391
G1 X40.746 Y180.115 E0.02391
G1 X41.317 Y180.620 E0.02391
G1 X41.750 Y181.248 E0.02391
G1 X42.021 Y181.961 E0.02391
G1 X42.113 Y182.718 E0.02391
G1 X42.021 Y183.475 E0.02391
G1 X41.750 Y184.188 E0.02391
G1 X41.317 Y184.815 E0.02391
G1 X40.746 Y185.321 E0.02391
G1 X40.071 Y185.675 E0.02391
G1 X39.331 Y185.858 E0.02391
G1 X38.568 Y185.858 E0.02391
G1 X37.828 Y185.675 E0.02391
G1 X37.153 Y185.321 E0.02391
G1 X36.582 Y184.815 E0.02391
G1 X36.149 Y184.188 E0.02391
G1 X35.879 Y183.475 E0.02391
G1 X35.787 Y182.718 E0.02391
G1 X35.879 Y181.961 E0.02391
G1 X36.149 Y181.248 E0.02391
G1 X36.582 Y180.620 E0.02391
G1 X37.153 Y180.115 E0.02391
G1 X37.828 Y179.760 E0.02391
G1 X38.496 Y179.596 E0.02158
G1 X38.710 Y179.213 F10800.000
;WIPE_START
G1 F8640.000
G1 X39.331 Y179.578 E-0.19275
G1 X40.071 Y179.760 E-0.17607
G1 X40.746 Y180.115 E-0.17607
G1 X41.317 Y180.620 E-0.17607
G1 X41.413 Y180.760 E-0.03905
;WIPE_END
G1 E-0.04000 F2100.000
G1 Z0.600 F10800.000
G1 X30.025 Y174.857
G1 Z0.200
G1 E0.80000 F2100.000
;TYPE:Perimeter
G1 F1200.000
G1 X29.395 Y175.770 E0.03479
G1 X28.564 Y176.506 E0.03479
G1 X27.582 Y177.022 E0.03479
G1 X26.504 Y177.287 E0.03479
G1 X25.395 Y177.287 E0.03479
G1 X24.317 Y177.022 E0.03479
G1 X23.335 Y176.506 E0.03479
G1 X22.504 Y175.770 E0.03479
G1 X21.874 Y174.857 E0.03479
G1 X21.480 Y173.819 E0.03479
G1 X21.347 Y172.718 E0.03479
G1 X21.480 Y171.616 E0.03479
G1 X21.874 Y170.579 E0.03479
G1 X22.504 Y169.666 E0.03479
G1 X23.335 Y168.930 E0.03479
G1 X24.317 Y168.414 E0.03479
G1 X25.395 Y168.149 E0.03479
G1 X26.504 Y168.149 E0.03479
G1 X27.582 Y168.414 E0.03479
G1 X28.564 Y168.930 E0.03479
G1 X29.395 Y169.666 E0.03479
G1 X30.025 Y170.579 E0.03479
G1 X30.419 Y171.616 E0.03479
G1 X30.552 Y172.718 E0.03479
G1 X30.419 Y173.819 E0.03479
G1 X30.047 Y174.801 E0.03291
G1 X29.694 Y174.667 F10800.000
;TYPE:External perimeter
G1 F1200.000
G1 X29.111 Y175.518 E0.03235
G1 X28.349 Y176.193 E0.03192
G1 X27.447 Y176.666 E0.03192
G1 X26.459 Y176.910 E0.03192
G1 X25.441 Y176.910 E0.03192
G1 X24.452 Y176.666 E0.03192
G1 X23.551 Y176.193 E0.03192
G1 X22.789 Y175.518 E0.03192
G1 X22.210 Y174.680 E0.03192
G1 X21.849 Y173.729 E0.03192
G1 X21.727 Y172.718 E0.03192
G1 X21.849 Y171.707 E0.03192
G1 X22.210 Y170.755 E0.03192
G1 X22.789 Y169.918 E0.03192
G1 X23.551 Y169.242 E0.03192
G1 X24.452 Y168.769 E0.03192
G1 X25.441 Y168.526 E0.03192
G1 X26.459 Y168.526 E0.03192
G1 X27.447 Y168.769 E0.03192
G1 X28.349 Y169.242 E0.03192
G1 X29.111 Y169.918 E0.03192
G1 X29.689 Y170.755 E0.03192
G1 X30.050 Y171.707 E0.03192
G1 X30.173 Y172.718 E0.03192
G1 X30.050 Y173.729 E0.03192
G1 X29.715 Y174.611 E0.02959
G1 X29.909 Y175.005 F10800.000
;WIPE_START
G1 F8640.000
G1 X29.111 Y175.518 E-0.25174
G1 X28.349 Y176.193 E-0.23507
G1 X27.447 Y176.666 E-0.23507
G1 X27.287 Y176.706 E-0.03811
;WIPE_END
G1 E-0.04000 F2100.000
G1 Z0.600 F10800.000
G1 X36.937 Y165.634
G1 Z0.200
G1 E0.80000 F2100.000
;TYPE:Perimeter
G1 F1200.000
G1 X36.298 Y165.067 E0.02678
G1 X35.813 Y164.364 E0.02678
G1 X35.510 Y163.566 E0.02678
G1 X35.407 Y162.718 E0.02678
G1 X35.510 Y161.870 E0.02678
G1 X35.813 Y161.071 E0.02678
G1 X36.298 Y160.369 E0.02678
G1 X36.937 Y159.802 E0.02678
G1 X37.693 Y159.405 E0.02678
G1 X38.523 Y159.201 E0.02678
G1 X39.377 Y159.201 E0.02678
G1 X40.206 Y159.405 E0.02678
G1 X40.962 Y159.802 E0.02678
G1 X41.601 Y160.369 E0.02678
G1 X42.087 Y161.071 E0.02678
G1 X42.390 Y161.870 E0.02678
G1 X42.492 Y162.718 E0.02678
G1 X42.390 Y163.566 E0.02678
G1 X42.087 Y164.364 E0.02678
G1 X41.601 Y165.067 E0.02678
G1 X40.962 Y165.634 E0.02678
G1 X40.206 Y166.031 E0.02678
G1 X39.377 Y166.235 E0.02678
G1 X38.523 Y166.235 E0.02678
G1 X37.693 Y166.031 E0.02678
G1 X36.990 Y165.662 E0.02490
G1 X37.165 Y165.328 F10800.000
;TYPE:External perimeter
G1 F1200.000
G1 X36.582 Y164.815 E0.02434
G1 X36.149 Y164.188 E0.02391
G1 X35.879 Y163.475 E0.02391
G1 X35.787 Y162.718 E0.02391
G1 X35.879 Y161.961 E0.02391
G1 X36.149 Y161.248 E0.02391
G1 X36.582 Y160.620 E0.02391
G1 X37.153 Y160.115 E0.02391
G1 X37.828 Y159.760 E0.02391
G1 X38.568 Y159.578 E0.02391
G1 X39.331 Y159.578 E0.02391
G1 X40.071 Y159.760 E0.02391
G1 X40.746 Y160.115 E0.02391
G1 X41.317 Y160.620 E0.02391
G1 X41.750 Y161.248 E0.02391
G1 X42.021 Y161.961 E0.02391
G1 X42.113 Y162.718 E0.02391
G1 X42.021 Y163.475 E0.02391
G1 X41.750 Y164.188 E0.02391
G1 X41.317 Y164.815 E0.02391
G1 X40.746 Y165.321 E0.02391
G1 X40.071 Y165.675 E0.02391
G1 X39.331 Y165.858 E0.02391
G1 X38.568 Y165.858 E0.02391
G1 X37.828 Y165.675 E0.02391
G1 X37.219 Y165.356 E0.02158
G1 X36.805 Y165.500 F10800.000
;WIPE_START
G1 F8640.000
G1 X36.582 Y164.815 E-0.19275
G1 X36.149 Y164.188 E-0.17607
G1 X35.879 Y163.475 E-0.17607
G1 X35.787 Y162.718 E-0.17607
G1 X35.807 Y162.550 E-0.03905
;WIPE_END
G1 E-0.04000 F2100.000
G1 Z0.600 F10800.000
G1 X34.898 Y153.222
G1 Z0.200
G1 E0.80000 F2100.000
;TYPE:Perimeter
G1 F1200.000
G1 X37.591 Y152.852 E0.08521
G1 X40.308 Y152.852 E0.08521
G1 X43.001 Y153.222 E0.08521
G1 X45.618 Y153.956 E0.08521
G1 X48.110 Y155.038 E0.08521
G1 X50.433 Y156.450 E0.08521
G1 X51.852 Y157.605 E0.05737
G1 X52.541 Y158.165 E0.02784
G1 X54.396 Y160.152 E0.08521
G1 X55.963 Y162.372 E0.08521
G1 X57.213 Y164.785 E0.08521
M73 Q0 S106
G1 X58.123 Y167.346 E0.08521
G1 X58.676 Y170.007 E0.08521
G1 X58.862 Y172.718 E0.08521
G1 X58.676 Y175.429 E0.08521
G1 X58.123 Y178.090 E0.08521
G1 X57.213 Y180.651 E0.08521
G1 X55.963 Y183.064 E0.08521
G1 X54.396 Y185.284 E0.08521
G1 X52.541 Y187.270 E0.08521
G1 X50.433 Y188.985 E0.08521
G1 X48.110 Y190.398 E0.08521
G1 X45.618 Y191.480 E0.08521
G1 X43.001 Y192.214 E0.08521
G1 X40.308 Y192.584 E0.08521
G1 X37.591 Y192.584 E0.08521
G1 X34.898 Y192.214 E0.08521
G1 X32.281 Y191.480 E0.08521
G1 X29.789 Y190.398 E0.08521
G1 X27.467 Y188.985 E0.08521
G1 X26.047 Y187.831 E0.05737
G1 X25.359 Y187.270 E0.02784
G1 X23.504 Y185.284 E0.08521
G1 X21.936 Y183.064 E0.08521
G1 X20.686 Y180.651 E0.08521
G1 X19.776 Y178.090 E0.08521
G1 X19.223 Y175.429 E0.08521
G1 X19.038 Y172.718 E0.08521
G1 X19.223 Y170.007 E0.08521
G1 X19.776 Y167.346 E0.08521
G1 X20.686 Y164.785 E0.08521
G1 X21.936 Y162.372 E0.08521
G1 X23.504 Y160.152 E0.08521
G1 X25.202 Y158.333 E0.07804
G1 X25.359 Y158.165 E0.00717
G1 X27.467 Y156.450 E0.08521
G1 X29.789 Y155.038 E0.08521
G1 X32.281 Y153.956 E0.08521
G1 X34.841 Y153.238 E0.08333
G1 X34.739 Y152.875 F10800.000
;TYPE:External perimeter
G1 F1200.000
G1 X37.565 Y152.475 E0.08949
G1 X40.334 Y152.475 E0.08683
G1 X43.078 Y152.852 E0.08683
G1 X45.744 Y153.599 E0.08683
G1 X48.284 Y154.703 E0.08683
G1 X50.650 Y156.142 E0.08683
G1 X52.090 Y157.313 E0.05818
G1 X52.799 Y157.889 E0.02865
G1 X54.689 Y159.913 E0.08683
G1 X56.286 Y162.176 E0.08683
G1 X57.560 Y164.634 E0.08683
G1 X58.487 Y167.244 E0.08683
G1 X59.051 Y169.955 E0.08683
G1 X59.240 Y172.718 E0.08683
G1 X59.051 Y175.481 E0.08683
G1 X58.487 Y178.192 E0.08683
G1 X57.560 Y180.801 E0.08683
G1 X56.286 Y183.260 E0.08683
G1 X54.689 Y185.523 E0.08683
G1 X52.799 Y187.547 E0.08683
G1 X50.650 Y189.294 E0.08683
G1 X48.284 Y190.733 E0.08683
G1 X45.744 Y191.836 E0.08683
G1 X43.078 Y192.584 E0.08683
G1 X40.334 Y192.961 E0.08683
G1 X37.565 Y192.961 E0.08683
G1 X34.821 Y192.584 E0.08683
G1 X32.155 Y191.836 E0.08683
G1 X29.615 Y190.733 E0.08683
G1 X27.249 Y189.294 E0.08683
G1 X25.809 Y188.123 E0.05818
G1 X25.101 Y187.547 E0.02865
G1 X23.210 Y185.523 E0.08683
G1 X21.613 Y183.260 E0.08683
G1 X20.339 Y180.801 E0.08683
G1 X19.412 Y178.192 E0.08683
G1 X18.849 Y175.481 E0.08683
G1 X18.660 Y172.718 E0.08683
G1 X18.849 Y169.955 E0.08683
G1 X19.412 Y167.244 E0.08683
G1 X20.339 Y164.634 E0.08683
G1 X21.613 Y162.176 E0.08683
G1 X23.210 Y159.913 E0.08683
G1 X24.927 Y158.075 E0.07885
G1 X25.101 Y157.889 E0.00798
G1 X27.249 Y156.142 E0.08683
G1 X29.615 Y154.703 E0.08683
G1 X32.155 Y153.599 E0.08683
G1 X34.681 Y152.892 E0.08226
G1 X35.006 Y153.173 F10800.000
;WIPE_START
G1 F8640.000
G1 X37.565 Y152.475 E-0.67280
G1 X37.943 Y152.475 E-0.08720
;WIPE_END
G1 E-0.04000 F2100.000
G1 Z0.600 F10800.000
G1 X49.390 Y155.949
G1 Z0.200
G1 E0.80000 F2100.000
;TYPE:Solid infill
;WIDTH:0.420178
G1 F1200.000
G1 X55.145 Y161.704 E0.25530
G1 X55.721 Y162.519 E0.03131
G1 X56.037 Y163.129 E0.02153
G1 X48.536 Y155.628 E0.33276
G1 X47.980 Y155.290 E0.02039
G1 X47.422 Y155.047 E0.01910
G1 X56.610 Y164.236 E0.40763
G1 X56.953 Y164.898 E0.02338
G1 X57.072 Y165.231 E0.01108
G1 X46.478 Y154.638 E0.46994
G1 X45.535 Y154.228 E0.03226
G1 X57.366 Y166.058 E0.52483
G1 X57.660 Y166.886 E0.02755
G1 X44.791 Y154.018 E0.57088
G1 X44.050 Y153.810 E0.02415
G1 X57.900 Y167.659 E0.61440
G1 X58.040 Y168.333 E0.02158
G1 X43.309 Y153.602 E0.65349
G1 X42.943 Y153.500 E0.01192
G1 X42.630 Y153.457 E0.00992
G1 X58.180 Y169.006 E0.68982
G1 X58.320 Y169.680 E0.02158
G1 X42.011 Y153.372 E0.72347
G1 X41.393 Y153.287 E0.01959
G1 X58.413 Y170.307 E0.75507
G1 X58.453 Y170.880 E0.01801
G1 X40.774 Y153.202 E0.78425
G1 X40.289 Y153.135 E0.01536
G1 X40.174 Y153.135 E0.00361
G1 X58.492 Y171.453 E0.81262
G1 X58.531 Y172.025 E0.01801
G1 X39.641 Y153.135 E0.83802
G1 X39.107 Y153.135 E0.01674
G1 X58.570 Y172.598 E0.86343
G1 X58.578 Y172.718 E0.00377
G1 X58.551 Y173.113 E0.01241
G1 X38.574 Y153.135 E0.88626
G1 X38.040 Y153.135 E0.01674
G1 X58.517 Y173.612 E0.90842
G1 X58.483 Y174.111 E0.01570
G1 X37.519 Y153.148 E0.93001
G1 X37.050 Y153.212 E0.01485
G1 X58.449 Y174.611 E0.94931
G1 X58.415 Y175.110 E0.01570
G1 X36.581 Y153.277 E0.96860
G1 X36.112 Y153.341 E0.01485
G1 X58.355 Y175.584 E0.98677
M73 P1 R105
M73 Q1 S106
G1 X58.263 Y176.026 E0.01415
G1 X35.643 Y153.405 E1.00351
G1 X35.174 Y153.470 E0.01485
G1 X58.172 Y176.468 E1.02025
G1 X58.080 Y176.910 E0.01415
G1 X42.479 Y161.309 E0.69209
G1 X42.339 Y160.939 E0.01241
G1 X41.815 Y160.180 E0.02895
G1 X41.124 Y159.568 E0.02895
G1 X40.312 Y159.141 E0.02878
G1 X34.733 Y153.562 E0.24750
G1 X34.316 Y153.679 E0.01358
G1 X39.602 Y158.965 E0.23450
G1 X39.411 Y158.918 E0.00617
G1 X39.021 Y158.918 E0.01222
