; generated by PrusaSlicer 2.3.3+linux-x64 on 2021-11-10 at 18:09:52 UTC

; 

; external perimeters extrusion width = 0.45mm
; perimeters extrusion width = 0.45mm
; infill extrusion width = 0.45mm
; solid infill extrusion width = 0.45mm
; top infill extrusion width = 0.40mm
; first layer extrusion width = 0.70mm

M107
M104 S200 ; set temperature
;TYPE:Custom
G28 ; home all axes
G1 Z5 F5000 ; lift nozzle
M109 S200 ; set temperature and wait for it to be reached
G21 ; set units to millimeters
G90 ; use absolute coordinates
M82 ; use absolute distances for extrusion
G92 E0
; Filament gcode
;LAYER_CHANGE
;Z:0.35
;HEIGHT:0.35
G1 Z0.350 F7800.000
G1 E-2.00000 F2400.000
G92 E0
G1 X81.343 Y80.034 F7800.000
G1 E2.00000 F2400.000
;TYPE:Skirt
;WIDTH:0.7
G1 F1800.000
G1 X83.936 Y77.905 E2.30505
G1 X84.613 Y77.432 E2.38017
G1 X87.461 Y75.721 E2.68232
G1 X90.800 Y74.269 E3.01337
G1 X94.834 Y73.176 E3.39337
G1 X98.134 Y72.738 E3.69610
G1 X101.419 Y72.722 E3.99479
G1 X102.244 Y72.775 E4.06991
G1 X105.559 Y73.245 E4.37438
G1 X108.787 Y74.134 E4.67885
G1 X109.572 Y74.418 E4.75472
G1 X112.576 Y75.740 E5.05324
G1 X115.472 Y77.484 E5.36060
G1 X118.325 Y79.744 E5.69155
G1 X118.966 Y80.343 E5.77128
G1 X121.200 Y82.759 E6.07055
G1 X123.132 Y85.471 E6.37329
G1 X125.103 Y89.206 E6.75732
G1 X126.305 Y92.602 E7.08491
G1 X127.007 Y95.896 E7.39111
G1 X127.310 Y99.548 E7.72435
G1 X127.314 Y100.393 E7.80120
G1 X127.072 Y103.720 E8.10451
G1 X126.409 Y106.983 E8.40725
G1 X125.044 Y110.932 E8.78725
G1 X123.368 Y114.165 E9.11830
G1 X121.463 Y116.895 E9.42103
G1 X120.944 Y117.538 E9.49614
G1 X118.624 Y119.996 E9.80350
G1 X115.790 Y122.302 E10.13570
G1 X112.961 Y124.044 E10.43785
G1 X112.229 Y124.428 E10.51297
G1 X109.152 Y125.748 E10.81744
G1 X105.932 Y126.666 E11.12191
G1 X105.122 Y126.830 E11.19703
G1 X101.828 Y127.265 E11.49918
G1 X98.193 Y127.266 E11.82965
G1 X94.823 Y126.822 E12.13874
G1 X94.015 Y126.651 E12.21386
G1 X90.814 Y125.736 E12.51659
G1 X87.474 Y124.286 E12.84764
G1 X83.922 Y122.084 E13.22764
G1 X81.349 Y119.971 E13.53037
G1 X79.070 Y117.553 E13.83253
G1 X76.649 Y114.193 E14.20907
G1 X75.096 Y111.227 E14.51354
G1 X74.770 Y110.466 E14.58884
G1 X73.686 Y107.367 E14.88735
G1 X72.986 Y104.067 E15.19413
G1 X72.689 Y100.446 E15.52450
G1 X72.686 Y99.607 E15.60078
G1 X72.928 Y96.280 E15.90409
G1 X73.591 Y93.017 E16.20683
G1 X74.954 Y89.073 E16.58625
G1 X76.632 Y85.835 E16.91788
G1 X78.533 Y83.110 E17.22003
G1 X79.052 Y82.467 E17.29515
G1 X81.302 Y80.078 E17.59358
G1 E15.59358 F2400.000
G92 E0
G1 X85.229 Y95.331 F7800.000
G1 E2.00000 F2400.000
;TYPE:Perimeter
G1 F1800.000
G1 X86.398 Y95.043 E2.10946
G1 X87.602 Y95.043 E2.21892
G1 X88.771 Y95.331 E2.32838
G1 X89.837 Y95.890 E2.43785
G1 X90.738 Y96.689 E2.54731
G1 X91.422 Y97.679 E2.65677
G1 X91.848 Y98.805 E2.76623
G1 X91.994 Y100.000 E2.87569
G1 X91.848 Y101.195 E2.98515
G1 X91.422 Y102.321 E3.09461
G1 X90.738 Y103.311 E3.20408
G1 X89.837 Y104.110 E3.31354
G1 X88.771 Y104.669 E3.42300
G1 X87.602 Y104.957 E3.53246
G1 X86.398 Y104.957 E3.64192
G1 X85.229 Y104.669 E3.75138
G1 X84.163 Y104.110 E3.86084
G1 X83.262 Y103.311 E3.97031
G1 X82.578 Y102.321 E4.07977
G1 X82.152 Y101.195 E4.18923
G1 X82.006 Y100.000 E4.29869
G1 X82.152 Y98.805 E4.40815
G1 X82.578 Y97.679 E4.51761
G1 X83.262 Y96.689 E4.62707
G1 X84.163 Y95.890 E4.73654
G1 X85.176 Y95.359 E4.84054
G1 X85.452 Y95.920 F7800.000
;TYPE:External perimeter
G1 F1800.000
G1 X86.474 Y95.668 E4.93620
G1 X87.526 Y95.668 E5.03187
G1 X88.548 Y95.920 E5.12753
G1 X89.479 Y96.408 E5.22319
G1 X90.267 Y97.106 E5.31885
G1 X90.864 Y97.972 E5.41452
G1 X91.237 Y98.956 E5.51018
G1 X91.364 Y100.000 E5.60584
G1 X91.237 Y101.044 E5.70151
G1 X90.864 Y102.028 E5.79717
G1 X90.267 Y102.894 E5.89283
G1 X89.479 Y103.592 E5.98849
G1 X88.548 Y104.080 E6.08416
G1 X87.526 Y104.332 E6.17982
G1 X86.474 Y104.332 E6.27548
G1 X85.452 Y104.080 E6.37115
G1 X84.521 Y103.592 E6.46681
G1 X83.733 Y102.894 E6.56247
G1 X83.136 Y102.028 E6.65813
G1 X82.763 Y101.044 E6.75380
G1 X82.636 Y100.000 E6.84946
G1 X82.763 Y98.956 E6.94512
G1 X83.136 Y97.972 E7.04079
G1 X83.733 Y97.106 E7.13645
G1 X84.521 Y96.408 E7.23211
G1 X85.399 Y95.947 E7.32232
G1 X85.517 Y95.525 F7800.000
G1 E5.32232 F2400.000
G92 E0
G1 X95.812 Y98.968 F7800.000
G1 E2.00000 F2400.000
;TYPE:Perimeter
G1 F1800.000
G1 X96.181 Y97.996 E2.09454
G1 X96.772 Y97.140 E2.18909
G1 X97.550 Y96.450 E2.28363
G1 X98.471 Y95.967 E2.37818
G1 X99.480 Y95.718 E2.47272
G1 X100.520 Y95.718 E2.56726
G1 X101.529 Y95.967 E2.66181
G1 X102.450 Y96.450 E2.75635
G1 X103.228 Y97.140 E2.85089
G1 X103.819 Y97.996 E2.94544
G1 X104.188 Y98.968 E3.03998
G1 X104.313 Y100.000 E3.13453
G1 X104.188 Y101.032 E3.22907
G1 X103.819 Y102.004 E3.32361
G1 X103.228 Y102.860 E3.41816
G1 X102.450 Y103.550 E3.51270
G1 X101.529 Y104.033 E3.60725
G1 X100.520 Y104.282 E3.70179
G1 X99.480 Y104.282 E3.79633
G1 X98.471 Y104.033 E3.89088
G1 X97.550 Y103.550 E3.98542
G1 X96.772 Y102.860 E4.07997
G1 X96.181 Y102.004 E4.17451
G1 X95.812 Y101.032 E4.26905
G1 X95.687 Y100.000 E4.36360
G1 X95.805 Y99.027 E4.45269
G1 X96.424 Y99.118 F7800.000
G1 F1800.000
G1 X96.738 Y98.288 E4.53343
G1 X97.243 Y97.557 E4.61418
G1 X97.908 Y96.969 E4.69492
G1 X98.694 Y96.556 E4.77567
G1 X99.556 Y96.343 E4.85641
G1 X100.444 Y96.343 E4.93716
G1 X101.306 Y96.556 E5.01790
G1 X102.092 Y96.969 E5.09865
G1 X102.757 Y97.557 E5.17939
G1 X103.262 Y98.288 E5.26014
G1 X103.576 Y99.118 E5.34088
G1 X103.684 Y100.000 E5.42163
G1 X103.576 Y100.882 E5.50237
G1 X103.262 Y101.712 E5.58312
G1 X102.757 Y102.443 E5.66386
G1 X102.092 Y103.031 E5.74461
G1 X101.306 Y103.444 E5.82536
G1 X100.444 Y103.657 E5.90610
G1 X99.556 Y103.657 E5.98685
G1 X98.694 Y103.444 E6.06759
G1 X97.908 Y103.031 E6.14834
G1 X97.243 Y102.443 E6.22908
G1 X96.738 Y101.712 E6.30983
G1 X96.424 Y100.882 E6.39057
G1 X96.316 Y100.000 E6.47132
G1 X96.416 Y99.178 E6.54661
G1 X97.035 Y99.269 F7800.000
;TYPE:External perimeter
G1 F1800.000
G1 X97.296 Y98.581 E6.61355
G1 X97.714 Y97.975 E6.68050
G1 X98.265 Y97.487 E6.74745
G1 X98.917 Y97.144 E6.81439
G1 X99.632 Y96.968 E6.88134
G1 X100.368 Y96.968 E6.94829
G1 X101.083 Y97.144 E7.01523
G1 X101.735 Y97.487 E7.08218
G1 X102.286 Y97.975 E7.14913
G1 X102.704 Y98.581 E7.21607
G1 X102.965 Y99.269 E7.28302
G1 X103.054 Y100.000 E7.34997
G1 X102.965 Y100.731 E7.41691
G1 X102.704 Y101.419 E7.48386
G1 X102.286 Y102.025 E7.55081
G1 X101.735 Y102.513 E7.61775
G1 X101.083 Y102.856 E7.68470
G1 X100.368 Y103.032 E7.75165
G1 X99.632 Y103.032 E7.81859
G1 X98.917 Y102.856 E7.88554
G1 X98.265 Y102.513 E7.95249
G1 X97.714 Y102.025 E8.01943
G1 X97.296 Y101.419 E8.08638
G1 X97.035 Y100.731 E8.15333
G1 X96.946 Y100.000 E8.22027
G1 X97.027 Y99.329 E8.28176
G1 X96.746 Y98.992 F7800.000
G1 E6.28176 F2400.000
G92 E0
G1 X98.382 Y105.734 F7800.000
G1 E2.00000 F2400.000
;TYPE:Perimeter
G1 F1800.000
G1 X99.450 Y105.470 E2.10002
G1 X100.550 Y105.470 E2.20005
G1 X101.618 Y105.734 E2.30007
G1 X102.592 Y106.245 E2.40010
G1 X103.415 Y106.974 E2.50012
G1 X104.040 Y107.879 E2.60014
G1 X104.430 Y108.908 E2.70017
G1 X104.563 Y110.000 E2.80019
G1 X104.430 Y111.092 E2.90022
G1 X104.040 Y112.121 E3.00024
G1 X103.415 Y113.026 E3.10026
G1 X102.592 Y113.755 E3.20029
G1 X101.618 Y114.266 E3.30031
G1 X100.550 Y114.530 E3.40034
G1 X99.450 Y114.530 E3.50036
G1 X98.382 Y114.266 E3.60038
G1 X97.408 Y113.755 E3.70041
G1 X96.585 Y113.026 E3.80043
G1 X95.960 Y112.121 E3.90046
G1 X95.570 Y111.092 E4.00048
G1 X95.437 Y110.000 E4.10051
G1 X95.570 Y108.908 E4.20053
G1 X95.960 Y107.879 E4.30055
G1 X96.585 Y106.974 E4.40058
G1 X97.408 Y106.245 E4.50060
G1 X98.329 Y105.761 E4.59517
G1 X98.605 Y106.322 F7800.000
G1 F1800.000
G1 X99.526 Y106.095 E4.68140
G1 X100.474 Y106.095 E4.76762
G1 X101.395 Y106.322 E4.85385
G1 X102.234 Y106.763 E4.94007
G1 X102.944 Y107.392 E5.02630
G1 X103.483 Y108.172 E5.11252
G1 X103.819 Y109.059 E5.19875
G1 X103.934 Y110.000 E5.28497
G1 X103.819 Y110.941 E5.37120
G1 X103.483 Y111.828 E5.45742
G1 X102.944 Y112.608 E5.54365
G1 X102.234 Y113.237 E5.62988
G1 X101.395 Y113.678 E5.71610
G1 X100.474 Y113.905 E5.80233
G1 X99.526 Y113.905 E5.88855
G1 X98.605 Y113.678 E5.97478
G1 X97.766 Y113.237 E6.06100
G1 X97.056 Y112.608 E6.14723
G1 X96.517 Y111.828 E6.23345
G1 X96.181 Y110.941 E6.31968
G1 X96.066 Y110.000 E6.40590
G1 X96.181 Y109.059 E6.49213
G1 X96.517 Y108.172 E6.57836
G1 X97.056 Y107.392 E6.66458
G1 X97.766 Y106.763 E6.75081
G1 X98.552 Y106.350 E6.83158
G1 X98.828 Y106.911 F7800.000
;TYPE:External perimeter
G1 F1800.000
G1 X99.602 Y106.720 E6.90400
G1 X100.398 Y106.720 E6.97643
G1 X101.172 Y106.911 E7.04886
G1 X101.877 Y107.281 E7.12128
G1 X102.473 Y107.809 E7.19371
G1 X102.926 Y108.465 E7.26614
G1 X103.208 Y109.209 E7.33856
G1 X103.304 Y110.000 E7.41099
G1 X103.208 Y110.791 E7.48342
G1 X102.926 Y111.535 E7.55584
G1 X102.473 Y112.191 E7.62827
G1 X101.877 Y112.719 E7.70070
G1 X101.172 Y113.089 E7.77313
G1 X100.398 Y113.280 E7.84555
G1 X99.602 Y113.280 E7.91798
G1 X98.828 Y113.089 E7.99041
G1 X98.123 Y112.719 E8.06283
G1 X97.527 Y112.191 E8.13526
G1 X97.074 Y111.535 E8.20769
G1 X96.792 Y110.791 E8.28011
G1 X96.696 Y110.000 E8.35254
G1 X96.792 Y109.209 E8.42497
G1 X97.074 Y108.465 E8.49739
G1 X97.527 Y107.809 E8.56982
G1 X98.123 Y107.281 E8.64225
G1 X98.775 Y106.939 E8.70922
G1 X98.893 Y106.516 F7800.000
G1 E6.70922 F2400.000
G92 E0
G1 X109.509 Y101.307 F7800.000
G1 E2.00000 F2400.000
;TYPE:Perimeter
G1 F1800.000
G1 X109.269 Y100.673 E2.06166
G1 X109.187 Y100.000 E2.12333
G1 X109.269 Y99.327 E2.18499
G1 X109.509 Y98.693 E2.24665
G1 X109.894 Y98.135 E2.30831
G1 X110.402 Y97.685 E2.36998
G1 X111.002 Y97.370 E2.43164
G1 X111.661 Y97.208 E2.49330
G1 X112.339 Y97.208 E2.55497
G1 X112.998 Y97.370 E2.61663
G1 X113.598 Y97.685 E2.67829
G1 X114.106 Y98.135 E2.73995
G1 X114.491 Y98.693 E2.80162
G1 X114.731 Y99.327 E2.86328
G1 X114.813 Y100.000 E2.92494
G1 X114.731 Y100.673 E2.98661
G1 X114.491 Y101.307 E3.04827
G1 X114.106 Y101.865 E3.10993
G1 X113.598 Y102.315 E3.17159
G1 X112.998 Y102.630 E3.23326
G1 X112.339 Y102.792 E3.29492
G1 X111.661 Y102.792 E3.35658
G1 X111.002 Y102.630 E3.41825
G1 X110.402 Y102.315 E3.47991
G1 X109.894 Y101.865 E3.54157
G1 X109.543 Y101.357 E3.59778
G1 X110.067 Y101.015 F7800.000
G1 F1800.000
G1 X109.880 Y100.523 E3.64564
G1 X109.816 Y100.000 E3.69351
G1 X109.880 Y99.477 E3.74137
G1 X110.067 Y98.985 E3.78924
G1 X110.366 Y98.552 E3.83710
G1 X110.760 Y98.203 E3.88496
G1 X111.226 Y97.958 E3.93283
G1 X111.737 Y97.832 E3.98069
G1 X112.263 Y97.832 E4.02856
G1 X112.774 Y97.958 E4.07642
G1 X113.240 Y98.203 E4.12428
G1 X113.634 Y98.552 E4.17215
G1 X113.933 Y98.985 E4.22001
G1 X114.120 Y99.477 E4.26788
G1 X114.184 Y100.000 E4.31574
G1 X114.120 Y100.523 E4.36361
G1 X113.933 Y101.015 E4.41147
G1 X113.634 Y101.448 E4.45933
G1 X113.240 Y101.797 E4.50720
G1 X112.774 Y102.042 E4.55506
G1 X112.263 Y102.168 E4.60293
G1 X111.737 Y102.168 E4.65079
G1 X111.226 Y102.042 E4.69866
G1 X110.760 Y101.797 E4.74652
G1 X110.366 Y101.448 E4.79438
G1 X110.101 Y101.064 E4.83679
G1 X110.624 Y100.722 F7800.000
;TYPE:External perimeter
G1 F1800.000
G1 X110.491 Y100.372 E4.87086
G1 X110.446 Y100.000 E4.90492
G1 X110.491 Y99.628 E4.93899
G1 X110.624 Y99.278 E4.97306
G1 X110.837 Y98.969 E5.00712
G1 X111.117 Y98.721 E5.04119
G1 X111.449 Y98.547 E5.07525
G1 X111.813 Y98.457 E5.10932
G1 X112.187 Y98.457 E5.14338
G1 X112.551 Y98.547 E5.17745
G1 X112.883 Y98.721 E5.21151
G1 X113.163 Y98.969 E5.24558
G1 X113.376 Y99.278 E5.27965
G1 X113.509 Y99.628 E5.31371
G1 X113.554 Y100.000 E5.34778
G1 X113.509 Y100.372 E5.38184
G1 X113.376 Y100.722 E5.41591
G1 X113.163 Y101.031 E5.44997
G1 X112.883 Y101.279 E5.48404
G1 X112.551 Y101.453 E5.51811
G1 X112.187 Y101.543 E5.55217
G1 X111.813 Y101.543 E5.58624
G1 X111.449 Y101.453 E5.62030
G1 X111.117 Y101.279 E5.65437
G1 X110.837 Y101.031 E5.68843
G1 X110.658 Y100.772 E5.71704
G1 X110.250 Y100.707 F7800.000
G1 E3.71704 F2400.000
G92 E0
G1 X103.415 Y93.026 F7800.000
G1 E2.00000 F2400.000
;TYPE:Perimeter
G1 F1800.000
G1 X102.592 Y93.755 E2.10002
G1 X101.618 Y94.266 E2.20005
G1 X100.550 Y94.530 E2.30007
G1 X99.450 Y94.530 E2.40010
G1 X98.382 Y94.266 E2.50012
G1 X97.408 Y93.755 E2.60014
G1 X96.585 Y93.026 E2.70017
G1 X95.960 Y92.121 E2.80019
G1 X95.570 Y91.092 E2.90022
G1 X95.437 Y90.000 E3.00024
G1 X95.570 Y88.908 E3.10026
G1 X95.960 Y87.879 E3.20029
G1 X96.585 Y86.974 E3.30031
G1 X97.408 Y86.245 E3.40034
G1 X98.382 Y85.734 E3.50036
G1 X99.450 Y85.470 E3.60038
G1 X100.550 Y85.470 E3.70041
G1 X101.618 Y85.734 E3.80043
G1 X102.592 Y86.245 E3.90046
G1 X103.415 Y86.974 E4.00048
G1 X104.040 Y87.879 E4.10051
G1 X104.430 Y88.908 E4.20053
G1 X104.563 Y90.000 E4.30055
G1 X104.430 Y91.092 E4.40058
G1 X104.040 Y92.121 E4.50060
G1 X103.450 Y92.976 E4.59517
G1 X102.944 Y92.608 F7800.000
G1 F1800.000
G1 X102.234 Y93.237 E4.68140
G1 X101.395 Y93.678 E4.76762
G1 X100.474 Y93.905 E4.85385
G1 X99.526 Y93.905 E4.94007
G1 X98.605 Y93.678 E5.02630
G1 X97.766 Y93.237 E5.11252
G1 X97.056 Y92.608 E5.19875
G1 X96.517 Y91.828 E5.28497
G1 X96.181 Y90.941 E5.37120
G1 X96.066 Y90.000 E5.45742
G1 X96.181 Y89.059 E5.54365
G1 X96.517 Y88.172 E5.62988
G1 X97.056 Y87.392 E5.71610
G1 X97.766 Y86.763 E5.80233
G1 X98.605 Y86.322 E5.88855
G1 X99.526 Y86.095 E5.97478
G1 X100.474 Y86.095 E6.06100
G1 X101.395 Y86.322 E6.14723
G1 X102.234 Y86.763 E6.23345
G1 X102.944 Y87.392 E6.31968
G1 X103.483 Y88.172 E6.40590
G1 X103.819 Y89.059 E6.49213
G1 X103.934 Y90.000 E6.57836
G1 X103.819 Y90.941 E6.66458
G1 X103.483 Y91.828 E6.75081
G1 X102.978 Y92.559 E6.83158
G1 X102.473 Y92.191 F7800.000
;TYPE:External perimeter
G1 F1800.000
G1 X101.877 Y92.719 E6.90400
G1 X101.172 Y93.089 E6.97643
G1 X100.398 Y93.280 E7.04886
G1 X99.602 Y93.280 E7.12128
G1 X98.828 Y93.089 E7.19371
G1 X98.123 Y92.719 E7.26614
G1 X97.527 Y92.191 E7.33856
G1 X97.074 Y91.535 E7.41099
G1 X96.792 Y90.791 E7.48342
G1 X96.696 Y90.000 E7.55584
G1 X96.792 Y89.209 E7.62827
G1 X97.074 Y88.465 E7.70070
G1 X97.527 Y87.809 E7.77313
G1 X98.123 Y87.281 E7.84555
G1 X98.828 Y86.911 E7.91798
G1 X99.602 Y86.720 E7.99041
G1 X100.398 Y86.720 E8.06283
G1 X101.172 Y86.911 E8.13526
G1 X101.877 Y87.281 E8.20769
G1 X102.473 Y87.809 E8.28011
G1 X102.926 Y88.465 E8.35254
G1 X103.208 Y89.209 E8.42497
G1 X103.304 Y90.000 E8.49739
G1 X103.208 Y90.791 E8.56982
G1 X102.926 Y91.535 E8.64225
G1 X102.507 Y92.142 E8.70922
G1 X102.600 Y92.570 F7800.000
G1 E6.70922 F2400.000
G92 E0
G1 X81.194 Y101.336 F7800.000
G1 E2.00000 F2400.000
;TYPE:Perimeter
G1 F1800.000
G1 X81.510 Y101.266 E2.02941
G1 X82.021 Y102.613 E2.16038
G1 X82.791 Y103.729 E2.28364
G1 X83.806 Y104.628 E2.40690
G1 X85.006 Y105.258 E2.53016
G1 X86.322 Y105.582 E2.65342
G1 X87.678 Y105.582 E2.77668
G1 X88.994 Y105.258 E2.89994
G1 X90.194 Y104.628 E3.02320
G1 X91.209 Y103.729 E3.14646
G1 X91.979 Y102.613 E3.26972
G1 X92.460 Y101.346 E3.39298
G1 X92.623 Y100.000 E3.51624
G1 X92.460 Y98.654 E3.63950
G1 X91.979 Y97.387 E3.76276
G1 X91.209 Y96.271 E3.88602
G1 X90.194 Y95.372 E4.00928
G1 X88.994 Y94.742 E4.13254
G1 X87.678 Y94.418 E4.25580
G1 X86.322 Y94.418 E4.37906
G1 X85.006 Y94.742 E4.50232
G1 X83.806 Y95.372 E4.62558
G1 X82.791 Y96.271 E4.74884
G1 X82.021 Y97.387 E4.87210
G1 X81.510 Y98.734 E5.00307
G1 X81.194 Y98.664 E5.03249
G1 X81.279 Y97.427 E5.14528
G1 X81.804 Y94.902 E5.37981
G1 X82.667 Y92.471 E5.61433
G1 X83.854 Y90.181 E5.84885
G1 X85.341 Y88.074 E6.08337
G1 X87.102 Y86.189 E6.31789
G1 X89.102 Y84.562 E6.55241
G1 X91.306 Y83.222 E6.78694
G1 X93.672 Y82.194 E7.02146
G1 X96.155 Y81.498 E7.25598
G1 X98.710 Y81.147 E7.49050
G1 X101.290 Y81.147 E7.72502
G1 X103.845 Y81.498 E7.95954
G1 X106.328 Y82.194 E8.19406
G1 X108.694 Y83.222 E8.42859
G1 X110.898 Y84.562 E8.66311
G1 X112.263 Y85.673 E8.82319
G1 X112.898 Y86.189 E8.89763
G1 X114.659 Y88.074 E9.13215
G1 X116.146 Y90.181 E9.36667
G1 X117.333 Y92.471 E9.60119
G1 X118.196 Y94.902 E9.83572
G1 X118.721 Y97.427 E10.07024
G1 X118.897 Y100.000 E10.30476
G1 X118.721 Y102.573 E10.53928
G1 X118.196 Y105.098 E10.77380
G1 X117.333 Y107.529 E11.00832
G1 X116.146 Y109.819 E11.24285
G1 X114.659 Y111.926 E11.47737
G1 X112.898 Y113.811 E11.71189
