; generated by PrusaSlicer 2.3.3+win64 on 2021-11-30 at 01:18:01 UTC

; 

; external perimeters extrusion width = 0.45mm
; perimeters extrusion width = 0.45mm
; infill extrusion width = 0.45mm
; solid infill extrusion width = 0.45mm
; top infill extrusion width = 0.40mm
; first layer extrusion width = 0.42mm

M73 P0 R72
M73 Q0 S72
M201 X1000 Y1000 Z200 E5000 ; sets maximum accelerations, mm/sec^2
M203 X200 Y200 Z12 E120 ; sets maximum feedrates, mm/sec
M204 P1250 R1250 T1250 ; sets acceleration (P, T) and retract acceleration (R), mm/sec^2
M205 X8.00 Y8.00 Z0.40 E4.50 ; sets the jerk limits, mm/sec
M205 S0 T0 ; sets the minimum extruding and travel feed rate, mm/sec
M107
;TYPE:Custom
M862.3 P "MK3" ; printer model check
M862.1 P0.4 ; nozzle diameter check
M115 U3.10.0 ; tell printer latest fw version
G90 ; use absolute coordinates
M83 ; extruder relative mode
M104 S215 ; set extruder temp
M140 S60 ; set bed temp
M190 S60 ; wait for bed temp
M109 S215 ; wait for extruder temp
G28 W ; home all without mesh bed level
G80 ; mesh bed leveling
G1 Y-3.0 F1000.0 ; go outside print area
G92 E0.0
G1 X60.0 E9.0 F1000.0 ; intro line
G1 X100.0 E12.5 F1000.0 ; intro line
G92 E0.0
M221 S95

; Don't change E values below. Excessive value can damage the printer.
M907 E430 ; set extruder motor current
G21 ; set units to millimeters
G90 ; use absolute coordinates
M83 ; use relative distances for extrusion
M900 K0.05 ; Filament gcode LA 1.5
M900 K30 ; Filament gcode LA 1.0
;LAYER_CHANGE
;Z:0.2
;HEIGHT:0.2
;BEFORE_LAYER_CHANGE
G92 E0.0
;0.2


G1 E-0.80000 F2100.000
G1 Z0.400 F10800.000
;AFTER_LAYER_CHANGE
;0.2
G1 X24.400 Y35.885
G1 Z0.200
G1 E0.80000 F2100.000
M204 S1000
;TYPE:Skirt
;WIDTH:0.42
G1 F1200.000
G1 X25.131 Y34.958 E0.03704
G1 X25.716 Y34.482 E0.02365
G1 X26.351 Y34.125 E0.02281
G1 X43.381 Y26.449 E0.58570
G1 X47.175 Y24.980 E0.12757
G1 X51.059 Y23.898 E0.12643
G1 X53.175 Y23.476 E0.06765
G1 X57.173 Y22.983 E0.12631
G1 X61.204 Y22.881 E0.12643
G1 X63.358 Y22.988 E0.06762
G1 X67.353 Y23.484 E0.12622
G1 X71.287 Y24.369 E0.12643
G1 X73.344 Y24.995 E0.06741
G1 X77.093 Y26.449 E0.12607
G1 X94.140 Y34.132 E0.58627
G1 X94.857 Y34.551 E0.02605
G1 X95.448 Y35.061 E0.02446
G1 X96.134 Y35.988 E0.03616
G1 X96.542 Y37.014 E0.03463
G1 X100.739 Y55.408 E0.59153
G1 X101.126 Y57.391 E0.06337
G1 X101.573 Y60.987 E0.11361
G1 X101.702 Y63.309 E0.07292
G1 X101.702 Y65.351 E0.06401
G1 X101.407 Y69.383 E0.12678
G1 X100.720 Y73.372 E0.12689
G1 X96.539 Y91.688 E0.58908
G1 X96.076 Y92.807 E0.03796
G1 X95.347 Y93.732 E0.03693
G1 X94.758 Y94.211 E0.02382
G1 X94.133 Y94.563 E0.02247
G1 X77.070 Y102.254 E0.58683
G1 X73.285 Y103.718 E0.12725
G1 X69.645 Y104.738 E0.11854
G1 X67.282 Y105.220 E0.07561
G1 X63.304 Y105.710 E0.12565
G1 X59.234 Y105.811 E0.12765
G1 X55.321 Y105.529 E0.12302
G1 X53.093 Y105.203 E0.07061
G1 X49.372 Y104.372 E0.11952
G1 X47.072 Y103.678 E0.07536
G1 X43.375 Y102.241 E0.12435
G1 X26.335 Y94.560 E0.58605
G1 X25.617 Y94.141 E0.02604
G1 X25.027 Y93.632 E0.02446
G1 X24.341 Y92.705 E0.03616
G1 X23.933 Y91.678 E0.03463
G1 X19.751 Y73.355 E0.58928
G1 X19.356 Y71.348 E0.06414
G1 X18.877 Y67.442 E0.12340
M73 P0 R71
G1 X18.773 Y65.361 E0.06533
G1 X18.773 Y63.334 E0.06354
G1 X19.069 Y59.293 E0.12704
G1 X19.760 Y55.297 E0.12716
G1 X23.935 Y37.005 E0.58829
G1 X24.377 Y35.941 E0.03612
; printing object Cap_Final.stl id:0 copy 0
;WIPE_START
G1 F8640.000
G1 X25.131 Y34.958 E-0.28612
G1 X25.716 Y34.482 E-0.17419
G1 X26.351 Y34.125 E-0.16802
G1 X26.871 Y33.891 E-0.13168
;WIPE_END
G1 E-0.04000 F2100.000
G1 Z0.600 F10800.000
G1 X58.827 Y97.456
G1 Z0.200
G1 E0.80000 F2100.000
;TYPE:Perimeter
G1 F1200.000
G1 X59.265 Y97.218 E0.01564
G1 X59.740 Y97.071 E0.01561
G1 X60.215 Y97.022 E0.01496
G1 X60.617 Y97.051 E0.01262
G1 X61.094 Y97.172 E0.01545
G1 X61.543 Y97.389 E0.01564
G1 X61.941 Y97.690 E0.01564
G1 X62.271 Y98.064 E0.01564
G1 X62.520 Y98.496 E0.01564
G1 X62.679 Y98.968 E0.01564
G1 X62.741 Y99.463 E0.01564
G1 X62.704 Y99.961 E0.01564
G1 X62.569 Y100.441 E0.01564
G1 X62.341 Y100.885 E0.01564
G1 X62.030 Y101.274 E0.01564
G1 X61.648 Y101.595 E0.01564
G1 X61.210 Y101.834 E0.01564
G1 X60.734 Y101.981 E0.01564
G1 X60.237 Y102.030 E0.01564
G1 X59.741 Y101.981 E0.01564
G1 X59.265 Y101.834 E0.01564
G1 X58.827 Y101.595 E0.01564
G1 X58.444 Y101.274 E0.01564
G1 X58.134 Y100.885 E0.01564
G1 X57.909 Y100.446 E0.01545
G1 X57.792 Y100.061 E0.01262
G1 X57.734 Y99.587 E0.01496
G1 X57.771 Y99.091 E0.01561
G1 X57.906 Y98.611 E0.01564
G1 X58.134 Y98.167 E0.01564
G1 X58.444 Y97.777 E0.01564
G1 X58.781 Y97.495 E0.01376
G1 X59.023 Y97.784 F10800.000
;TYPE:External perimeter
G1 F1200.000
G1 X59.412 Y97.567 E0.01396
G1 X59.816 Y97.442 E0.01326
G1 X60.221 Y97.401 E0.01277
G1 X60.556 Y97.424 E0.01054
G1 X60.964 Y97.528 E0.01320
G1 X61.346 Y97.712 E0.01327
G1 X61.683 Y97.967 E0.01327
G1 X61.963 Y98.285 E0.01327
G1 X62.175 Y98.651 E0.01327
G1 X62.310 Y99.053 E0.01327
G1 X62.362 Y99.473 E0.01327
G1 X62.331 Y99.895 E0.01327
G1 X62.216 Y100.302 E0.01327
G1 X62.023 Y100.679 E0.01327
G1 X61.759 Y101.010 E0.01327
G1 X61.435 Y101.282 E0.01327
G1 X61.063 Y101.484 E0.01327
G1 X60.659 Y101.609 E0.01327
G1 X60.237 Y101.651 E0.01327
G1 X59.816 Y101.609 E0.01327
G1 X59.412 Y101.484 E0.01327
G1 X59.040 Y101.282 E0.01327
G1 X58.716 Y101.010 E0.01327
G1 X58.452 Y100.679 E0.01327
G1 X58.260 Y100.304 E0.01320
G1 X58.162 Y99.983 E0.01054
G1 X58.113 Y99.578 E0.01277
G1 X58.144 Y99.157 E0.01326
G1 X58.259 Y98.749 E0.01327
G1 X58.452 Y98.372 E0.01327
G1 X58.716 Y98.041 E0.01327
G1 X58.977 Y97.822 E0.01069
G1 X58.990 Y97.385 F10800.000
;WIPE_START
G1 F8640.000
G1 X59.412 Y97.567 E-0.11642
G1 X59.816 Y97.442 E-0.09767
G1 X60.221 Y97.401 E-0.09403
G1 X60.556 Y97.424 E-0.07761
G1 X60.964 Y97.528 E-0.09723
G1 X61.346 Y97.712 E-0.09774
G1 X61.683 Y97.967 E-0.09774
G1 X61.917 Y98.232 E-0.08156
;WIPE_END
G1 E-0.04000 F2100.000
G1 Z0.600 F10800.000
G1 X26.851 Y66.095
G1 Z0.200
G1 E0.80000 F2100.000
;TYPE:Perimeter
G1 F1200.000
G1 X26.469 Y66.416 E0.01564
G1 X26.031 Y66.654 E0.01564
G1 X25.554 Y66.801 E0.01564
G1 X25.065 Y66.850 E0.01541
G1 X24.678 Y66.821 E0.01219
G1 X24.202 Y66.700 E0.01541
G1 X23.752 Y66.483 E0.01564
G1 X23.355 Y66.182 E0.01564
G1 X23.025 Y65.808 E0.01564
G1 X22.775 Y65.376 E0.01564
G1 X22.616 Y64.904 E0.01564
G1 X22.554 Y64.409 E0.01564
G1 X22.592 Y63.911 E0.01564
G1 X22.727 Y63.431 E0.01564
G1 X22.954 Y62.988 E0.01564
G1 X23.265 Y62.598 E0.01564
G1 X23.647 Y62.277 E0.01564
G1 X24.085 Y62.038 E0.01564
G1 X24.561 Y61.892 E0.01561
G1 X25.036 Y61.843 E0.01496
G1 X25.437 Y61.871 E0.01262
G1 X25.915 Y61.993 E0.01545
G1 X26.364 Y62.209 E0.01564
G1 X26.762 Y62.510 E0.01564
G1 X27.092 Y62.884 E0.01564
G1 X27.341 Y63.316 E0.01564
G1 X27.500 Y63.789 E0.01564
G1 X27.562 Y64.284 E0.01564
G1 X27.525 Y64.781 E0.01564
G1 X27.390 Y65.261 E0.01564
G1 X27.162 Y65.705 E0.01564
G1 X26.888 Y66.048 E0.01376
G1 X26.594 Y65.813 F10800.000
;TYPE:External perimeter
G1 F1200.000
G1 X26.256 Y66.103 E0.01396
G1 X25.884 Y66.305 E0.01327
G1 X25.479 Y66.430 E0.01327
G1 X25.061 Y66.472 E0.01319
G1 X24.739 Y66.448 E0.01012
G1 X24.331 Y66.344 E0.01319
G1 X23.950 Y66.160 E0.01327
G1 X23.612 Y65.905 E0.01327
G1 X23.332 Y65.587 E0.01327
G1 X23.121 Y65.221 E0.01327
G1 X22.986 Y64.819 E0.01327
G1 X22.933 Y64.399 E0.01327
G1 X22.965 Y63.977 E0.01327
G1 X23.079 Y63.570 E0.01327
G1 X23.273 Y63.193 E0.01327
G1 X23.536 Y62.862 E0.01327
G1 X23.861 Y62.590 E0.01327
G1 X24.232 Y62.388 E0.01327
G1 X24.637 Y62.263 E0.01326
G1 X25.042 Y62.221 E0.01277
G1 X25.377 Y62.245 E0.01054
G1 X25.785 Y62.349 E0.01320
G1 X26.167 Y62.533 E0.01327
G1 X26.504 Y62.788 E0.01327
G1 X26.784 Y63.106 E0.01327
G1 X26.996 Y63.472 E0.01327
G1 X27.130 Y63.873 E0.01327
G1 X27.183 Y64.293 E0.01327
G1 X27.151 Y64.715 E0.01327
G1 X27.037 Y65.123 E0.01327
G1 X26.844 Y65.500 E0.01327
G1 X26.631 Y65.766 E0.01069
G1 X26.705 Y66.197 F10800.000
;WIPE_START
G1 F8640.000
G1 X26.256 Y66.103 E-0.11642
G1 X25.884 Y66.305 E-0.09774
G1 X25.479 Y66.430 E-0.09774
G1 X25.061 Y66.472 E-0.09713
G1 X24.739 Y66.448 E-0.07456
G1 X24.331 Y66.344 E-0.09713
G1 X23.950 Y66.160 E-0.09774
G1 X23.668 Y65.947 E-0.08156
;WIPE_END
G1 E-0.04000 F2100.000
G1 Z0.600 F10800.000
G1 X58.444 Y30.916
G1 Z0.200
G1 E0.80000 F2100.000
;TYPE:Perimeter
G1 F1200.000
G1 X58.138 Y30.532 E0.01541
G1 X57.952 Y30.190 E0.01219
G1 X57.796 Y29.724 E0.01541
G1 X57.734 Y29.230 E0.01564
G1 X57.771 Y28.732 E0.01564
G1 X57.906 Y28.252 E0.01564
G1 X58.134 Y27.808 E0.01564
G1 X58.444 Y27.418 E0.01564
G1 X58.827 Y27.098 E0.01564
G1 X59.265 Y26.859 E0.01564
G1 X59.740 Y26.712 E0.01561
G1 X60.215 Y26.664 E0.01496
G1 X60.617 Y26.692 E0.01262
G1 X61.094 Y26.814 E0.01545
G1 X61.543 Y27.030 E0.01564
G1 X61.941 Y27.331 E0.01564
G1 X62.271 Y27.705 E0.01564
G1 X62.520 Y28.137 E0.01564
G1 X62.679 Y28.610 E0.01564
G1 X62.741 Y29.105 E0.01564
G1 X62.704 Y29.602 E0.01564
G1 X62.569 Y30.082 E0.01564
G1 X62.341 Y30.526 E0.01564
G1 X62.030 Y30.916 E0.01564
G1 X61.648 Y31.236 E0.01564
G1 X61.210 Y31.475 E0.01564
G1 X60.734 Y31.622 E0.01564
G1 X60.237 Y31.672 E0.01564
G1 X59.741 Y31.622 E0.01564
G1 X59.265 Y31.475 E0.01564
G1 X58.827 Y31.236 E0.01564
G1 X58.490 Y30.954 E0.01376
G1 X58.733 Y30.666 F10800.000
;TYPE:External perimeter
G1 F1200.000
G1 X58.454 Y30.322 E0.01387
G1 X58.299 Y30.039 E0.01012
G1 X58.165 Y29.640 E0.01319
G1 X58.112 Y29.220 E0.01327
G1 X58.144 Y28.798 E0.01327
G1 X58.259 Y28.390 E0.01327
G1 X58.452 Y28.014 E0.01327
G1 X58.716 Y27.683 E0.01327
G1 X59.040 Y27.411 E0.01327
G1 X59.412 Y27.208 E0.01327
G1 X59.816 Y27.084 E0.01326
G1 X60.221 Y27.042 E0.01277
G1 X60.556 Y27.066 E0.01054
G1 X60.964 Y27.170 E0.01320
G1 X61.346 Y27.353 E0.01327
G1 X61.683 Y27.609 E0.01327
G1 X61.963 Y27.926 E0.01327
G1 X62.175 Y28.293 E0.01327
G1 X62.310 Y28.694 E0.01327
G1 X62.362 Y29.114 E0.01327
G1 X62.331 Y29.536 E0.01327
G1 X62.216 Y29.944 E0.01327
G1 X62.023 Y30.320 E0.01327
G1 X61.759 Y30.651 E0.01327
G1 X61.435 Y30.923 E0.01327
G1 X61.063 Y31.126 E0.01327
G1 X60.659 Y31.251 E0.01327
G1 X60.237 Y31.293 E0.01327
G1 X59.816 Y31.251 E0.01327
G1 X59.412 Y31.126 E0.01327
G1 X59.040 Y30.923 E0.01327
G1 X58.779 Y30.704 E0.01069
G1 X58.346 Y30.767 F10800.000
;WIPE_START
G1 F8640.000
G1 X58.454 Y30.322 E-0.11581
G1 X58.299 Y30.039 E-0.07456
G1 X58.165 Y29.640 E-0.09713
G1 X58.112 Y29.220 E-0.09774
G1 X58.144 Y28.798 E-0.09774
G1 X58.259 Y28.390 E-0.09774
G1 X58.452 Y28.014 E-0.09774
G1 X58.672 Y27.738 E-0.08155
;WIPE_END
G1 E-0.04000 F2100.000
G1 Z0.600 F10800.000
G1 X93.624 Y62.598
G1 Z0.200
G1 E0.80000 F2100.000
;TYPE:Perimeter
G1 F1200.000
G1 X94.006 Y62.277 E0.01564
G1 X94.444 Y62.038 E0.01564
G1 X94.920 Y61.892 E0.01561
G1 X95.394 Y61.843 E0.01496
G1 X95.796 Y61.871 E0.01262
G1 X96.273 Y61.993 E0.01545
G1 X96.723 Y62.209 E0.01564
G1 X97.120 Y62.510 E0.01564
G1 X97.450 Y62.884 E0.01564
G1 X97.700 Y63.316 E0.01564
G1 X97.859 Y63.789 E0.01564
G1 X97.921 Y64.284 E0.01564
G1 X97.883 Y64.781 E0.01564
G1 X97.748 Y65.261 E0.01564
G1 X97.521 Y65.705 E0.01564
G1 X97.210 Y66.095 E0.01564
G1 X96.828 Y66.416 E0.01564
G1 X96.390 Y66.654 E0.01564
G1 X95.913 Y66.801 E0.01564
G1 X95.417 Y66.851 E0.01564
G1 X94.920 Y66.801 E0.01564
G1 X94.444 Y66.654 E0.01564
G1 X94.006 Y66.416 E0.01564
G1 X93.624 Y66.095 E0.01564
G1 X93.313 Y65.705 E0.01564
G1 X93.089 Y65.268 E0.01541
G1 X92.974 Y64.896 E0.01219
G1 X92.913 Y64.409 E0.01541
G1 X92.950 Y63.911 E0.01564
G1 X93.085 Y63.431 E0.01564
G1 X93.313 Y62.988 E0.01564
G1 X93.586 Y62.644 E0.01376
G1 X93.881 Y62.880 F10800.000
;TYPE:External perimeter
G1 F1200.000
G1 X94.219 Y62.590 E0.01396
G1 X94.591 Y62.388 E0.01327
G1 X94.995 Y62.263 E0.01326
G1 X95.400 Y62.221 E0.01277
G1 X95.736 Y62.245 E0.01054
G1 X96.144 Y62.349 E0.01320
G1 X96.525 Y62.533 E0.01327
G1 X96.863 Y62.788 E0.01327
G1 X97.143 Y63.106 E0.01327
G1 X97.354 Y63.472 E0.01327
G1 X97.489 Y63.873 E0.01327
G1 X97.542 Y64.293 E0.01327
G1 X97.510 Y64.715 E0.01327
G1 X97.395 Y65.123 E0.01327
G1 X97.202 Y65.500 E0.01327
G1 X96.938 Y65.831 E0.01327
G1 X96.614 Y66.103 E0.01327
G1 X96.242 Y66.305 E0.01327
G1 X95.838 Y66.430 E0.01327
G1 X95.417 Y66.472 E0.01327
G1 X94.996 Y66.430 E0.01327
G1 X94.591 Y66.305 E0.01327
G1 X94.219 Y66.103 E0.01327
G1 X93.895 Y65.831 E0.01327
G1 X93.631 Y65.500 E0.01327
G1 X93.439 Y65.125 E0.01319
G1 X93.344 Y64.817 E0.01012
G1 X93.292 Y64.399 E0.01319
G1 X93.323 Y63.977 E0.01327
G1 X93.438 Y63.570 E0.01327
G1 X93.631 Y63.193 E0.01327
G1 X93.844 Y62.926 E0.01069
G1 X93.770 Y62.495 F10800.000
;WIPE_START
G1 F8640.000
G1 X94.219 Y62.590 E-0.11642
G1 X94.591 Y62.388 E-0.09774
G1 X94.995 Y62.263 E-0.09767
G1 X95.400 Y62.221 E-0.09402
G1 X95.736 Y62.245 E-0.07762
G1 X96.144 Y62.349 E-0.09723
G1 X96.525 Y62.533 E-0.09774
G1 X96.807 Y62.746 E-0.08156
;WIPE_END
G1 E-0.04000 F2100.000
G1 Z0.600 F10800.000
G1 X86.974 Y36.892
G1 Z0.200
G1 E0.80000 F2100.000
;TYPE:Perimeter
G1 F1200.000
G1 X92.422 Y36.901 E0.17082
G1 X92.661 Y36.949 E0.00763
G1 X92.815 Y37.008 E0.00518
G1 X93.024 Y37.134 E0.00765
G1 X93.204 Y37.297 E0.00762
G1 X93.306 Y37.427 E0.00518
G1 X93.424 Y37.649 E0.00788
G1 X93.476 Y37.805 E0.00518
G1 X93.514 Y38.059 E0.00803
G1 X93.516 Y45.350 E0.22862
G1 X94.487 Y47.177 E0.06485
G1 X95.304 Y48.912 E0.06014
G1 X96.014 Y50.640 E0.05858
G1 X96.624 Y52.353 E0.05699
G1 X97.179 Y54.189 E0.06016
G1 X97.630 Y56.002 E0.05857
G1 X97.983 Y57.785 E0.05700
G1 X98.265 Y59.683 E0.06015
G1 X98.450 Y61.593 E0.06017
G1 X98.539 Y63.408 E0.05700
G1 X98.539 Y65.277 E0.05858
G1 X98.448 Y67.142 E0.05857
G1 X98.259 Y69.052 E0.06016
G1 X97.994 Y70.850 E0.05699
G1 X97.632 Y72.683 E0.05858
G1 X97.181 Y74.496 E0.05857
G1 X96.627 Y76.333 E0.06015
G1 X95.999 Y78.092 E0.05857
G1 X95.307 Y79.773 E0.05699
G1 X94.491 Y81.509 E0.06015
G1 X93.516 Y83.342 E0.06510
G1 X93.514 Y90.633 E0.22858
G1 X93.477 Y90.880 E0.00786
G1 X93.395 Y91.111 E0.00767
G1 X93.313 Y91.255 E0.00519
G1 X93.158 Y91.443 E0.00765
G1 X92.970 Y91.598 E0.00764
G1 X92.826 Y91.679 E0.00519
G1 X92.592 Y91.763 E0.00781
G1 X92.428 Y91.792 E0.00519
G1 X86.974 Y91.801 E0.17102
G1 X85.341 Y93.289 E0.06928
G1 X83.888 Y94.488 E0.05905
G1 X82.378 Y95.614 E0.05904
G1 X80.772 Y96.691 E0.06064
G1 X79.202 Y97.636 E0.05747
G1 X77.543 Y98.528 E0.05906
G1 X75.842 Y99.337 E0.05905
G1 X74.057 Y100.080 E0.06063
G1 X72.285 Y100.716 E0.05905
G1 X70.483 Y101.264 E0.05905
G1 X68.656 Y101.723 E0.05905
G1 X66.809 Y102.091 E0.05905
G1 X64.996 Y102.361 E0.05746
G1 X63.021 Y102.557 E0.06224
G1 X61.191 Y102.647 E0.05746
G1 X59.307 Y102.648 E0.05905
G1 X57.426 Y102.556 E0.05905
G1 X55.552 Y102.371 E0.05905
G1 X53.640 Y102.086 E0.06063
G1 X51.793 Y101.717 E0.05905
G1 X50.015 Y101.270 E0.05747
G1 X48.165 Y100.707 E0.06064
G1 X46.393 Y100.070 E0.05904
G1 X44.654 Y99.347 E0.05905
G1 X42.998 Y98.560 E0.05747
G1 X41.293 Y97.647 E0.06065
G1 X39.679 Y96.676 E0.05904
G1 X38.116 Y95.627 E0.05905
G1 X36.605 Y94.502 E0.05905
G1 X35.153 Y93.305 E0.05900
G1 X33.501 Y91.801 E0.07006
G1 X28.053 Y91.792 E0.17082
M73 Q0 S71
G1 X27.814 Y91.744 E0.00764
G1 X27.660 Y91.685 E0.00516
G1 X27.445 Y91.556 E0.00788
G1 X27.321 Y91.448 E0.00515
G1 X27.166 Y91.260 E0.00766
G1 X27.051 Y91.045 E0.00765
G1 X26.999 Y90.887 E0.00519
G1 X26.961 Y90.634 E0.00803
G1 X26.959 Y83.342 E0.22862
G1 X25.979 Y81.499 E0.06544
G1 X25.182 Y79.806 E0.05869
G1 X24.469 Y78.075 E0.05869
G1 X23.841 Y76.311 E0.05869
G1 X23.300 Y74.519 E0.05869
G1 X22.847 Y72.703 E0.05869
G1 X22.484 Y70.867 E0.05869
G1 X22.210 Y69.015 E0.05869
G1 X22.028 Y67.152 E0.05869
G1 X21.936 Y65.282 E0.05869
G1 X21.936 Y63.410 E0.05869
G1 X22.028 Y61.541 E0.05869
G1 X22.210 Y59.678 E0.05869
G1 X22.484 Y57.826 E0.05869
G1 X22.847 Y55.990 E0.05869
G1 X23.300 Y54.173 E0.05869
G1 X23.841 Y52.381 E0.05869
G1 X24.469 Y50.618 E0.05869
G1 X25.182 Y48.887 E0.05869
G1 X25.979 Y47.193 E0.05869
G1 X26.959 Y45.350 E0.06544
G1 X26.961 Y38.062 E0.22853
G1 X26.998 Y37.810 E0.00798
G1 X27.078 Y37.587 E0.00743
G1 X27.201 Y37.384 E0.00744
G1 X27.364 Y37.203 E0.00763
G1 X27.493 Y37.102 E0.00515
G1 X27.714 Y36.984 E0.00785
G1 X27.879 Y36.930 E0.00543
G1 X28.047 Y36.901 E0.00536
G1 X33.501 Y36.892 E0.17101
