; generated by PrusaSlicer 2.3.3+win64 on 2021-11-30 at 01:20:55 UTC

; 

; external perimeters extrusion width = 0.45mm
; perimeters extrusion width = 0.45mm
; infill extrusion width = 0.45mm
; solid infill extrusion width = 0.45mm
; top infill extrusion width = 0.40mm
; first layer extrusion width = 0.42mm

M73 P0 R112
M73 Q0 S112
M201 X1000 Y1000 Z200 E5000 ; sets maximum accelerations, mm/sec^2
M203 X200 Y200 Z12 E120 ; sets maximum feedrates, mm/sec
M204 P1250 R1250 T1250 ; sets acceleration (P, T) and retract acceleration (R), mm/sec^2
M205 X8.00 Y8.00 Z0.40 E4.50 ; sets the jerk limits, mm/sec
M205 S0 T0 ; sets the minimum extruding and travel feed rate, mm/sec
M107
;TYPE:Custom
M862.3 P "MK3" ; printer model check
M862.1 P0.4 ; nozzle diameter check
M115 U3.10.0 ; tell printer latest fw version
G90 ; use absolute coordinates
M83 ; extruder relative mode
M104 S215 ; set extruder temp
M140 S60 ; set bed temp
M190 S60 ; wait for bed temp
M109 S215 ; wait for extruder temp
G28 W ; home all without mesh bed level
G80 ; mesh bed leveling
G1 Y-3.0 F1000.0 ; go outside print area
G92 E0.0
G1 X60.0 E9.0 F1000.0 ; intro line
G1 X100.0 E12.5 F1000.0 ; intro line
G92 E0.0
M221 S95

; Don't change E values below. Excessive value can damage the printer.
M907 E430 ; set extruder motor current
G21 ; set units to millimeters
G90 ; use absolute coordinates
M83 ; use relative distances for extrusion
M900 K0.05 ; Filament gcode LA 1.5
M900 K30 ; Filament gcode LA 1.0
;LAYER_CHANGE
;Z:0.2
;HEIGHT:0.2
;BEFORE_LAYER_CHANGE
G92 E0.0
;0.2


G1 E-0.80000 F2100.000
G1 Z0.400 F10800.000
;AFTER_LAYER_CHANGE
;0.2
G1 X28.249 Y28.289
G1 Z0.200
G1 E0.80000 F2100.000
M204 S1000
;TYPE:Skirt
;WIDTH:0.42
G1 F1200.000
G1 X28.712 Y27.930 E0.01838
G1 X29.274 Y27.666 E0.01946
G1 X43.446 Y22.942 E0.46840
G1 X45.431 Y22.344 E0.06501
G1 X49.285 Y21.483 E0.12382
G1 X51.346 Y21.176 E0.06533
G1 X53.422 Y20.975 E0.06539
G1 X57.360 Y20.879 E0.12352
G1 X59.438 Y20.978 E0.06521
G1 X61.513 Y21.184 E0.06539
G1 X65.392 Y21.854 E0.12340
G1 X67.414 Y22.356 E0.06533
G1 X69.357 Y22.942 E0.06366
G1 X83.537 Y27.669 E0.46865
G1 X84.135 Y27.958 E0.02082
G1 X84.634 Y28.369 E0.02028
G1 X85.036 Y28.906 E0.02101
G1 X92.467 Y41.860 E0.46825
G1 X94.269 Y45.423 E0.12522
G1 X95.082 Y47.373 E0.06622
G1 X96.363 Y51.236 E0.12761
G1 X96.863 Y53.221 E0.06420
G1 X97.263 Y55.225 E0.06407
G1 X97.563 Y57.239 E0.06384
G1 X97.765 Y59.279 E0.06429
G1 X97.866 Y61.321 E0.06409
G1 X97.866 Y63.364 E0.06407
G1 X97.765 Y65.405 E0.06407
G1 X97.564 Y67.439 E0.06407
G1 X96.875 Y71.408 E0.12631
G1 X96.346 Y73.510 E0.06797
G1 X95.769 Y75.404 E0.06208
G1 X95.067 Y77.355 E0.06503
G1 X94.269 Y79.265 E0.06487
G1 X92.470 Y82.823 E0.12504
G1 X85.034 Y95.786 E0.46855
G1 X84.552 Y96.401 E0.02452
G1 X84.087 Y96.760 E0.01838
G1 X83.529 Y97.022 E0.01934
G1 X69.357 Y101.746 E0.46840
G1 X67.334 Y102.353 E0.06621
G1 X63.514 Y103.206 E0.12274
G1 X61.460 Y103.511 E0.06510
G1 X59.381 Y103.713 E0.06550
G1 X55.389 Y103.809 E0.12519
G1 X53.361 Y103.709 E0.06366
G1 X51.282 Y103.503 E0.06550
G1 X47.411 Y102.834 E0.12317
G1 X45.389 Y102.332 E0.06533
G1 X43.445 Y101.746 E0.06366
G1 X29.265 Y97.019 E0.46865
G1 X28.668 Y96.730 E0.02082
G1 X28.168 Y96.318 E0.02029
G1 X27.767 Y95.782 E0.02100
G1 X20.336 Y82.828 E0.46825
G1 X18.533 Y79.265 E0.12522
G1 X17.721 Y77.315 E0.06622
G1 X17.034 Y75.403 E0.06370
G1 X16.441 Y73.455 E0.06384
G1 X15.940 Y71.466 E0.06430
G1 X15.540 Y69.463 E0.06407
G1 X15.239 Y67.442 E0.06407
G1 X15.038 Y65.408 E0.06407
G1 X14.937 Y63.367 E0.06407
G1 X14.937 Y61.324 E0.06407
G1 X15.037 Y59.283 E0.06407
G1 X15.238 Y57.257 E0.06384
G1 X15.926 Y53.287 E0.12631
G1 X16.452 Y51.192 E0.06773
G1 X17.034 Y49.284 E0.06254
G1 X17.736 Y47.333 E0.06504
G1 X18.533 Y45.423 E0.06487
G1 X20.333 Y41.865 E0.12504
G1 X27.769 Y28.902 E0.46855
G1 X28.212 Y28.336 E0.02252
;WIPE_START
G1 F8640.000
G1 X28.712 Y27.930 E-0.14885
G1 X29.274 Y27.666 E-0.14328
G1 X31.196 Y27.025 E-0.46787
;WIPE_END
G1 E-0.04000 F2100.000
G1 Z0.600 F10800.000
G1 X25.229 Y31.572
G1 Z0.200
G1 E0.80000 F2100.000
G1 F1200.000
G1 X25.301 Y29.363 E0.06928
G1 X25.815 Y27.908 E0.04839
G1 X26.755 Y26.686 E0.04835
G1 X28.013 Y25.819 E0.04789
G1 X29.456 Y25.387 E0.04722
G1 X32.975 Y25.334 E0.11035
G1 X33.744 Y24.844 E0.02859
G1 X34.958 Y24.137 E0.04406
G1 X36.790 Y23.165 E0.06501
G1 X38.675 Y22.277 E0.06532
G1 X40.643 Y21.463 E0.06680
G1 X42.659 Y20.741 E0.06714
G1 X44.827 Y20.087 E0.07098
G1 X46.849 Y19.584 E0.06535
G1 X48.885 Y19.180 E0.06507
G1 X51.123 Y18.850 E0.07095
G1 X53.197 Y18.648 E0.06535
G1 X55.270 Y18.545 E0.06506
G1 X57.524 Y18.545 E0.07068
G1 X59.671 Y18.653 E0.06740
G1 X61.736 Y18.856 E0.06504
G1 X63.797 Y19.159 E0.06533
G1 X65.943 Y19.582 E0.06858
G1 X68.067 Y20.112 E0.06864
G1 X70.144 Y20.742 E0.06804
G1 X72.160 Y21.463 E0.06713
G1 X74.137 Y22.280 E0.06708
G1 X76.013 Y23.165 E0.06504
G1 X77.844 Y24.137 E0.06501
G1 X79.059 Y24.844 E0.04407
M73 P0 R111
G1 X79.828 Y25.334 E0.02861
G1 X83.362 Y25.389 E0.11079
G1 X84.816 Y25.822 E0.04757
G1 X85.492 Y26.231 E0.02479
G1 X86.127 Y26.757 E0.02585
G1 X87.035 Y27.996 E0.04816
G1 X87.510 Y29.415 E0.04691
G1 X87.576 Y31.574 E0.06772
G1 X88.066 Y32.062 E0.02169
G1 X89.460 Y33.591 E0.06488
G1 X90.842 Y35.261 E0.06795
G1 X92.145 Y37.006 E0.06829
G1 X93.340 Y38.781 E0.06709
G1 X94.469 Y40.653 E0.06855
G1 X95.504 Y42.581 E0.06860
G1 X96.442 Y44.558 E0.06861
G1 X97.280 Y46.578 E0.06858
G1 X98.004 Y48.601 E0.06738
G1 X98.630 Y50.667 E0.06768
G1 X99.154 Y52.761 E0.06768
G1 X99.574 Y54.878 E0.06768
G1 X99.889 Y57.013 E0.06767
G1 X100.098 Y59.152 E0.06737
G1 X100.203 Y61.308 E0.06768
G1 X100.200 Y63.467 E0.06770
G1 X100.091 Y65.642 E0.06829
G1 X99.875 Y67.790 E0.06769
G1 X99.554 Y69.925 E0.06768
G1 X99.128 Y72.041 E0.06768
G1 X98.599 Y74.133 E0.06768
G1 X97.967 Y76.197 E0.06768
G1 X97.234 Y78.227 E0.06767
G1 X96.406 Y80.211 E0.06738
G1 X95.478 Y82.159 E0.06768
G1 X94.455 Y84.059 E0.06767
G1 X93.339 Y85.907 E0.06765
G1 X92.145 Y87.682 E0.06709
G1 X90.842 Y89.427 E0.06829
G1 X89.460 Y91.097 E0.06795
G1 X88.066 Y92.626 E0.06488
G1 X87.574 Y93.116 E0.02178
G1 X87.502 Y95.325 E0.06928
G1 X86.988 Y96.780 E0.04839
G1 X86.048 Y98.002 E0.04835
G1 X84.790 Y98.869 E0.04789
G1 X83.347 Y99.301 E0.04722
G1 X79.828 Y99.354 E0.11035
G1 X79.059 Y99.844 E0.02859
G1 X77.844 Y100.551 E0.04406
G1 X76.013 Y101.523 E0.06501
G1 X74.128 Y102.411 E0.06532
G1 X72.160 Y103.225 E0.06679
G1 X70.155 Y103.942 E0.06676
G1 X67.976 Y104.601 E0.07136
G1 X65.954 Y105.103 E0.06536
G1 X63.918 Y105.508 E0.06506
G1 X61.680 Y105.838 E0.07095
G1 X59.605 Y106.040 E0.06535
G1 X57.533 Y106.143 E0.06507
G1 X55.269 Y106.143 E0.07098
G1 X53.131 Y106.035 E0.06710
G1 X51.067 Y105.831 E0.06504
G1 X49.006 Y105.529 E0.06533
G1 X46.860 Y105.106 E0.06858
G1 X44.735 Y104.576 E0.06867
G1 X42.647 Y103.942 E0.06839
G1 X40.643 Y103.225 E0.06674
G1 X38.666 Y102.407 E0.06708
G1 X36.790 Y101.523 E0.06504
G1 X34.959 Y100.551 E0.06501
G1 X33.744 Y99.844 E0.04407
G1 X32.974 Y99.354 E0.02861
G1 X29.441 Y99.299 E0.11079
G1 X27.987 Y98.866 E0.04757
G1 X27.311 Y98.457 E0.02479
G1 X26.676 Y97.931 E0.02585
G1 X25.768 Y96.692 E0.04816
G1 X25.293 Y95.273 E0.04691
G1 X25.227 Y93.114 E0.06772
G1 X24.737 Y92.626 E0.02169
G1 X23.343 Y91.097 E0.06488
G1 X21.961 Y89.427 E0.06795
G1 X20.658 Y87.682 E0.06830
G1 X19.458 Y85.898 E0.06739
G1 X18.329 Y84.026 E0.06856
G1 X17.294 Y82.098 E0.06859
G1 X16.361 Y80.130 E0.06831
G1 X15.523 Y78.110 E0.06857
G1 X14.799 Y76.087 E0.06738
G1 X14.173 Y74.021 E0.06768
G1 X13.649 Y71.927 E0.06768
G1 X13.229 Y69.810 E0.06768
G1 X12.914 Y67.675 E0.06767
G1 X12.704 Y65.536 E0.06737
G1 X12.600 Y63.380 E0.06768
G1 X12.602 Y61.221 E0.06770
G1 X12.712 Y59.046 E0.06829
G1 X12.928 Y56.898 E0.06769
G1 X13.249 Y54.763 E0.06768
G1 X13.675 Y52.647 E0.06768
G1 X14.204 Y50.555 E0.06768
G1 X14.836 Y48.491 E0.06768
G1 X15.568 Y46.460 E0.06767
G1 X16.396 Y44.477 E0.06738
G1 X17.325 Y42.529 E0.06768
G1 X18.348 Y40.628 E0.06767
G1 X19.463 Y38.781 E0.06765
G1 X20.658 Y37.006 E0.06709
G1 X21.961 Y35.261 E0.06829
G1 X23.343 Y33.591 E0.06795
G1 X24.737 Y32.062 E0.06488
G1 X25.186 Y31.614 E0.01990
G1 X25.602 Y31.732 F10800.000
G1 F1200.000
G1 X25.667 Y29.459 E0.07132
G1 X26.133 Y28.113 E0.04464
G1 X27.035 Y26.940 E0.04642
G1 X28.199 Y26.148 E0.04415
G1 X29.536 Y25.756 E0.04367
G1 X33.087 Y25.709 E0.11133
G1 X33.937 Y25.168 E0.03161
G1 X35.139 Y24.468 E0.04360
G1 X36.963 Y23.500 E0.06475
G1 X38.823 Y22.624 E0.06448
G1 X40.783 Y21.813 E0.06651
G1 X42.782 Y21.098 E0.06656
G1 X44.922 Y20.452 E0.07010
G1 X46.927 Y19.953 E0.06478
G1 X48.954 Y19.551 E0.06478
G1 X51.164 Y19.224 E0.07007
G1 X53.221 Y19.024 E0.06478
G1 X55.284 Y18.922 E0.06478
G1 X57.510 Y18.922 E0.06980
G1 X59.639 Y19.028 E0.06683
G1 X61.685 Y19.230 E0.06448
G1 X63.738 Y19.532 E0.06505
G1 X65.866 Y19.951 E0.06800
G1 X67.962 Y20.474 E0.06776
G1 X70.021 Y21.098 E0.06745
G1 X72.020 Y21.813 E0.06655
G1 X73.980 Y22.624 E0.06651
G1 X75.840 Y23.500 E0.06447
G1 X77.664 Y24.468 E0.06475
G1 X78.866 Y25.168 E0.04360
G1 X79.716 Y25.710 E0.03162
G1 X83.281 Y25.758 E0.11176
G1 X84.642 Y26.158 E0.04450
G1 X85.265 Y26.532 E0.02277
G1 X85.839 Y27.001 E0.02325
G1 X86.687 Y28.145 E0.04463
G1 X87.144 Y29.508 E0.04507
G1 X87.203 Y31.734 E0.06983
G1 X87.790 Y32.320 E0.02601
G1 X89.179 Y33.842 E0.06460
G1 X90.548 Y35.498 E0.06737
G1 X91.840 Y37.228 E0.06771
G1 X93.024 Y38.988 E0.06651
G1 X94.144 Y40.844 E0.06797
G1 X95.170 Y42.755 E0.06801
G1 X96.096 Y44.707 E0.06772
G1 X96.926 Y46.710 E0.06799
G1 X97.644 Y48.715 E0.06680
G1 X98.265 Y50.763 E0.06709
G1 X98.785 Y52.839 E0.06710
G1 X99.202 Y54.938 E0.06710
G1 X99.515 Y57.055 E0.06709
G1 X99.722 Y59.175 E0.06679
G1 X99.826 Y61.312 E0.06709
G1 X99.824 Y63.453 E0.06712
G1 X99.715 Y65.609 E0.06771
G1 X99.501 Y67.739 E0.06710
G1 X99.183 Y69.855 E0.06710
G1 X98.762 Y71.953 E0.06710
G1 X98.237 Y74.028 E0.06710
G1 X97.611 Y76.074 E0.06710
G1 X96.885 Y78.087 E0.06709
G1 X96.064 Y80.053 E0.06680
G1 X95.144 Y81.984 E0.06709
G1 X94.129 Y83.869 E0.06709
G1 X93.024 Y85.700 E0.06707
G1 X91.840 Y87.460 E0.06651
G1 X90.548 Y89.190 E0.06771
G1 X89.179 Y90.846 E0.06737
G1 X87.790 Y92.368 E0.06460
G1 X87.201 Y92.955 E0.02608
G1 X87.136 Y95.229 E0.07132
G1 X86.670 Y96.575 E0.04464
G1 X85.767 Y97.748 E0.04642
G1 X84.603 Y98.540 E0.04415
G1 X83.267 Y98.932 E0.04367
G1 X79.716 Y98.978 E0.11133
G1 X78.866 Y99.520 E0.03161
G1 X77.664 Y100.220 E0.04360
G1 X75.840 Y101.188 E0.06475
G1 X73.980 Y102.064 E0.06448
G1 X72.020 Y102.875 E0.06651
G1 X70.033 Y103.586 E0.06618
G1 X67.881 Y104.236 E0.07048
G1 X65.876 Y104.734 E0.06479
G1 X63.849 Y105.137 E0.06478
G1 X61.639 Y105.463 E0.07007
G1 X59.582 Y105.664 E0.06478
G1 X57.519 Y105.766 E0.06478
G1 X55.283 Y105.766 E0.07010
G1 X53.164 Y105.660 E0.06653
G1 X51.117 Y105.458 E0.06448
G1 X49.065 Y105.156 E0.06505
G1 X46.946 Y104.739 E0.06770
G1 X44.840 Y104.213 E0.06807
G1 X42.770 Y103.586 E0.06781
G1 X40.783 Y102.875 E0.06617
G1 X38.823 Y102.064 E0.06651
G1 X36.963 Y101.188 E0.06447
G1 X35.139 Y100.220 E0.06475
G1 X33.937 Y99.520 E0.04360
G1 X33.086 Y98.978 E0.03162
G1 X29.522 Y98.930 E0.11176
G1 X28.161 Y98.530 E0.04450
G1 X27.538 Y98.156 E0.02277
G1 X26.964 Y97.686 E0.02325
G1 X26.116 Y96.543 E0.04463
G1 X25.659 Y95.180 E0.04507
G1 X25.600 Y92.954 E0.06983
G1 X25.013 Y92.368 E0.02601
G1 X23.624 Y90.846 E0.06460
G1 X22.255 Y89.190 E0.06737
G1 X20.963 Y87.460 E0.06771
G1 X19.774 Y85.692 E0.06681
G1 X18.654 Y83.835 E0.06797
G1 X17.629 Y81.924 E0.06800
G1 X16.707 Y79.981 E0.06743
G1 X15.876 Y77.978 E0.06799
G1 X15.159 Y75.973 E0.06679
G1 X14.537 Y73.925 E0.06709
G1 X14.018 Y71.849 E0.06710
G1 X13.601 Y69.750 E0.06710
G1 X13.288 Y67.633 E0.06709
G1 X13.081 Y65.513 E0.06679
G1 X12.977 Y63.376 E0.06709
G1 X12.979 Y61.235 E0.06712
G1 X13.088 Y59.079 E0.06771
G1 X13.301 Y56.949 E0.06710
G1 X13.619 Y54.833 E0.06710
G1 X14.041 Y52.735 E0.06710
G1 X14.566 Y50.660 E0.06710
G1 X15.192 Y48.614 E0.06710
G1 X15.918 Y46.601 E0.06709
G1 X16.739 Y44.635 E0.06680
G1 X17.659 Y42.703 E0.06709
G1 X18.673 Y40.819 E0.06709
G1 X19.779 Y38.988 E0.06707
G1 X20.963 Y37.228 E0.06651
G1 X22.255 Y35.498 E0.06771
G1 X23.624 Y33.842 E0.06737
G1 X25.013 Y32.320 E0.06460
G1 X25.559 Y31.775 E0.02420
;WIPE_START
G1 F8640.000
G1 X25.667 Y29.459 E-0.53540
G1 X25.985 Y28.540 E-0.22460
;WIPE_END
G1 E-0.04000 F2100.000
G1 Z0.600 F10800.000
G1 X59.606 Y19.404
G1 Z0.200
G1 E0.80000 F2100.000
G1 F1200.000
G1 X61.644 Y19.605 E0.06420
G1 X63.679 Y19.904 E0.06448
G1 X65.788 Y20.320 E0.06742
G1 X67.858 Y20.837 E0.06688
G1 X69.899 Y21.455 E0.06687
G1 X71.880 Y22.163 E0.06597
G1 X73.823 Y22.967 E0.06593
G1 X75.675 Y23.839 E0.06419
G1 X77.484 Y24.799 E0.06421
G1 X78.673 Y25.492 E0.04313
G1 X79.605 Y26.086 E0.03465
G1 X83.201 Y26.127 E0.11276
G1 X84.469 Y26.494 E0.04140
G1 X85.058 Y26.848 E0.02154
G1 X85.581 Y27.278 E0.02121
G1 X86.365 Y28.343 E0.04148
G1 X86.777 Y29.598 E0.04140
G1 X86.823 Y31.643 E0.06413
G1 X87.152 Y32.216 F10800.000
G1 F1200.000
G1 X87.515 Y32.577 E0.01606
G1 X88.897 Y34.093 E0.06431
G1 X90.254 Y35.734 E0.06679
G1 X91.535 Y37.450 E0.06712
G1 X92.709 Y39.195 E0.06593
G1 X93.814 Y41.027 E0.06709
G1 X94.831 Y42.921 E0.06742
G1 X95.749 Y44.855 E0.06713
G1 X96.573 Y46.841 E0.06740
G1 X97.285 Y48.829 E0.06621
G1 X97.901 Y50.859 E0.06651
G1 X98.416 Y52.917 E0.06651
G1 X98.829 Y54.998 E0.06651
G1 X99.140 Y57.096 E0.06651
G1 X99.346 Y59.198 E0.06621
M73 Q0 S111
G1 X99.448 Y61.316 E0.06651
G1 X99.447 Y63.438 E0.06653
G1 X99.339 Y65.576 E0.06712
G1 X99.128 Y67.687 E0.06652
G1 X98.813 Y69.785 E0.06651
G1 X98.395 Y71.865 E0.06651
G1 X97.875 Y73.922 E0.06651
G1 X97.254 Y75.950 E0.06651
G1 X96.535 Y77.946 E0.06651
G1 X95.722 Y79.895 E0.06622
G1 X94.810 Y81.810 E0.06651
G1 X93.804 Y83.678 E0.06651
G1 X92.709 Y85.493 E0.06649
G1 X91.535 Y87.238 E0.06593
G1 X90.254 Y88.954 E0.06712
G1 X88.897 Y90.595 E0.06679
G1 X87.515 Y92.111 E0.06431
G1 X87.152 Y92.472 E0.01607
G1 X86.821 Y93.048 F10800.000
G1 F1200.000
G1 X86.770 Y95.136 E0.06548
G1 X86.351 Y96.372 E0.04091
G1 X85.528 Y97.456 E0.04266
G1 X84.468 Y98.187 E0.04037
G1 X83.186 Y98.562 E0.04189
G1 X79.604 Y98.603 E0.11229
G1 X78.673 Y99.196 E0.03464
G1 X77.484 Y99.889 E0.04313
G1 X75.675 Y100.849 E0.06421
G1 X73.823 Y101.721 E0.06419
G1 X71.880 Y102.525 E0.06594
G1 X69.910 Y103.229 E0.06560
G1 X67.785 Y103.871 E0.06959
G1 X65.789 Y104.367 E0.06450
G1 X63.780 Y104.766 E0.06421
G1 X61.597 Y105.089 E0.06919
G1 X59.559 Y105.287 E0.06421
G1 X57.505 Y105.389 E0.06449
G1 X55.297 Y105.389 E0.06922
G1 X53.196 Y105.284 E0.06595
G1 X51.159 Y105.083 E0.06419
G1 X49.124 Y104.784 E0.06448
G1 X47.024 Y104.370 E0.06712
G1 X44.945 Y103.851 E0.06719
G1 X42.893 Y103.229 E0.06723
G1 X40.923 Y102.525 E0.06559
G1 X38.980 Y101.721 E0.06593
G1 X37.128 Y100.849 E0.06419
G1 X35.319 Y99.889 E0.06421
G1 X34.130 Y99.196 E0.04313
G1 X33.198 Y98.602 E0.03465
G1 X29.602 Y98.561 E0.11276
G1 X28.333 Y98.194 E0.04140
G1 X27.745 Y97.840 E0.02154
G1 X27.222 Y97.410 E0.02121
G1 X26.438 Y96.345 E0.04148
G1 X26.026 Y95.090 E0.04140
G1 X25.980 Y93.045 E0.06413
G1 X25.651 Y92.472 F10800.000
G1 F1200.000
G1 X25.288 Y92.111 E0.01606
G1 X23.906 Y90.595 E0.06431
G1 X22.548 Y88.954 E0.06679
G1 X21.268 Y87.238 E0.06712
G1 X20.089 Y85.485 E0.06623
G1 X18.984 Y83.653 E0.06709
G1 X17.967 Y81.758 E0.06742
G1 X17.054 Y79.832 E0.06684
G1 X16.230 Y77.847 E0.06740
G1 X15.518 Y75.859 E0.06621
G1 X14.902 Y73.829 E0.06651
G1 X14.387 Y71.771 E0.06651
G1 X13.973 Y69.690 E0.06651
G1 X13.663 Y67.592 E0.06651
G1 X13.457 Y65.490 E0.06621
G1 X13.354 Y63.372 E0.06651
G1 X13.356 Y61.250 E0.06653
G1 X13.464 Y59.112 E0.06712
G1 X13.675 Y57.001 E0.06652
G1 X13.990 Y54.903 E0.06651
G1 X14.408 Y52.823 E0.06651
G1 X14.928 Y50.766 E0.06651
G1 X15.548 Y48.738 E0.06651
G1 X16.268 Y46.742 E0.06651
G1 X17.081 Y44.793 E0.06622
G1 X17.993 Y42.878 E0.06651
G1 X18.999 Y41.010 E0.06651
G1 X20.094 Y39.195 E0.06649
G1 X21.268 Y37.450 E0.06593
G1 X22.548 Y35.734 E0.06712
G1 X23.906 Y34.093 E0.06679
G1 X25.288 Y32.577 E0.06431
G1 X25.651 Y32.215 E0.01607
G1 X25.982 Y31.640 F10800.000
G1 F1200.000
G1 X26.033 Y29.552 E0.06548
G1 X26.452 Y28.316 E0.04091
