; generated by PrusaSlicer 2.3.3+win64 on 2021-11-30 at 01:21:27 UTC

; 

; external perimeters extrusion width = 0.45mm
; perimeters extrusion width = 0.45mm
; infill extrusion width = 0.45mm
; solid infill extrusion width = 0.45mm
; top infill extrusion width = 0.40mm
; first layer extrusion width = 0.42mm

M73 P0 R99
M73 Q0 S99
M201 X1000 Y1000 Z200 E5000 ; sets maximum accelerations, mm/sec^2
M203 X200 Y200 Z12 E120 ; sets maximum feedrates, mm/sec
M204 P1250 R1250 T1250 ; sets acceleration (P, T) and retract acceleration (R), mm/sec^2
M205 X8.00 Y8.00 Z0.40 E4.50 ; sets the jerk limits, mm/sec
M205 S0 T0 ; sets the minimum extruding and travel feed rate, mm/sec
M107
;TYPE:Custom
M862.3 P "MK3" ; printer model check
M862.1 P0.4 ; nozzle diameter check
M115 U3.10.0 ; tell printer latest fw version
G90 ; use absolute coordinates
M83 ; extruder relative mode
M104 S215 ; set extruder temp
M140 S60 ; set bed temp
M190 S60 ; wait for bed temp
M109 S215 ; wait for extruder temp
G28 W ; home all without mesh bed level
G80 ; mesh bed leveling
G1 Y-3.0 F1000.0 ; go outside print area
G92 E0.0
G1 X60.0 E9.0 F1000.0 ; intro line
G1 X100.0 E12.5 F1000.0 ; intro line
G92 E0.0
M221 S95

; Don't change E values below. Excessive value can damage the printer.
M907 E430 ; set extruder motor current
G21 ; set units to millimeters
G90 ; use absolute coordinates
M83 ; use relative distances for extrusion
M900 K0.05 ; Filament gcode LA 1.5
M900 K30 ; Filament gcode LA 1.0
;LAYER_CHANGE
;Z:0.2
;HEIGHT:0.2
;BEFORE_LAYER_CHANGE
G92 E0.0
;0.2


G1 E-0.80000 F2100.000
G1 Z0.400 F10800.000
;AFTER_LAYER_CHANGE
;0.2
G1 X23.767 Y22.947
G1 Z0.200
G1 E0.80000 F2100.000
M204 S1000
;TYPE:Skirt
;WIDTH:0.42
G1 F1200.000
G1 X26.345 Y20.871 E0.10378
G1 X28.905 Y19.321 E0.09384
G1 X31.783 Y18.071 E0.09840
G1 X34.974 Y17.192 E0.10375
G1 X37.944 Y16.790 E0.09399
G1 X40.934 Y16.784 E0.09375
G1 X44.355 Y17.253 E0.10826
G1 X47.244 Y18.068 E0.09411
G1 X49.988 Y19.254 E0.09375
G1 X52.827 Y20.961 E0.10387
G1 X55.384 Y23.063 E0.10378
G1 X57.420 Y25.251 E0.09372
G1 X59.151 Y27.694 E0.09387
G1 X60.692 Y30.635 E0.10411
G1 X61.738 Y33.582 E0.09804
G1 X62.355 Y36.523 E0.09423
G1 X62.591 Y39.968 E0.10826
G1 X62.380 Y42.958 E0.09399
G1 X61.777 Y45.890 E0.09387
G1 X60.681 Y49.017 E0.10387
G1 X59.239 Y51.800 E0.09828
G1 X57.517 Y54.249 E0.09387
G1 X55.263 Y56.687 E0.10411
G1 X52.831 Y58.665 E0.09828
G1 X50.276 Y60.225 E0.09387
G1 X47.245 Y61.560 E0.10387
G1 X44.053 Y62.437 E0.10378
G1 X41.087 Y62.839 E0.09384
G1 X37.953 Y62.839 E0.09828
G1 X34.664 Y62.371 E0.10414
G1 X31.784 Y61.558 E0.09384
G1 X28.909 Y60.309 E0.09828
G1 X26.086 Y58.575 E0.10387
G1 X23.764 Y56.679 E0.09399
G1 X21.717 Y54.495 E0.09387
G1 X19.798 Y51.804 E0.10363
G1 X18.290 Y48.857 E0.10378
G1 X17.295 Y46.039 E0.09372
G1 X16.679 Y43.102 E0.09411
G1 X16.444 Y39.660 E0.10815
G1 X16.655 Y36.670 E0.09399
G1 X17.258 Y33.738 E0.09387
G1 X18.354 Y30.611 E0.10387
G1 X19.796 Y27.828 E0.09828
G1 X21.517 Y25.379 E0.09387
G1 X23.726 Y22.991 E0.10199
;WIPE_START
G1 F8640.000
G1 X26.284 Y20.920 E-0.76000
;WIPE_END
G1 E-0.04000 F2100.000
G1 Z0.600 F10800.000
G1 X22.299 Y21.121
G1 Z0.200
G1 E0.80000 F2100.000
G1 F1200.000
G1 X24.872 Y19.044 E0.10367
G1 X27.672 Y17.329 E0.10295
G1 X31.170 Y15.810 E0.11960
G1 X34.359 Y14.929 E0.10372
G1 X37.610 Y14.471 E0.10295
G1 X41.425 Y14.471 E0.11960
G1 X44.676 Y14.929 E0.10295
G1 X47.864 Y15.809 E0.10369
G1 X51.271 Y17.281 E0.11637
G1 X54.318 Y19.154 E0.11214
G1 X56.894 Y21.269 E0.10451
G1 X59.174 Y23.705 E0.10463
G1 X61.322 Y26.758 E0.11704
G1 X62.833 Y29.701 E0.10370
G1 X63.942 Y32.791 E0.10295
G1 X64.718 Y36.525 E0.11958
G1 X64.932 Y39.801 E0.10294
G1 X64.718 Y43.102 E0.10373
G1 X63.942 Y46.838 E0.11962
G1 X62.832 Y49.928 E0.10295
G1 X61.322 Y52.871 E0.10372
G1 X59.122 Y55.987 E0.11959
G1 X56.873 Y58.379 E0.10294
G1 X54.316 Y60.475 E0.10368
G1 X51.221 Y62.373 E0.11383
G1 X47.863 Y63.819 E0.11465
G1 X44.676 Y64.699 E0.10366
G1 X41.425 Y65.157 E0.10295
G1 X37.616 Y65.157 E0.11942
G1 X34.515 Y64.731 E0.09816
G1 X31.578 Y63.933 E0.09543
M73 P0 R98
G1 X30.827 Y63.695 E0.02468
G1 X27.902 Y62.419 E0.10005
G1 X24.718 Y60.475 E0.11697
G1 X22.141 Y58.359 E0.10456
G1 X19.861 Y55.923 E0.10463
G1 X17.713 Y52.870 E0.11704
G1 X16.202 Y49.928 E0.10370
G1 X15.093 Y46.837 E0.10295
G1 X14.317 Y43.103 E0.11958
G1 X14.103 Y39.827 E0.10294
G1 X14.317 Y36.526 E0.10373
G1 X15.093 Y32.791 E0.11961
G1 X16.202 Y29.701 E0.10295
G1 X17.712 Y26.759 E0.10367
G1 X19.795 Y23.786 E0.11382
G1 X22.258 Y21.165 E0.11278
G1 X22.532 Y21.422 F10800.000
G1 F1200.000
G1 X25.079 Y19.359 E0.10278
G1 X27.857 Y17.658 E0.10215
G1 X31.284 Y16.169 E0.11712
G1 X34.424 Y15.301 E0.10215
G1 X37.650 Y14.847 E0.10215
G1 X41.385 Y14.847 E0.11712
G1 X44.611 Y15.301 E0.10215
G1 X47.751 Y16.169 E0.10213
G1 X51.085 Y17.610 E0.11389
G1 X54.089 Y19.454 E0.11052
G1 X56.628 Y21.536 E0.10294
G1 X58.874 Y23.933 E0.10300
G1 X60.993 Y26.942 E0.11540
G1 X62.482 Y29.840 E0.10214
G1 X63.583 Y32.906 E0.10215
G1 X64.343 Y36.563 E0.11711
G1 X64.555 Y39.813 E0.10214
G1 X64.343 Y43.065 E0.10217
G1 X63.583 Y46.723 E0.11714
G1 X62.482 Y49.789 E0.10215
G1 X60.992 Y52.686 E0.10215
G1 X58.838 Y55.738 E0.11712
G1 X56.607 Y58.112 E0.10214
G1 X54.087 Y60.175 E0.10212
G1 X51.036 Y62.044 E0.11219
G1 X47.750 Y63.459 E0.11218
G1 X44.611 Y64.327 E0.10210
G1 X41.385 Y64.782 E0.10215
G1 X37.655 Y64.782 E0.11697
G1 X34.578 Y64.359 E0.09737
G1 X31.680 Y63.570 E0.09417
G1 X30.969 Y63.346 E0.02340
G1 X28.088 Y62.090 E0.09853
G1 X24.947 Y60.175 E0.11533
G1 X22.407 Y58.092 E0.10299
G1 X20.161 Y55.695 E0.10300
G1 X18.042 Y52.686 E0.11540
G1 X16.553 Y49.789 E0.10214
G1 X15.452 Y46.722 E0.10215
G1 X14.692 Y43.066 E0.11711
G1 X14.480 Y39.815 E0.10214
G1 X14.692 Y36.564 E0.10217
G1 X15.452 Y32.906 E0.11714
G1 X16.553 Y29.840 E0.10215
G1 X18.042 Y26.943 E0.10211
G1 X20.096 Y24.014 E0.11218
G1 X22.491 Y21.466 E0.10963
G1 X22.764 Y21.723 F10800.000
G1 F1200.000
G1 X25.307 Y19.660 E0.10265
G1 X28.043 Y17.986 E0.10058
G1 X31.397 Y16.529 E0.11466
G1 X34.488 Y15.672 E0.10058
G1 X37.689 Y15.222 E0.10135
G1 X41.346 Y15.222 E0.11465
G1 X44.547 Y15.672 E0.10135
G1 X47.637 Y16.529 E0.10056
G1 X50.923 Y17.950 E0.11225
G1 X53.860 Y19.754 E0.10805
G1 X56.379 Y21.820 E0.10215
G1 X58.589 Y24.181 E0.10143
G1 X60.663 Y27.126 E0.11294
M73 Q0 S98
G1 X62.141 Y30.001 E0.10134
G1 X63.223 Y33.021 E0.10058
G1 X63.967 Y36.600 E0.11464
G1 X64.177 Y39.801 E0.10057
G1 X63.967 Y43.027 E0.10136
G1 X63.223 Y46.608 E0.11467
G1 X62.141 Y49.627 E0.10058
G1 X60.663 Y52.502 E0.10135
G1 X58.554 Y55.490 E0.11464
G1 X56.359 Y57.828 E0.10057
G1 X53.859 Y59.875 E0.10132
G1 X50.851 Y61.715 E0.11056
G1 X47.637 Y63.099 E0.10971
G1 X44.547 Y63.956 E0.10055
G1 X41.346 Y64.406 E0.10135
G1 X37.693 Y64.407 E0.11452
G1 X34.642 Y63.987 E0.09658
G1 X31.783 Y63.207 E0.09292
G1 X31.110 Y62.996 E0.02212
G1 X28.250 Y61.750 E0.09781
G1 X25.176 Y59.875 E0.11289
G1 X22.656 Y57.809 E0.10218
G1 X20.446 Y55.447 E0.10143
G1 X18.372 Y52.502 E0.11294
G1 X16.894 Y49.627 E0.10134
G1 X15.812 Y46.608 E0.10058
G1 X15.068 Y43.028 E0.11464
G1 X14.858 Y39.827 E0.10057
G1 X15.067 Y36.601 E0.10136
G1 X15.812 Y33.021 E0.11467
G1 X16.894 Y30.001 E0.10058
G1 X18.371 Y27.127 E0.10131
G1 X20.397 Y24.241 E0.11055
G1 X22.723 Y21.766 E0.10649
G1 X22.997 Y22.023 F10800.000
G1 F1200.000
G1 X25.514 Y19.976 E0.10175
G1 X28.229 Y18.315 E0.09978
G1 X31.510 Y16.889 E0.11219
G1 X34.577 Y16.039 E0.09978
G1 X37.729 Y15.597 E0.09978
G1 X41.306 Y15.597 E0.11218
G1 X44.458 Y16.039 E0.09978
G1 X47.524 Y16.889 E0.09977
G1 X50.737 Y18.279 E0.10977
G1 X53.631 Y20.054 E0.10643
G1 X56.112 Y22.086 E0.10057
G1 X58.305 Y24.429 E0.10063
G1 X60.334 Y27.311 E0.11049
G1 X61.790 Y30.140 E0.09977
G1 X62.864 Y33.135 E0.09978
G1 X63.592 Y36.638 E0.11217
G1 X63.800 Y39.813 E0.09977
G1 X63.592 Y42.989 E0.09979
G1 X62.864 Y46.493 E0.11220
G1 X61.790 Y49.489 E0.09978
G1 X60.334 Y52.318 E0.09978
G1 X58.271 Y55.241 E0.11218
G1 X56.092 Y57.561 E0.09977
G1 X53.630 Y59.575 E0.09976
G1 X50.689 Y61.374 E0.10809
G1 X47.524 Y62.739 E0.10808
G1 X44.458 Y63.589 E0.09975
G1 X41.306 Y64.031 E0.09978
G1 X37.732 Y64.031 E0.11208
G1 X34.705 Y63.615 E0.09579
G1 X31.886 Y62.844 E0.09166
G1 X31.251 Y62.646 E0.02084
G1 X28.413 Y61.409 E0.09708
G1 X25.405 Y59.575 E0.11045
G1 X22.923 Y57.542 E0.10060
G1 X20.730 Y55.199 E0.10063
G1 X18.701 Y52.318 E0.11049
G1 X17.245 Y49.488 E0.09977
G1 X16.171 Y46.493 E0.09978
G1 X15.443 Y42.990 E0.11217
G1 X15.235 Y39.815 E0.09977
G1 X15.443 Y36.639 E0.09979
G1 X16.171 Y33.135 E0.11220
G1 X17.245 Y30.140 E0.09978
G1 X18.701 Y27.311 E0.09975
G1 X20.681 Y24.490 E0.10808
G1 X22.956 Y22.067 E0.10419
G1 X23.229 Y22.324 F10800.000
G1 F1200.000
G1 X25.722 Y20.291 E0.10085
G1 X28.414 Y18.643 E0.09897
G1 X31.624 Y17.249 E0.10972
G1 X34.666 Y16.406 E0.09898
G1 X37.768 Y15.972 E0.09820
G1 X41.267 Y15.972 E0.10972
G1 X44.369 Y16.406 E0.09820
G1 X47.411 Y17.249 E0.09897
G1 X50.552 Y18.607 E0.10730
G1 X53.402 Y20.353 E0.10480
G1 X55.863 Y22.370 E0.09978
G1 X58.021 Y24.677 E0.09904
G1 X60.005 Y27.495 E0.10804
G1 X61.449 Y30.301 E0.09897
G1 X62.505 Y33.250 E0.09820
G1 X63.217 Y36.676 E0.10972
G1 X63.423 Y39.801 E0.09819
G1 X63.217 Y42.951 E0.09899
G1 X62.505 Y46.378 E0.10973
G1 X61.439 Y49.350 E0.09898
G1 X60.005 Y52.134 E0.09820
G1 X57.987 Y54.992 E0.10971
G1 X55.826 Y57.293 E0.09897
G1 X53.401 Y59.275 E0.09819
G1 X50.527 Y61.034 E0.10564
G1 X47.410 Y62.379 E0.10645
G1 X44.369 Y63.222 E0.09895
G1 X41.267 Y63.656 E0.09820
G1 X37.770 Y63.656 E0.10964
G1 X34.769 Y63.244 E0.09500
G1 X31.988 Y62.481 E0.09040
G1 X31.392 Y62.296 E0.01958
G1 X28.575 Y61.069 E0.09634
G1 X25.634 Y59.275 E0.10801
G1 X23.171 Y57.258 E0.09980
G1 X21.014 Y54.951 E0.09904
G1 X19.030 Y52.133 E0.10805
G1 X17.596 Y49.349 E0.09820
G1 X16.530 Y46.378 E0.09897
G1 X15.818 Y42.952 E0.10971
G1 X15.612 Y39.827 E0.09819
G1 X15.818 Y36.677 E0.09899
G1 X16.530 Y33.250 E0.10973
G1 X17.596 Y30.279 E0.09897
G1 X19.030 Y27.495 E0.09818
G1 X20.965 Y24.738 E0.10563
G1 X23.188 Y22.368 E0.10189
G1 X23.462 Y22.625 F10800.000
G1 F1200.000
G1 X23.535 Y22.546 E0.00336
G1 X25.949 Y20.592 E0.09739
G1 X28.600 Y18.972 E0.09739
G1 X31.737 Y17.609 E0.10726
G1 X34.730 Y16.778 E0.09740
G1 X37.807 Y16.348 E0.09740
G1 X41.228 Y16.348 E0.10727
G1 X44.304 Y16.778 E0.09740
G1 X47.297 Y17.609 E0.09739
G1 X50.390 Y18.948 E0.10566
G1 X53.173 Y20.653 E0.10235
G1 X55.597 Y22.637 E0.09819
G1 X57.736 Y24.925 E0.09824
G1 X59.676 Y27.679 E0.10560
G1 X61.098 Y30.440 E0.09739
G1 X62.145 Y33.365 E0.09740
G1 X62.841 Y36.714 E0.10726
G1 X63.046 Y39.813 E0.09739
G1 X62.841 Y42.913 E0.09741
G1 X62.145 Y46.263 E0.10728
G1 X61.098 Y49.188 E0.09740
G1 X59.675 Y51.949 E0.09740
G1 X57.703 Y54.744 E0.10726
G1 X55.578 Y57.009 E0.09739
G1 X53.173 Y58.975 E0.09739
G1 X50.342 Y60.705 E0.10401
G1 X47.297 Y62.020 E0.10399
G1 X44.304 Y62.851 E0.09738
G1 X41.228 Y63.281 E0.09740
G1 X37.809 Y63.281 E0.10720
G1 X34.833 Y62.872 E0.09420
G1 X32.091 Y62.118 E0.08915
G1 X31.533 Y61.946 E0.01831
G1 X28.737 Y60.728 E0.09561
G1 X25.862 Y58.975 E0.10558
G1 X23.438 Y56.991 E0.09821
G1 X21.299 Y54.703 E0.09824
G1 X19.359 Y51.949 E0.10560
M73 P1 R98
M73 Q1 S98
G1 X17.937 Y49.188 E0.09740
G1 X16.890 Y46.263 E0.09739
G1 X16.194 Y42.914 E0.10725
G1 X15.989 Y39.815 E0.09739
G1 X16.194 Y36.715 E0.09741
G1 X16.890 Y33.365 E0.10727
G1 X17.937 Y30.441 E0.09739
G1 X19.359 Y27.680 E0.09738
G1 X21.266 Y24.966 E0.10400
G1 X23.421 Y22.668 E0.09876
G1 X23.969 Y23.182 F10800.000
G1 F1200.000
G1 X26.384 Y21.208 E0.09780
G1 X28.970 Y19.629 E0.09501
G1 X31.965 Y18.328 E0.10237
G1 X34.884 Y17.516 E0.09501
G1 X37.885 Y17.098 E0.09501
G1 X41.150 Y17.098 E0.10236
G1 X44.151 Y17.516 E0.09501
G1 X47.070 Y18.328 E0.09501
G1 X50.019 Y19.605 E0.10075
G1 X52.716 Y21.254 E0.09910
G1 X55.082 Y23.188 E0.09581
G1 X57.151 Y25.401 E0.09503
G1 X59.017 Y28.048 E0.10153
G1 X60.407 Y30.741 E0.09501
G1 X61.426 Y33.594 E0.09501
G1 X62.090 Y36.790 E0.10235
G1 X62.292 Y39.814 E0.09500
G1 X62.091 Y42.837 E0.09502
G1 X61.426 Y46.034 E0.10237
G1 X60.407 Y48.887 E0.09501
G1 X59.017 Y51.580 E0.09501
G1 X57.135 Y54.247 E0.10236
G1 X55.063 Y56.458 E0.09500
G1 X52.715 Y58.375 E0.09501
G1 X49.995 Y60.035 E0.09993
G1 X47.070 Y61.300 E0.09992
G1 X44.151 Y62.112 E0.09500
G1 X41.150 Y62.530 E0.09501
G1 X37.886 Y62.530 E0.10233
G1 X34.960 Y62.128 E0.09261
G1 X32.296 Y61.393 E0.08665
G1 X31.814 Y61.246 E0.01581
G1 X29.085 Y60.059 E0.09331
G1 X26.319 Y58.375 E0.10152
G1 X23.953 Y56.441 E0.09582
G1 X21.884 Y54.227 E0.09503
G1 X20.018 Y51.580 E0.10153
G1 X18.628 Y48.887 E0.09501
G1 X17.609 Y46.034 E0.09501
G1 X16.945 Y42.838 E0.10235
G1 X16.743 Y39.815 E0.09500
G1 X16.944 Y36.791 E0.09502
G1 X17.609 Y33.594 E0.10237
G1 X18.628 Y30.741 E0.09501
G1 X20.018 Y28.048 E0.09500
G1 X21.851 Y25.441 E0.09992
G1 X23.928 Y23.225 E0.09522
G1 X24.202 Y23.482 F10800.000
G1 F1200.000
G1 X24.278 Y23.401 E0.00349
G1 X26.612 Y21.509 E0.09420
G1 X29.155 Y19.958 E0.09342
G1 X32.079 Y18.688 E0.09993
G1 X34.949 Y17.888 E0.09342
G1 X37.924 Y17.473 E0.09420
G1 X41.111 Y17.473 E0.09991
G1 X44.086 Y17.888 E0.09420
G1 X46.956 Y18.688 E0.09342
G1 X49.834 Y19.934 E0.09831
G1 X52.487 Y21.554 E0.09748
G1 X54.815 Y23.454 E0.09421
G1 X56.867 Y25.650 E0.09422
G1 X58.688 Y28.232 E0.09909
G1 X60.066 Y30.902 E0.09420
G1 X61.067 Y33.709 E0.09342
G1 X61.715 Y36.829 E0.09992
G1 X61.915 Y39.801 E0.09341
G1 X61.715 Y42.799 E0.09421
G1 X61.067 Y45.920 E0.09993
G1 X60.066 Y48.726 E0.09342
G1 X58.688 Y51.396 E0.09421
G1 X56.850 Y53.999 E0.09992
G1 X54.814 Y56.174 E0.09341
G1 X52.487 Y58.074 E0.09421
G1 X49.810 Y59.706 E0.09830
G1 X46.956 Y60.940 E0.09748
G1 X44.086 Y61.741 E0.09342
G1 X41.111 Y62.155 E0.09420
G1 X37.925 Y62.155 E0.09989
G1 X35.024 Y61.756 E0.09181
G1 X32.399 Y61.030 E0.08541
G1 X31.954 Y60.896 E0.01457
G1 X29.247 Y59.718 E0.09255
G1 X26.548 Y58.074 E0.09909
G1 X24.220 Y56.174 E0.09422
G1 X22.168 Y53.979 E0.09422
G1 X20.347 Y51.396 E0.09909
G1 X18.969 Y48.726 E0.09420
G1 X17.968 Y45.920 E0.09342
G1 X17.320 Y42.800 E0.09992
G1 X17.120 Y39.827 E0.09341
G1 X17.320 Y36.829 E0.09421
G1 X17.968 Y33.709 E0.09993
G1 X18.969 Y30.902 E0.09342
G1 X20.347 Y28.233 E0.09420
G1 X22.152 Y25.669 E0.09829
G1 X24.161 Y23.526 E0.09211
G1 X24.435 Y23.782 F10800.000
G1 F1200.000
G1 X24.525 Y23.685 E0.00416
G1 X26.819 Y21.824 E0.09261
G1 X29.341 Y20.286 E0.09261
G1 X32.192 Y19.048 E0.09749
G1 X35.038 Y18.254 E0.09261
G1 X37.963 Y17.849 E0.09260
G1 X41.072 Y17.849 E0.09747
G1 X43.997 Y18.254 E0.09260
G1 X46.843 Y19.048 E0.09261
G1 X49.672 Y20.275 E0.09668
G1 X52.259 Y21.854 E0.09505
G1 X54.548 Y23.721 E0.09262
G1 X56.583 Y25.898 E0.09341
G1 X58.359 Y28.417 E0.09666
G1 X59.715 Y31.041 E0.09261
G1 X60.707 Y33.823 E0.09261
G1 X61.340 Y36.867 E0.09748
G1 X61.538 Y39.814 E0.09260
G1 X61.340 Y42.761 E0.09261
G1 X60.707 Y45.805 E0.09749
G1 X59.715 Y48.587 E0.09261
G1 X58.359 Y51.211 E0.09261
G1 X56.566 Y53.751 E0.09748
G1 X54.548 Y55.907 E0.09260
G1 X52.259 Y57.774 E0.09261
G1 X49.648 Y59.366 E0.09587
G1 X46.842 Y60.580 E0.09586
G1 X43.997 Y61.374 E0.09261
G1 X41.072 Y61.780 E0.09260
G1 X37.963 Y61.780 E0.09746
G1 X35.088 Y61.384 E0.09101
G1 X32.501 Y60.667 E0.08418
G1 X32.093 Y60.545 E0.01333
G1 X29.409 Y59.377 E0.09178
M73 P1 R97
G1 X26.776 Y57.774 E0.09667
G1 X24.487 Y55.907 E0.09262
G1 X22.452 Y53.731 E0.09341
G1 X20.676 Y51.211 E0.09666
G1 X19.320 Y48.587 E0.09261
G1 X18.328 Y45.805 E0.09261
G1 X17.695 Y42.761 E0.09748
G1 X17.497 Y39.814 E0.09260
G1 X17.695 Y36.867 E0.09261
G1 X18.328 Y33.823 E0.09749
G1 X19.320 Y31.041 E0.09261
G1 X20.676 Y28.417 E0.09261
G1 X22.436 Y25.917 E0.09586
G1 X24.394 Y23.826 E0.08982
G1 X24.668 Y24.083 F10800.000
G1 F1200.000
G1 X24.773 Y23.970 E0.00483
G1 X27.046 Y22.125 E0.09180
G1 X29.526 Y20.615 E0.09101
G1 X32.306 Y19.407 E0.09505
G1 X35.127 Y18.621 E0.09181
G1 X38.002 Y18.224 E0.09100
G1 X41.033 Y18.224 E0.09504
G1 X43.908 Y18.621 E0.09100
G1 X46.729 Y19.408 E0.09181
G1 X49.486 Y20.603 E0.09424
G1 X52.031 Y22.155 E0.09343
G1 X54.300 Y24.005 E0.09181
G1 X56.298 Y26.145 E0.09181
G1 X58.030 Y28.602 E0.09424
G1 X59.364 Y31.180 E0.09101
G1 X60.348 Y33.938 E0.09180
