; generated by PrusaSlicer 2.3.3+win64 on 2021-11-30 at 01:23:27 UTC

; 

; external perimeters extrusion width = 0.45mm
; perimeters extrusion width = 0.45mm
; infill extrusion width = 0.45mm
; solid infill extrusion width = 0.45mm
; top infill extrusion width = 0.40mm
; first layer extrusion width = 0.42mm

M73 P0 R65
M73 Q0 S65
M201 X1000 Y1000 Z200 E5000 ; sets maximum accelerations, mm/sec^2
M203 X200 Y200 Z12 E120 ; sets maximum feedrates, mm/sec
M204 P1250 R1250 T1250 ; sets acceleration (P, T) and retract acceleration (R), mm/sec^2
M205 X8.00 Y8.00 Z0.40 E4.50 ; sets the jerk limits, mm/sec
M205 S0 T0 ; sets the minimum extruding and travel feed rate, mm/sec
M107
;TYPE:Custom
M862.3 P "MK3" ; printer model check
M862.1 P0.4 ; nozzle diameter check
M115 U3.10.0 ; tell printer latest fw version
G90 ; use absolute coordinates
M83 ; extruder relative mode
M104 S215 ; set extruder temp
M140 S60 ; set bed temp
M190 S60 ; wait for bed temp
M109 S215 ; wait for extruder temp
G28 W ; home all without mesh bed level
G80 ; mesh bed leveling
G1 Y-3.0 F1000.0 ; go outside print area
G92 E0.0
G1 X60.0 E9.0 F1000.0 ; intro line
G1 X100.0 E12.5 F1000.0 ; intro line
G92 E0.0
M221 S95

; Don't change E values below. Excessive value can damage the printer.
M907 E430 ; set extruder motor current
G21 ; set units to millimeters
G90 ; use absolute coordinates
M83 ; use relative distances for extrusion
M900 K0.05 ; Filament gcode LA 1.5
M900 K30 ; Filament gcode LA 1.0
;LAYER_CHANGE
;Z:0.2
;HEIGHT:0.2
;BEFORE_LAYER_CHANGE
G92 E0.0
;0.2


G1 E-0.80000 F2100.000
G1 Z0.400 F10800.000
;AFTER_LAYER_CHANGE
;0.2
G1 X15.362 Y17.282
G1 Z0.200
G1 E0.80000 F2100.000
M204 S1000
;TYPE:Skirt
;WIDTH:0.42
G1 F1200.000
G1 X17.762 Y15.198 E0.09967
G1 X20.152 Y13.608 E0.08999
G1 X22.852 Y12.277 E0.09440
G1 X25.703 Y11.308 E0.09440
G1 X28.460 Y10.754 E0.08816
G1 X31.687 Y10.520 E0.10145
G1 X34.689 Y10.716 E0.09433
G1 X37.504 Y11.270 E0.08997
G1 X40.514 Y12.276 E0.09950
G1 X43.402 Y13.724 E0.10129
G1 X45.737 Y15.291 E0.08817
G1 X48.000 Y17.276 E0.09437
G1 X50.084 Y19.676 E0.09967
G1 X51.674 Y22.065 E0.08999
G1 X53.005 Y24.766 E0.09440
G1 X54.011 Y27.777 E0.09953
G1 X54.566 Y30.592 E0.08997
G1 X54.762 Y33.597 E0.09441
G1 X54.528 Y36.822 E0.10141
G1 X53.974 Y39.577 E0.08810
G1 X53.006 Y42.428 E0.09439
G1 X51.558 Y45.315 E0.10129
G1 X49.991 Y47.650 E0.08817
G1 X48.006 Y49.913 E0.09437
G1 X45.606 Y51.998 E0.09967
G1 X43.217 Y53.588 E0.08999
G1 X40.516 Y54.919 E0.09440
G1 X37.506 Y55.925 E0.09953
G1 X34.690 Y56.479 E0.08997
G1 X31.685 Y56.676 E0.09441
G1 X28.460 Y56.442 E0.10141
G1 X25.705 Y55.888 E0.08810
G1 X22.854 Y54.920 E0.09439
G1 X19.967 Y53.471 E0.10129
G1 X17.632 Y51.904 E0.08817
G1 X15.369 Y49.920 E0.09437
G1 X13.284 Y47.520 E0.09967
G1 X11.694 Y45.130 E0.08999
G1 X10.363 Y42.430 E0.09440
G1 X9.357 Y39.419 E0.09953
G1 X8.803 Y36.604 E0.08997
G1 X8.606 Y33.599 E0.09441
G1 X8.841 Y30.373 E0.10141
G1 X9.394 Y27.618 E0.08810
G1 X10.362 Y24.768 E0.09439
G1 X11.811 Y21.880 E0.10129
G1 X13.378 Y19.545 E0.08817
G1 X15.323 Y17.327 E0.09249
;WIPE_START
G1 F8640.000
G1 X17.762 Y15.198 E-0.74770
G1 X17.806 Y15.168 E-0.01230
;WIPE_END
G1 E-0.04000 F2100.000
G1 Z0.600 F10800.000
G1 X13.827 Y15.514
G1 Z0.200
G1 E0.80000 F2100.000
G1 F1200.000
G1 X16.205 Y13.442 E0.09888
G1 X18.835 Y11.671 E0.09944
G1 X22.088 Y10.065 E0.11374
G1 X25.093 Y9.053 E0.09941
G1 X28.177 Y8.428 E0.09868
G1 X31.875 Y8.186 E0.11621
G1 X35.014 Y8.403 E0.09864
G1 X38.101 Y9.007 E0.09864
G1 X41.561 Y10.181 E0.11457
G1 X44.379 Y11.582 E0.09866
G1 X47.022 Y13.334 E0.09942
G1 X49.768 Y15.741 E0.11449
G1 X51.840 Y18.118 E0.09888
G1 X53.611 Y20.749 E0.09944
G1 X55.217 Y24.002 E0.11374
G1 X56.223 Y26.984 E0.09867
G1 X56.854 Y30.090 E0.09938
G1 X57.098 Y33.763 E0.11542
G1 X56.883 Y36.903 E0.09868
G1 X56.275 Y40.014 E0.09940
G1 X55.101 Y43.475 E0.11458
G1 X53.689 Y46.313 E0.09939
G1 X51.949 Y48.936 E0.09869
G1 X49.541 Y51.682 E0.11450
G1 X47.164 Y53.754 E0.09888
G1 X44.533 Y55.525 E0.09944
G1 X41.281 Y57.131 E0.11374
G1 X38.298 Y58.136 E0.09867
G1 X35.192 Y58.768 E0.09938
G1 X31.520 Y59.012 E0.11541
G1 X28.357 Y58.793 E0.09941
G1 X25.268 Y58.189 E0.09867
G1 X21.807 Y57.014 E0.11460
G1 X18.989 Y55.614 E0.09866
G1 X16.346 Y53.862 E0.09942
G1 X13.600 Y51.455 E0.11449
G1 X11.528 Y49.077 E0.09888
G1 X9.757 Y46.447 E0.09944
G1 X8.151 Y43.194 E0.11373
G1 X7.146 Y40.212 E0.09866
G1 X6.515 Y37.106 E0.09939
G1 X6.270 Y33.433 E0.11542
G1 X6.489 Y30.270 E0.09941
G1 X7.093 Y27.182 E0.09867
G1 X8.268 Y23.721 E0.11460
G1 X9.668 Y20.903 E0.09866
G1 X11.420 Y18.260 E0.09942
G1 X13.788 Y15.559 E0.11261
G1 X14.070 Y15.807 F10800.000
G1 F1200.000
G1 X16.443 Y13.734 E0.09880
G1 X19.035 Y11.991 E0.09794
G1 X22.220 Y10.418 E0.11138
G1 X25.179 Y9.421 E0.09790
G1 X28.240 Y8.800 E0.09791
G1 X31.862 Y8.563 E0.11383
G1 X34.953 Y8.775 E0.09714
G1 X38.017 Y9.375 E0.09788
G1 X41.405 Y10.525 E0.11219
G1 X44.201 Y11.914 E0.09790
G1 X46.803 Y13.641 E0.09792
G1 X49.492 Y15.998 E0.11212
G1 X51.548 Y18.357 E0.09811
G1 X53.291 Y20.949 E0.09794
G1 X54.864 Y24.134 E0.11138
G1 X55.861 Y27.093 E0.09790
G1 X56.482 Y30.152 E0.09788
G1 X56.721 Y33.750 E0.11304
G1 X56.507 Y36.865 E0.09791
G1 X55.908 Y39.929 E0.09790
G1 X54.758 Y43.318 E0.11221
G1 X53.368 Y46.114 E0.09789
G1 X51.641 Y48.717 E0.09793
G1 X49.284 Y51.406 E0.11212
G1 X46.925 Y53.462 E0.09811
G1 X44.333 Y55.205 E0.09794
G1 X41.148 Y56.778 E0.11138
G1 X38.189 Y57.775 E0.09790
G1 X35.130 Y58.395 E0.09788
G1 X31.533 Y58.635 E0.11304
G1 X28.417 Y58.421 E0.09791
G1 X25.353 Y57.821 E0.09791
G1 X21.964 Y56.671 E0.11222
G1 X19.168 Y55.282 E0.09790
G1 X16.565 Y53.555 E0.09792
G1 X13.876 Y51.198 E0.11212
G1 X11.820 Y48.839 E0.09811
G1 X10.077 Y46.247 E0.09794
G1 X8.504 Y43.062 E0.11137
G1 X7.507 Y40.103 E0.09790
G1 X6.887 Y37.044 E0.09788
G1 X6.647 Y33.446 E0.11304
G1 X6.861 Y30.331 E0.09791
G1 X7.461 Y27.266 E0.09791
G1 X8.611 Y23.877 E0.11222
G1 X10.000 Y21.081 E0.09790
G1 X11.727 Y18.479 E0.09792
G1 X14.030 Y15.852 E0.10954
G1 X14.313 Y16.099 F10800.000
G1 F1200.000
G1 X16.664 Y14.040 E0.09799
G1 X19.235 Y12.311 E0.09717
G1 X22.353 Y10.771 E0.10902
G1 X25.266 Y9.788 E0.09640
G1 X28.302 Y9.172 E0.09714
G1 X31.849 Y8.940 E0.11145
G1 X34.915 Y9.150 E0.09637
G1 X37.932 Y9.742 E0.09638
G1 X41.248 Y10.868 E0.10982
G1 X44.022 Y12.246 E0.09713
G1 X46.584 Y13.948 E0.09642
G1 X49.216 Y16.256 E0.10976
G1 X51.242 Y18.577 E0.09661
G1 X52.972 Y21.149 E0.09717
G1 X54.511 Y24.266 E0.10902
G1 X55.494 Y27.179 E0.09640
G1 X56.110 Y30.215 E0.09711
G1 X56.344 Y33.737 E0.11067
G1 X56.132 Y36.828 E0.09714
G1 X55.540 Y39.844 E0.09640
G1 X54.414 Y43.162 E0.10984
G1 X53.036 Y45.936 E0.09712
G1 X51.334 Y48.497 E0.09642
G1 X49.027 Y51.130 E0.10976
G1 X46.705 Y53.155 E0.09661
G1 X44.133 Y54.885 E0.09717
G1 X41.016 Y56.424 E0.10902
G1 X38.103 Y57.408 E0.09640
G1 X35.067 Y58.023 E0.09711
G1 X31.546 Y58.258 E0.11066
G1 X28.478 Y58.049 E0.09640
G1 X25.438 Y57.454 E0.09714
G1 X22.120 Y56.328 E0.10985
G1 X19.346 Y54.949 E0.09713
G1 X16.784 Y53.248 E0.09642
G1 X14.152 Y50.940 E0.10976
G1 X12.127 Y48.618 E0.09661
G1 X10.397 Y46.047 E0.09717
G1 X8.858 Y42.929 E0.10901
G1 X7.874 Y40.017 E0.09639
G1 X7.259 Y36.981 E0.09712
G1 X7.024 Y33.459 E0.11067
G1 X7.234 Y30.392 E0.09640
G1 X7.828 Y27.351 E0.09714
G1 X8.954 Y24.034 E0.10985
G1 X10.333 Y21.260 E0.09713
G1 X12.034 Y18.698 E0.09642
G1 X14.273 Y16.144 E0.10648
G1 X14.555 Y16.392 F10800.000
G1 F1200.000
G1 X16.903 Y14.332 E0.09791
G1 X19.435 Y12.631 E0.09566
G1 X22.485 Y11.125 E0.10666
G1 X25.375 Y10.149 E0.09563
M73 Q1 S65
G1 X28.364 Y9.544 E0.09563
M73 P1 R65
G1 X31.836 Y9.317 E0.10908
G1 X34.854 Y9.523 E0.09486
G1 X37.847 Y10.110 E0.09561
G1 X41.092 Y11.211 E0.10746
G1 X43.824 Y12.567 E0.09562
G1 X46.365 Y14.255 E0.09565
G1 X48.940 Y16.513 E0.10739
G1 X50.950 Y18.816 E0.09584
M73 P1 R64
G1 X52.652 Y21.349 E0.09566
G1 X54.158 Y24.399 E0.10666
G1 X55.133 Y27.289 E0.09563
G1 X55.738 Y30.277 E0.09560
G1 X55.967 Y33.724 E0.10830
G1 X55.759 Y36.767 E0.09563
G1 X55.173 Y39.760 E0.09563
G1 X54.071 Y43.006 E0.10747
G1 X52.715 Y45.737 E0.09562
G1 X51.027 Y48.278 E0.09566
G1 X48.769 Y50.854 E0.10739
G1 X46.466 Y52.863 E0.09584
G1 X43.933 Y54.565 E0.09566
G1 X40.883 Y56.071 E0.10666
G1 X37.993 Y57.047 E0.09563
G1 X35.005 Y57.651 E0.09560
G1 X31.559 Y57.881 E0.10829
G1 X28.516 Y57.673 E0.09563
G1 X25.523 Y57.086 E0.09563
G1 X22.276 Y55.984 E0.10748
G1 X19.545 Y54.629 E0.09562
G1 X17.004 Y52.941 E0.09565
G1 X14.428 Y50.683 E0.10739
G1 X12.419 Y48.379 E0.09584
G1 X10.717 Y45.847 E0.09566
G1 X9.211 Y42.797 E0.10666
G1 X8.235 Y39.907 E0.09563
G1 X7.631 Y36.919 E0.09561
G1 X7.401 Y33.472 E0.10830
G1 X7.609 Y30.429 E0.09563
G1 X8.196 Y27.436 E0.09563
G1 X9.298 Y24.190 E0.10748
G1 X10.653 Y21.458 E0.09562
G1 X12.341 Y18.917 E0.09565
G1 X14.516 Y16.437 E0.10342
G1 X14.798 Y16.684 F10800.000
G1 F1200.000
G1 X17.123 Y14.639 E0.09710
G1 X19.635 Y12.951 E0.09490
G1 X22.618 Y11.478 E0.10430
G1 X25.484 Y10.510 E0.09486
G1 X28.427 Y9.916 E0.09411
G1 X31.823 Y9.694 E0.10671
G1 X34.817 Y9.898 E0.09409
G1 X37.761 Y10.477 E0.09410
G1 X40.936 Y11.555 E0.10510
G1 X43.645 Y12.900 E0.09485
G1 X46.146 Y14.562 E0.09414
G1 X48.665 Y16.770 E0.10504
G1 X50.643 Y19.037 E0.09433
G1 X52.332 Y21.549 E0.09490
G1 X53.804 Y24.532 E0.10430
G1 X54.772 Y27.398 E0.09486
G1 X55.366 Y30.340 E0.09409
G1 X55.590 Y33.711 E0.10594
G1 X55.387 Y36.706 E0.09412
M73 Q1 S64
G1 X54.805 Y39.675 E0.09486
G1 X53.728 Y42.849 E0.10511
G1 X52.383 Y45.559 E0.09485
G1 X50.720 Y48.059 E0.09415
G1 X48.512 Y50.578 E0.10504
G1 X46.246 Y52.557 E0.09433
G1 X43.733 Y54.245 E0.09490
G1 X40.751 Y55.718 E0.10430
G1 X37.884 Y56.686 E0.09486
G1 X34.943 Y57.279 E0.09409
G1 X31.571 Y57.504 E0.10593
G1 X28.577 Y57.301 E0.09412
G1 X25.608 Y56.719 E0.09486
G1 X22.433 Y55.641 E0.10512
G1 X19.723 Y54.296 E0.09485
G1 X17.223 Y52.634 E0.09414
G1 X14.704 Y50.425 E0.10504
G1 X12.725 Y48.159 E0.09433
G1 X11.037 Y45.647 E0.09490
G1 X9.564 Y42.664 E0.10431
G1 X8.603 Y39.821 E0.09411
G1 X8.003 Y36.856 E0.09484
G1 X7.778 Y33.485 E0.10593
G1 X7.981 Y30.490 E0.09412
G1 X8.564 Y27.521 E0.09486
G1 X9.641 Y24.346 E0.10512
G1 X10.986 Y21.637 E0.09485
G1 X12.648 Y19.136 E0.09414
G1 X14.759 Y16.730 E0.10036
G1 X15.041 Y16.977 F10800.000
G1 F1200.000
G1 X15.114 Y16.893 E0.00349
G1 X17.362 Y14.931 E0.09356
G1 X19.835 Y13.271 E0.09338
G1 X22.751 Y11.831 E0.10196
G1 X25.571 Y10.877 E0.09334
G1 X28.489 Y10.288 E0.09334
G1 X31.810 Y10.071 E0.10435
G1 X34.756 Y10.270 E0.09258
G1 X37.676 Y10.845 E0.09333
G1 X40.779 Y11.898 E0.10275
G1 X43.447 Y13.220 E0.09334
G1 X45.926 Y14.869 E0.09337
G1 X48.389 Y17.028 E0.10268
G1 X50.352 Y19.276 E0.09356
G1 X52.011 Y21.748 E0.09338
G1 X53.451 Y24.664 E0.10196
G1 X54.405 Y27.484 E0.09334
G1 X54.993 Y30.402 E0.09332
G1 X55.213 Y33.698 E0.10358
G1 X55.012 Y36.668 E0.09335
G1 X54.437 Y39.590 E0.09335
G1 X53.384 Y42.693 E0.10276
G1 X52.062 Y45.360 E0.09333
G1 X50.413 Y47.840 E0.09338
G1 X48.254 Y50.302 E0.10268
G1 X46.007 Y52.265 E0.09356
G1 X43.534 Y53.925 E0.09338
G1 X40.618 Y55.365 E0.10196
G1 X37.798 Y56.318 E0.09334
G1 X34.880 Y56.907 E0.09332
G1 X31.584 Y57.126 E0.10357
G1 X28.614 Y56.925 E0.09334
G1 X25.693 Y56.351 E0.09335
G1 X22.589 Y55.298 E0.10277
G1 X19.922 Y53.975 E0.09334
G1 X17.442 Y52.327 E0.09337
G1 X14.980 Y50.168 E0.10268
G1 X13.017 Y47.920 E0.09356
G1 X11.357 Y45.447 E0.09338
G1 X9.917 Y42.531 E0.10196
G1 X8.964 Y39.711 E0.09334
G1 X8.375 Y36.794 E0.09332
G1 X8.156 Y33.498 E0.10357
G1 X8.357 Y30.528 E0.09334
G1 X8.931 Y27.606 E0.09335
G1 X9.984 Y24.503 E0.10277
G1 X11.307 Y21.835 E0.09334
G1 X12.956 Y19.356 E0.09337
G1 X15.001 Y17.022 E0.09730
G1 X15.566 Y17.517 F10800.000
G1 F1200.000
G1 X17.821 Y15.529 E0.09427
G1 X20.234 Y13.911 E0.09109
G1 X23.016 Y12.537 E0.09728
G1 X25.766 Y11.606 E0.09105
G1 X28.613 Y11.033 E0.09104
G1 X31.784 Y10.825 E0.09964
G1 X34.681 Y11.021 E0.09104
G1 X37.506 Y11.580 E0.09029
G1 X40.467 Y12.585 E0.09806
G1 X43.069 Y13.873 E0.09104
G1 X45.488 Y15.483 E0.09108
G1 X47.838 Y17.543 E0.09798
G1 X49.753 Y19.735 E0.09127
G1 X51.371 Y22.148 E0.09109
G1 X52.745 Y24.930 E0.09728
G1 X53.677 Y27.680 E0.09105
G1 X54.249 Y30.526 E0.09103
G1 X54.459 Y33.672 E0.09887
G1 X54.264 Y36.570 E0.09105
G1 X53.702 Y39.419 E0.09106
G1 X52.697 Y42.381 E0.09806
G1 X51.409 Y44.983 E0.09104
G1 X49.799 Y47.401 E0.09109
G1 X47.739 Y49.751 E0.09799
G1 X45.547 Y51.667 E0.09127
G1 X43.134 Y53.285 E0.09109
G1 X40.352 Y54.658 E0.09728
G1 X37.602 Y55.590 E0.09105
G1 X34.756 Y56.163 E0.09103
G1 X31.610 Y56.372 E0.09887
G1 X28.712 Y56.178 E0.09105
G1 X25.863 Y55.616 E0.09106
G1 X22.901 Y54.611 E0.09806
G1 X20.299 Y53.322 E0.09104
G1 X17.881 Y51.713 E0.09108
G1 X15.531 Y49.653 E0.09798
G1 X13.615 Y47.461 E0.09127
G1 X11.997 Y45.048 E0.09109
G1 X10.624 Y42.266 E0.09728
G1 X9.692 Y39.516 E0.09105
G1 X9.119 Y36.670 E0.09103
G1 X8.910 Y33.523 E0.09887
G1 X9.104 Y30.626 E0.09105
G1 X9.666 Y27.777 E0.09106
G1 X10.671 Y24.815 E0.09806
G1 X11.960 Y22.213 E0.09104
G1 X13.569 Y19.794 E0.09108
G1 X15.526 Y17.562 E0.09308
G1 X15.809 Y17.810 F10800.000
G1 F1200.000
G1 X15.887 Y17.720 E0.00374
G1 X18.041 Y15.835 E0.08974
G1 X20.434 Y14.231 E0.09032
G1 X23.149 Y12.890 E0.09494
G1 X25.876 Y11.967 E0.09028
G1 X28.675 Y11.405 E0.08951
G1 X31.771 Y11.202 E0.09729
G1 X34.619 Y11.394 E0.08951
G1 X37.420 Y11.947 E0.08952
G1 X40.311 Y12.928 E0.09571
G1 X42.891 Y14.206 E0.09027
G1 X45.268 Y15.790 E0.08956
G1 X47.562 Y17.801 E0.09565
G1 X49.447 Y19.955 E0.08974
G1 X51.051 Y22.347 E0.09032
G1 X52.392 Y25.062 E0.09494
G1 X53.315 Y27.789 E0.09028
G1 X53.877 Y30.588 E0.08950
G1 X54.082 Y33.660 E0.09652
G1 X53.889 Y36.532 E0.09027
G1 X53.335 Y39.334 E0.08953
G1 X52.354 Y42.225 E0.09572
G1 X51.088 Y44.784 E0.08951
G1 X49.492 Y47.182 E0.09032
G1 X47.481 Y49.476 E0.09565
G1 X45.327 Y51.361 E0.08974
G1 X42.935 Y52.965 E0.09032
G1 X40.220 Y54.305 E0.09494
G1 X37.493 Y55.229 E0.09028
G1 X34.694 Y55.791 E0.08950
G1 X31.622 Y55.995 E0.09652
G1 X28.750 Y55.802 E0.09027
G1 X25.948 Y55.248 E0.08953
G1 X23.057 Y54.267 E0.09572
G1 X20.477 Y52.990 E0.09027
G1 X18.100 Y51.406 E0.08956
G1 X15.806 Y49.395 E0.09565
G1 X13.922 Y47.241 E0.08974
G1 X12.317 Y44.848 E0.09032
G1 X10.977 Y42.133 E0.09494
G1 X10.053 Y39.406 E0.09028
G1 X9.491 Y36.608 E0.08950
G1 X9.287 Y33.536 E0.09652
G1 X9.480 Y30.663 E0.09027
G1 X10.034 Y27.862 E0.08953
G1 X11.015 Y24.971 E0.09572
G1 X12.292 Y22.391 E0.09027
G1 X13.876 Y20.014 E0.08956
G1 X15.769 Y17.855 E0.09003
G1 X16.051 Y18.102 F10800.000
G1 F1200.000
G1 X16.145 Y17.996 E0.00445
G1 X18.280 Y16.127 E0.08897
G1 X20.633 Y14.551 E0.08879
G1 X23.282 Y13.244 E0.09261
G1 X25.962 Y12.334 E0.08874
G1 X28.737 Y11.777 E0.08873
G1 X31.758 Y11.579 E0.09494
G1 X34.582 Y11.769 E0.08873
G1 X37.335 Y12.315 E0.08799
G1 X40.155 Y13.272 E0.09338
G1 X42.692 Y14.526 E0.08874
G1 X45.049 Y16.097 E0.08879
G1 X47.286 Y18.059 E0.09331
G1 X49.155 Y20.194 E0.08897
G1 X50.731 Y22.547 E0.08879
G1 X52.039 Y25.195 E0.09261
G1 X52.948 Y27.876 E0.08874
G1 X53.505 Y30.650 E0.08873
G1 X53.705 Y33.647 E0.09418
G1 X53.516 Y36.471 E0.08874
G1 X52.967 Y39.248 E0.08876
M73 Q2 S64
G1 X52.010 Y42.069 E0.09339
M73 P2 R64
G1 X50.756 Y44.606 E0.08874
G1 X49.185 Y46.962 E0.08879
G1 X47.223 Y49.200 E0.09331
G1 X45.088 Y51.069 E0.08897
G1 X42.735 Y52.645 E0.08879
G1 X40.087 Y53.952 E0.09261
G1 X37.406 Y54.862 E0.08874
G1 X34.632 Y55.419 E0.08873
G1 X31.635 Y55.618 E0.09418
G1 X28.811 Y55.430 E0.08874
G1 X26.034 Y54.881 E0.08876
G1 X23.213 Y53.924 E0.09339
G1 X20.676 Y52.669 E0.08874
G1 X18.320 Y51.099 E0.08879
G1 X16.082 Y49.137 E0.09331
G1 X14.213 Y47.002 E0.08897
G1 X12.638 Y44.649 E0.08879
G1 X11.330 Y42.000 E0.09261
G1 X10.420 Y39.320 E0.08874
G1 X9.864 Y36.546 E0.08873
G1 X9.664 Y33.548 E0.09418
G1 X9.852 Y30.724 E0.08874
G1 X10.401 Y27.947 E0.08876
G1 X11.358 Y25.127 E0.09339
G1 X12.613 Y22.590 E0.08874
G1 X14.183 Y20.233 E0.08879
G1 X16.012 Y18.147 E0.08698
G1 X16.294 Y18.395 F10800.000
G1 F1200.000
G1 X16.403 Y18.271 E0.00517
G1 X18.500 Y16.433 E0.08743
G1 X20.833 Y14.871 E0.08802
G1 X23.415 Y13.597 E0.09028
G1 X26.072 Y12.695 E0.08797
G1 X28.798 Y12.149 E0.08719
