; generated by PrusaSlicer 2.3.3+win64 on 2021-11-30 at 01:22:50 UTC

; 

; external perimeters extrusion width = 0.45mm
; perimeters extrusion width = 0.45mm
; infill extrusion width = 0.45mm
; solid infill extrusion width = 0.45mm
; top infill extrusion width = 0.40mm
; first layer extrusion width = 0.42mm

M73 P0 R38
M73 Q0 S38
M201 X1000 Y1000 Z200 E5000 ; sets maximum accelerations, mm/sec^2
M203 X200 Y200 Z12 E120 ; sets maximum feedrates, mm/sec
M204 P1250 R1250 T1250 ; sets acceleration (P, T) and retract acceleration (R), mm/sec^2
M205 X8.00 Y8.00 Z0.40 E4.50 ; sets the jerk limits, mm/sec
M205 S0 T0 ; sets the minimum extruding and travel feed rate, mm/sec
M107
;TYPE:Custom
M862.3 P "MK3" ; printer model check
M862.1 P0.4 ; nozzle diameter check
M115 U3.10.0 ; tell printer latest fw version
G90 ; use absolute coordinates
M83 ; extruder relative mode
M104 S215 ; set extruder temp
M140 S60 ; set bed temp
M190 S60 ; wait for bed temp
M109 S215 ; wait for extruder temp
G28 W ; home all without mesh bed level
G80 ; mesh bed leveling
G1 Y-3.0 F1000.0 ; go outside print area
G92 E0.0
G1 X60.0 E9.0 F1000.0 ; intro line
G1 X100.0 E12.5 F1000.0 ; intro line
G92 E0.0
M221 S95

; Don't change E values below. Excessive value can damage the printer.
M907 E430 ; set extruder motor current
G21 ; set units to millimeters
G90 ; use absolute coordinates
M83 ; use relative distances for extrusion
M900 K0.05 ; Filament gcode LA 1.5
M900 K30 ; Filament gcode LA 1.0
;LAYER_CHANGE
;Z:0.2
;HEIGHT:0.2
;BEFORE_LAYER_CHANGE
G92 E0.0
;0.2


G1 E-0.80000 F2100.000
G1 Z0.400 F10800.000
;AFTER_LAYER_CHANGE
;0.2
G1 X14.023 Y14.840
G1 Z0.200
G1 E0.80000 F2100.000
M204 S1000
;TYPE:Skirt
;WIDTH:0.42
G1 F1200.000
G1 X15.749 Y13.210 E0.07446
G1 X17.739 Y11.698 E0.07835
G1 X19.877 Y10.412 E0.07823
G1 X22.145 Y9.363 E0.07835
G1 X24.513 Y8.565 E0.07835
G1 X26.946 Y8.029 E0.07811
G1 X29.430 Y7.758 E0.07835
G1 X31.811 Y7.754 E0.07465
G1 X34.546 Y8.052 E0.08628
G1 X36.872 Y8.568 E0.07470
G1 X39.341 Y9.411 E0.08180
G1 X41.500 Y10.414 E0.07465
G1 X43.641 Y11.703 E0.07835
G1 X45.627 Y13.213 E0.07823
G1 X47.441 Y14.932 E0.07835
G1 X49.059 Y16.836 E0.07835
G1 X50.457 Y18.898 E0.07811
G1 X51.628 Y21.106 E0.07835
G1 X52.515 Y23.319 E0.07477
G1 X53.222 Y25.831 E0.08180
G1 X53.612 Y28.179 E0.07465
G1 X53.761 Y30.925 E0.08621
G1 X53.629 Y33.302 E0.07465
G1 X53.224 Y35.768 E0.07835
G1 X52.556 Y38.172 E0.07823
G1 X51.631 Y40.493 E0.07835
G1 X50.460 Y42.701 E0.07835
G1 X49.063 Y44.763 E0.07811
G1 X47.446 Y46.668 E0.07835
G1 X45.720 Y48.308 E0.07465
G1 X43.529 Y49.973 E0.08628
G1 X41.485 Y51.198 E0.07470
G1 X39.113 Y52.283 E0.08180
G1 X36.856 Y53.040 E0.07465
G1 X34.415 Y53.577 E0.07835
G1 X31.935 Y53.846 E0.07823
G1 X29.444 Y53.847 E0.07811
G1 X26.956 Y53.577 E0.07847
G1 X24.630 Y53.068 E0.07465
G1 X22.026 Y52.190 E0.08616
G1 X19.872 Y51.190 E0.07446
G1 X17.731 Y49.901 E0.07835
G1 X15.745 Y48.391 E0.07823
G1 X13.929 Y46.670 E0.07847
G1 X12.314 Y44.768 E0.07823
G1 X10.915 Y42.706 E0.07811
G1 X9.742 Y40.495 E0.07847
G1 X8.858 Y38.285 E0.07465
G1 X8.151 Y35.777 E0.08168
G1 X7.761 Y33.425 E0.07477
G1 X7.611 Y30.679 E0.08621
G1 X7.744 Y28.302 E0.07465
G1 X8.148 Y25.840 E0.07823
G1 X8.815 Y23.436 E0.07823
G1 X9.695 Y21.219 E0.07477
G1 X10.904 Y18.917 E0.08156
G1 X12.239 Y16.940 E0.07477
G1 X13.984 Y14.886 E0.08451
;WIPE_START
G1 F8640.000
G1 X15.749 Y13.210 E-0.56210
G1 X16.432 Y12.691 E-0.19790
;WIPE_END
G1 E-0.04000 F2100.000
G1 Z0.600 F10800.000
G1 X12.136 Y13.430
G1 Z0.200
G1 E0.80000 F2100.000
G1 F1200.000
G1 X14.189 Y11.470 E0.08899
G1 X16.360 Y9.810 E0.08569
G1 X18.679 Y8.403 E0.08503
G1 X21.411 Y7.141 E0.09439
G1 X23.984 Y6.287 E0.08499
G1 X26.630 Y5.714 E0.08489
G1 X29.322 Y5.424 E0.08490
G1 X32.031 Y5.423 E0.08492
G1 X34.724 Y5.711 E0.08492
G1 X37.391 Y6.288 E0.08556
G1 X39.981 Y7.148 E0.08558
G1 X42.464 Y8.281 E0.08556
G1 X44.816 Y9.679 E0.08578
G1 X45.329 Y10.047 E0.01982
G1 X47.250 Y11.527 E0.07601
G1 X49.236 Y13.429 E0.08623
G1 X50.979 Y15.502 E0.08491
G1 X52.502 Y17.765 E0.08553
G1 X53.765 Y20.161 E0.08492
G1 X54.773 Y22.697 E0.08558
G1 X55.503 Y25.325 E0.08552
G1 X55.945 Y27.998 E0.08495
G1 X56.100 Y30.702 E0.08491
G1 X55.967 Y33.407 E0.08492
G1 X55.537 Y36.124 E0.08623
G1 X54.816 Y38.779 E0.08628
G1 X53.812 Y41.341 E0.08628
G1 X52.536 Y43.782 E0.08635
G1 X50.849 Y46.273 E0.09435
G1 X49.130 Y48.286 E0.08299
G1 X47.213 Y50.109 E0.08295
G1 X45.030 Y51.781 E0.08620
G1 X42.695 Y53.201 E0.08570
G1 X39.961 Y54.464 E0.09441
G1 X37.388 Y55.317 E0.08499
G1 X34.742 Y55.891 E0.08489
G1 X32.050 Y56.180 E0.08490
G1 X29.342 Y56.181 E0.08492
G1 X26.628 Y55.890 E0.08557
G1 X23.961 Y55.310 E0.08557
G1 X21.372 Y54.448 E0.08557
G1 X18.906 Y53.321 E0.08500
G1 X16.306 Y51.757 E0.09513
G1 X14.123 Y50.078 E0.08637
G1 X12.137 Y48.175 E0.08622
G1 X10.394 Y46.103 E0.08491
G1 X8.870 Y43.839 E0.08557
G1 X7.607 Y41.443 E0.08492
G1 X6.599 Y38.908 E0.08554
G1 X5.873 Y36.298 E0.08492
G1 X5.427 Y33.606 E0.08557
G1 X5.272 Y30.902 E0.08492
G1 X5.406 Y28.197 E0.08492
G1 X5.835 Y25.481 E0.08623
G1 X6.556 Y22.825 E0.08628
G1 X7.560 Y20.263 E0.08628
G1 X8.835 Y17.824 E0.08628
G1 X10.367 Y15.538 E0.08628
G1 X12.098 Y13.476 E0.08441
M73 Q1 S38
G1 X12.387 Y13.718 F10800.000
G1 F1200.000
G1 X14.442 Y11.750 E0.08923
G1 X16.581 Y10.116 E0.08440
M73 P1 R38
G1 X18.865 Y8.731 E0.08375
G1 X21.540 Y7.495 E0.09240
G1 X24.074 Y6.654 E0.08372
G1 X26.680 Y6.087 E0.08362
G1 X29.353 Y5.800 E0.08426
G1 X32.020 Y5.800 E0.08365
G1 X34.674 Y6.084 E0.08366
G1 X37.301 Y6.654 E0.08430
G1 X39.852 Y7.503 E0.08431
G1 X42.298 Y8.620 E0.08429
G1 X44.616 Y9.998 E0.08457
G1 X45.102 Y10.348 E0.01876
G1 X46.996 Y11.806 E0.07496
G1 X48.954 Y13.680 E0.08496
G1 X50.672 Y15.721 E0.08365
G1 X52.173 Y17.950 E0.08427
G1 X53.419 Y20.310 E0.08366
G1 X54.413 Y22.808 E0.08431
G1 X55.133 Y25.397 E0.08426
G1 X55.570 Y28.030 E0.08369
G1 X55.723 Y30.694 E0.08365
G1 X55.591 Y33.378 E0.08428
G1 X55.166 Y36.054 E0.08496
G1 X54.455 Y38.670 E0.08500
G1 X53.465 Y41.194 E0.08500
G1 X52.207 Y43.598 E0.08506
G1 X50.555 Y46.037 E0.09236
G1 X48.863 Y48.020 E0.08173
G1 X46.960 Y49.829 E0.08232
G1 X44.809 Y51.476 E0.08494
G1 X42.508 Y52.873 E0.08441
G1 X39.832 Y54.109 E0.09242
G1 X37.298 Y54.950 E0.08371
G1 X34.692 Y55.517 E0.08362
G1 X32.020 Y55.804 E0.08426
G1 X29.352 Y55.804 E0.08365
G1 X26.679 Y55.516 E0.08430
G1 X24.052 Y54.944 E0.08430
G1 X21.501 Y54.093 E0.08430
G1 X19.073 Y52.983 E0.08372
G1 X16.528 Y51.452 E0.09313
G1 X14.376 Y49.798 E0.08507
G1 X12.419 Y47.925 E0.08495
G1 X10.701 Y45.884 E0.08365
G1 X9.199 Y43.654 E0.08430
G1 X7.954 Y41.294 E0.08365
G1 X6.960 Y38.797 E0.08428
G1 X6.244 Y36.227 E0.08365
G1 X5.803 Y33.574 E0.08430
G1 X5.649 Y30.911 E0.08366
G1 X5.782 Y28.226 E0.08428
G1 X6.206 Y25.550 E0.08496
G1 X6.918 Y22.934 E0.08500
G1 X7.908 Y20.410 E0.08500
G1 X9.165 Y18.008 E0.08500
G1 X10.674 Y15.756 E0.08500
G1 X12.348 Y13.764 E0.08158
G1 X12.636 Y14.007 F10800.000
G1 F1200.000
G1 X14.695 Y12.030 E0.08948
G1 X16.802 Y10.422 E0.08311
G1 X19.051 Y9.059 E0.08247
G1 X21.669 Y7.850 E0.09042
G1 X24.183 Y7.015 E0.08307
G1 X26.750 Y6.458 E0.08236
G1 X29.383 Y6.176 E0.08300
G1 X32.010 Y6.178 E0.08239
G1 X34.623 Y6.458 E0.08240
G1 X37.211 Y7.021 E0.08303
G1 X39.723 Y7.858 E0.08304
G1 X42.131 Y8.959 E0.08302
G1 X44.416 Y10.318 E0.08335
G1 X44.874 Y10.649 E0.01771
G1 X46.743 Y12.086 E0.07392
G1 X48.672 Y13.931 E0.08369
G1 X50.365 Y15.940 E0.08238
G1 X51.844 Y18.135 E0.08300
G1 X53.081 Y20.477 E0.08302
G1 X54.059 Y22.938 E0.08304
G1 X54.767 Y25.488 E0.08299
G1 X55.196 Y28.082 E0.08242
G1 X55.346 Y30.705 E0.08239
G1 X55.214 Y33.349 E0.08301
G1 X54.796 Y35.985 E0.08368
G1 X54.094 Y38.561 E0.08372
G1 X53.118 Y41.047 E0.08372
G1 X51.878 Y43.413 E0.08377
G1 X50.261 Y45.800 E0.09038
G1 X48.583 Y47.768 E0.08109
G1 X46.708 Y49.548 E0.08108
G1 X44.588 Y51.170 E0.08367
G1 X42.322 Y52.545 E0.08313
G1 X39.703 Y53.755 E0.09043
G1 X37.189 Y54.589 E0.08307
G1 X34.622 Y55.146 E0.08236
G1 X31.990 Y55.428 E0.08300
G1 X29.362 Y55.427 E0.08239
G1 X26.729 Y55.143 E0.08304
G1 X24.142 Y54.578 E0.08303
G1 X21.630 Y53.739 E0.08304
G1 X19.239 Y52.645 E0.08244
G1 X16.749 Y51.146 E0.09113
G1 X14.630 Y49.519 E0.08378
G1 X12.701 Y47.674 E0.08368
G1 X11.008 Y45.664 E0.08238
G1 X9.528 Y43.469 E0.08303
G1 X8.292 Y41.127 E0.08302
G1 X7.314 Y38.667 E0.08301
G1 X6.610 Y36.135 E0.08239
G1 X6.177 Y33.523 E0.08304
G1 X6.026 Y30.899 E0.08239
G1 X6.158 Y28.255 E0.08301
G1 X6.577 Y25.619 E0.08368
G1 X7.279 Y23.043 E0.08372
G1 X8.255 Y20.557 E0.08372
G1 X9.494 Y18.192 E0.08372
G1 X10.982 Y15.975 E0.08372
G1 X12.598 Y14.053 E0.07874
G1 X12.886 Y14.296 F10800.000
G1 F1200.000
G1 X12.982 Y14.182 E0.00466
G1 X14.947 Y12.310 E0.08509
G1 X17.022 Y10.728 E0.08182
G1 X19.238 Y9.387 E0.08119
G1 X21.798 Y8.204 E0.08844
G1 X24.273 Y7.381 E0.08179
G1 X26.801 Y6.832 E0.08109
G1 X29.393 Y6.554 E0.08173
G1 X32.000 Y6.555 E0.08175
G1 X34.573 Y6.832 E0.08113
G1 X37.121 Y7.387 E0.08176
G1 X39.594 Y8.212 E0.08177
G1 X41.965 Y9.297 E0.08175
G1 X44.216 Y10.638 E0.08213
G1 X46.490 Y12.365 E0.08955
M73 P1 R37
G1 X48.390 Y14.182 E0.08242
G1 X50.058 Y16.160 E0.08112
G1 X51.516 Y18.320 E0.08173
G1 X52.734 Y20.626 E0.08175
G1 X53.698 Y23.049 E0.08177
G1 X54.397 Y25.560 E0.08172
G1 X54.820 Y28.113 E0.08116
G1 X54.969 Y30.716 E0.08175
G1 X54.838 Y33.320 E0.08174
G1 X54.425 Y35.916 E0.08240
G1 X53.733 Y38.452 E0.08244
G1 X52.771 Y40.899 E0.08244
G1 X51.549 Y43.229 E0.08248
G1 X49.968 Y45.563 E0.08841
G1 X48.316 Y47.501 E0.07984
G1 X46.456 Y49.268 E0.08045
G1 X44.368 Y50.864 E0.08241
G1 X42.135 Y52.217 E0.08184
G1 X39.574 Y53.400 E0.08845
G1 X37.099 Y54.223 E0.08179
G1 X34.572 Y54.772 E0.08109
G1 X31.980 Y55.051 E0.08173
G1 X29.373 Y55.050 E0.08175
G1 X26.780 Y54.769 E0.08176
G1 X24.233 Y54.212 E0.08176
G1 X21.759 Y53.385 E0.08177
G1 X19.406 Y52.306 E0.08117
G1 X16.970 Y50.840 E0.08914
G1 X14.883 Y49.239 E0.08249
G1 X12.983 Y47.423 E0.08241
G1 X11.315 Y45.445 E0.08112
G1 X9.856 Y43.283 E0.08177
G1 X8.638 Y40.978 E0.08175
G1 X7.674 Y38.556 E0.08174
G1 X6.980 Y36.063 E0.08112
M73 Q1 S37
G1 X6.553 Y33.491 E0.08177
G1 X6.403 Y30.888 E0.08176
G1 X6.534 Y28.284 E0.08174
G1 X6.948 Y25.689 E0.08240
G1 X7.640 Y23.152 E0.08244
G1 X8.602 Y20.705 E0.08244
M73 Q2 S37
G1 X9.823 Y18.377 E0.08244
G1 X11.289 Y16.194 E0.08244
M73 P2 R37
G1 X12.848 Y14.342 E0.07590
G1 X13.136 Y14.585 F10800.000
G1 F1200.000
G1 X13.264 Y14.433 E0.00622
G1 X15.184 Y12.604 E0.08315
G1 X17.226 Y11.045 E0.08055
G1 X19.424 Y9.715 E0.08054
G1 X21.927 Y8.559 E0.08647
G1 X24.364 Y7.747 E0.08051
G1 X26.851 Y7.206 E0.07983
G1 X29.403 Y6.931 E0.08046
G1 X31.970 Y6.931 E0.08048
G1 X34.522 Y7.206 E0.08049
G1 X37.030 Y7.753 E0.08049
G1 X39.465 Y8.567 E0.08050
G1 X41.799 Y9.636 E0.08048
G1 X44.015 Y10.957 E0.08090
G1 X46.237 Y12.645 E0.08749
G1 X48.108 Y14.433 E0.08114
G1 X49.763 Y16.395 E0.08048
G1 X51.197 Y18.523 E0.08046
G1 X52.396 Y20.793 E0.08048
G1 X53.344 Y23.178 E0.08050
G1 X54.031 Y25.651 E0.08046
G1 X54.446 Y28.165 E0.07989
G1 X54.592 Y30.728 E0.08048
G1 X54.462 Y33.291 E0.08047
G1 X54.054 Y35.846 E0.08113
G1 X53.372 Y38.343 E0.08116
G1 X52.423 Y40.751 E0.08116
G1 X51.220 Y43.044 E0.08119
G1 X49.674 Y45.327 E0.08644
G1 X48.049 Y47.235 E0.07858
G1 X46.218 Y48.975 E0.07919
G1 X44.163 Y50.547 E0.08113
G1 X41.949 Y51.889 E0.08119
G1 X39.445 Y53.046 E0.08647
G1 X37.009 Y53.857 E0.08051
G1 X34.521 Y54.398 E0.07983
G1 X31.970 Y54.674 E0.08046
G1 X29.403 Y54.674 E0.08048
G1 X26.850 Y54.398 E0.08049
G1 X24.342 Y53.851 E0.08049
G1 X21.907 Y53.038 E0.08050
G1 X19.573 Y51.968 E0.08052
G1 X17.191 Y50.535 E0.08716
G1 X15.136 Y48.959 E0.08120
G1 X13.264 Y47.172 E0.08113
G1 X11.622 Y45.226 E0.07985
G1 X10.185 Y43.098 E0.08050
G1 X8.985 Y40.829 E0.08048
G1 X8.035 Y38.445 E0.08047
G1 X7.346 Y35.972 E0.08049
G1 X6.926 Y33.439 E0.08050
G1 X6.780 Y30.876 E0.08049
G1 X6.910 Y28.313 E0.08047
G1 X7.318 Y25.758 E0.08113
G1 X8.001 Y23.261 E0.08116
G1 X8.949 Y20.853 E0.08116
G1 X10.152 Y18.561 E0.08116
G1 X11.596 Y16.413 E0.08116
G1 X13.097 Y14.630 E0.07306
G1 X13.545 Y14.684 F10800.000
G1 F1200.000
G1 X15.421 Y12.897 E0.08122
G1 X17.447 Y11.351 E0.07990
G1 X19.610 Y10.043 E0.07926
G1 X22.056 Y8.913 E0.08450
G1 X24.454 Y8.114 E0.07924
G1 X26.902 Y7.580 E0.07856
G1 X29.413 Y7.308 E0.07919
G1 X31.939 Y7.307 E0.07921
G1 X34.452 Y7.576 E0.07923
G1 X36.920 Y8.114 E0.07922
G1 X39.336 Y8.921 E0.07986
G1 X41.632 Y9.974 E0.07920
G1 X43.814 Y11.277 E0.07968
G1 X45.984 Y12.925 E0.08544
G1 X47.827 Y14.684 E0.07987
G1 X49.456 Y16.614 E0.07921
G1 X50.869 Y18.708 E0.07919
G1 X52.049 Y20.941 E0.07921
G1 X52.983 Y23.289 E0.07923
G1 X53.660 Y25.722 E0.07919
G1 X54.073 Y28.216 E0.07926
G1 X54.215 Y30.739 E0.07921
G1 X54.086 Y33.261 E0.07920
G1 X53.683 Y35.776 E0.07985
G1 X53.011 Y38.233 E0.07988
G1 X52.076 Y40.603 E0.07988
G1 X50.891 Y42.859 E0.07990
G1 X49.380 Y45.090 E0.08448
G1 X47.768 Y46.983 E0.07794
G1 X45.966 Y48.694 E0.07793
G1 X43.943 Y50.241 E0.07986
G1 X41.763 Y51.561 E0.07990
G1 X39.316 Y52.691 E0.08450
G1 X36.919 Y53.490 E0.07924
G1 X34.471 Y54.025 E0.07856
G1 X31.959 Y54.296 E0.07919
G1 X29.433 Y54.298 E0.07921
G1 X26.921 Y54.028 E0.07923
G1 X24.452 Y53.490 E0.07922
G1 X22.036 Y52.683 E0.07986
G1 X19.740 Y51.629 E0.07923
G1 X17.412 Y50.229 E0.08518
G1 X15.389 Y48.679 E0.07991
G1 X13.546 Y46.921 E0.07986
G1 X11.917 Y44.990 E0.07921
G1 X10.503 Y42.896 E0.07923
G1 X9.323 Y40.662 E0.07921
G1 X8.389 Y38.315 E0.07920
G1 X7.712 Y35.881 E0.07922
G1 X7.300 Y33.388 E0.07923
G1 X7.158 Y30.865 E0.07922
G1 X7.286 Y28.343 E0.07920
G1 X7.689 Y25.828 E0.07985
G1 X8.362 Y23.371 E0.07988
G1 X9.296 Y21.001 E0.07988
G1 X10.481 Y18.745 E0.07988
G1 X11.903 Y16.632 E0.07988
G1 X13.507 Y14.730 E0.07799
G1 X14.083 Y15.216 F10800.000
G1 F1200.000
G1 X15.910 Y13.471 E0.07923
G1 X17.871 Y11.975 E0.07734
G1 X19.982 Y10.700 E0.07733
G1 X22.315 Y9.622 E0.08059
G1 X24.635 Y8.846 E0.07668
G1 X27.023 Y8.324 E0.07666
G1 X29.454 Y8.061 E0.07665
G1 X31.899 Y8.060 E0.07667
G1 X34.351 Y8.324 E0.07732
G1 X36.739 Y8.847 E0.07667
G1 X39.077 Y9.630 E0.07731
G1 X41.299 Y10.651 E0.07665
G1 X43.412 Y11.915 E0.07721
G1 X45.479 Y13.485 E0.08138
G1 X47.264 Y15.186 E0.07732
G1 X48.843 Y17.053 E0.07667
G1 X50.212 Y19.079 E0.07665
G1 X51.356 Y21.239 E0.07666
G1 X52.269 Y23.530 E0.07731
G1 X52.924 Y25.885 E0.07664
G1 X53.323 Y28.299 E0.07671
G1 X53.461 Y30.761 E0.07730
G1 X53.334 Y33.202 E0.07665
G1 X52.942 Y35.636 E0.07730
G1 X52.289 Y38.014 E0.07732
G1 X51.383 Y40.307 E0.07732
G1 X50.233 Y42.489 E0.07733
G1 X48.792 Y44.617 E0.08058
G1 X47.221 Y46.464 E0.07603
G1 X45.462 Y48.133 E0.07604
G1 X43.501 Y49.629 E0.07731
G1 X41.390 Y50.904 E0.07733
G1 X39.057 Y51.983 E0.08059
G1 X36.738 Y52.758 E0.07668
G1 X34.349 Y53.280 E0.07666
G1 X31.919 Y53.543 E0.07665
G1 X29.474 Y53.544 E0.07667
G1 X27.022 Y53.280 E0.07732
G1 X24.633 Y52.758 E0.07667
G1 X22.295 Y51.975 E0.07731
G1 X20.074 Y50.953 E0.07667
G1 X17.853 Y49.617 E0.08125
G1 X15.894 Y48.119 E0.07733
G1 X14.109 Y46.418 E0.07730
G1 X12.530 Y44.551 E0.07666
G1 X11.150 Y42.508 E0.07731
G1 X10.008 Y40.346 E0.07666
G1 X9.104 Y38.074 E0.07666
G1 X8.449 Y35.718 E0.07668
G1 X8.050 Y33.305 E0.07668
G1 X7.912 Y30.844 E0.07731
G1 X8.038 Y28.402 E0.07665
G1 X8.430 Y25.968 E0.07730
G1 X9.084 Y23.590 E0.07732
G1 X9.990 Y21.297 E0.07732
G1 X11.139 Y19.115 E0.07732
G1 X12.517 Y17.070 E0.07732
G1 X14.044 Y15.262 E0.07419
G1 X14.332 Y15.506 F10800.000
G1 F1200.000
G1 X16.163 Y13.752 E0.07950
G1 X18.092 Y12.281 E0.07605
G1 X20.168 Y11.028 E0.07604
M73 Q3 S37
G1 X22.445 Y9.976 E0.07864
G1 X24.745 Y9.207 E0.07604
M73 P3 R37
G1 X27.094 Y8.694 E0.07538
G1 X29.484 Y8.437 E0.07539
G1 X31.889 Y8.437 E0.07540
G1 X34.300 Y8.698 E0.07604
G1 X36.649 Y9.213 E0.07540
G1 X38.948 Y9.984 E0.07603
G1 X41.132 Y10.989 E0.07538
G1 X43.211 Y12.234 E0.07597
G1 X45.226 Y13.765 E0.07938
G1 X46.983 Y15.437 E0.07604
G1 X48.548 Y17.289 E0.07602
G1 X49.894 Y19.281 E0.07538
G1 X51.018 Y21.407 E0.07539
G1 X51.915 Y23.660 E0.07604
G1 X52.558 Y25.976 E0.07537
G1 X52.949 Y28.350 E0.07544
G1 X53.084 Y30.771 E0.07603
G1 X52.958 Y33.172 E0.07538
G1 X52.571 Y35.566 E0.07602
G1 X51.928 Y37.904 E0.07604
