; generated by PrusaSlicer 2.3.3+linux-x64 on 2021-10-29 at 14:39:08 UTC

; 

; external perimeters extrusion width = 0.45mm
; perimeters extrusion width = 0.45mm
; infill extrusion width = 0.45mm
; solid infill extrusion width = 0.45mm
; top infill extrusion width = 0.40mm
; first layer extrusion width = 0.70mm

M107
M104 S200 ; set temperature
;TYPE:Custom
G28 ; home all axes
G1 Z5 F5000 ; lift nozzle
M109 S200 ; set temperature and wait for it to be reached
G21 ; set units to millimeters
G90 ; use absolute coordinates
M82 ; use absolute distances for extrusion
G92 E0
; Filament gcode
;LAYER_CHANGE
;Z:0.35
;HEIGHT:0.35
G1 Z0.350 F7800.000
G1 E-2.00000 F2400.000
G92 E0
G1 X63.121 Y68.081 F7800.000
G1 E2.00000 F2400.000
;TYPE:Skirt
;WIDTH:0.7
G1 F1800.000
G1 X64.272 Y67.281 E2.12747
G1 X78.526 Y59.631 E3.59842
G1 X80.625 Y58.585 E3.81175
G1 X91.065 Y55.177 E4.81031
G1 X93.658 Y54.719 E5.04973
G1 X95.437 Y54.545 E5.21231
G1 X105.662 Y54.630 E6.14206
G1 X108.531 Y55.088 E6.40626
G1 X115.117 Y56.853 E7.02626
G1 X116.827 Y57.499 E7.19251
G1 X122.546 Y60.233 E7.76885
G1 X135.615 Y67.224 E9.11660
G1 X136.772 Y68.002 E9.24331
G1 X137.542 Y68.729 E9.33965
G1 X138.212 Y69.575 E9.43779
G1 X138.747 Y70.499 E9.53484
G1 X139.160 Y71.535 E9.63631
G1 X143.979 Y87.514 E11.15390
G1 X144.926 Y91.525 E11.52863
G1 X145.508 Y95.627 E11.90536
G1 X145.717 Y99.848 E12.28961
G1 X145.661 Y102.272 E12.51010
G1 X145.272 Y106.378 E12.88510
G1 X144.510 Y110.443 E13.26126
G1 X143.925 Y112.685 E13.47193
G1 X139.132 Y128.558 E14.97960
G1 X138.613 Y129.769 E15.09942
G1 X137.859 Y130.906 E15.22341
G1 X136.858 Y131.931 E15.35374
G1 X135.695 Y132.736 E15.48237
G1 X120.729 Y140.754 E17.02615
G1 X118.605 Y141.768 E17.24024
G1 X116.356 Y142.697 E17.46145
G1 X114.381 Y143.405 E17.65222
G1 X112.226 Y144.061 E17.85706
G1 X110.060 Y144.605 E18.06016
G1 X107.995 Y145.020 E18.25170
G1 X105.528 Y145.390 E18.47850
G1 X103.362 Y145.603 E18.67639
G1 X101.099 Y145.714 E18.88239
G1 X98.853 Y145.713 E19.08664
G1 X96.455 Y145.588 E19.30496
G1 X92.309 Y145.075 E19.68486
G1 X90.092 Y144.640 E19.89026
G1 X87.777 Y144.064 E20.10723
G1 X85.694 Y143.433 E20.30513
G1 X83.336 Y142.583 E20.53308
G1 X81.391 Y141.772 E20.72462
G1 X79.357 Y140.805 E20.92946
G1 X64.387 Y132.787 E22.47361
G1 X63.331 Y132.094 E22.58848
G1 X62.528 Y131.363 E22.68719
G1 X61.845 Y130.528 E22.78529
G1 X61.292 Y129.609 E22.88284
G1 X60.867 Y128.589 E22.98327
G1 X55.904 Y112.118 E24.54753
G1 X55.372 Y109.985 E24.74745
G1 X54.965 Y107.937 E24.93729
G1 X54.601 Y105.495 E25.16182
G1 X54.392 Y103.353 E25.35744
G1 X54.288 Y101.262 E25.54787
G1 X54.289 Y98.723 E25.77869
G1 X54.393 Y96.644 E25.96801
G1 X54.610 Y94.427 E26.17058
G1 X54.936 Y92.223 E26.37314
G1 X55.348 Y90.131 E26.56703
G1 X55.943 Y87.747 E26.79040
G1 X60.851 Y71.463 E28.33689
G1 X61.370 Y70.246 E28.45720
G1 X62.121 Y69.108 E28.58118
G1 X63.079 Y68.124 E28.70608
G1 E26.70608 F2400.000
G92 E0
G1 X119.037 Y75.019 F7800.000
G1 E2.00000 F2400.000
;TYPE:External perimeter
;WIDTH:1.01692
G1 F1800.000
G1 X118.935 Y74.938 E2.01784
;WIDTH:1.01318
G1 X118.878 Y74.888 E2.02808
;WIDTH:1.01318
G1 X118.874 Y74.884 E2.02893
;WIDTH:1.01357
G1 X118.655 Y74.648 E2.07290
;WIDTH:1.01358
G1 X118.655 Y74.647 E2.07301
;WIDTH:1.01347
G1 X118.600 Y74.572 E2.08567
;WIDTH:1.01957
G1 X118.538 Y74.479 E2.10101
;WIDTH:1.01957
G1 X118.430 Y74.298 E2.13001
;WIDTH:1.0143
G1 X118.427 Y74.293 E2.13084
;WIDTH:1.01355
G1 X118.388 Y74.208 E2.14358
;WIDTH:1.01912
G1 X118.348 Y74.110 E2.15811
;WIDTH:1.01912
G1 X118.277 Y73.899 E2.18874
;WIDTH:1.01266
G1 X118.252 Y73.809 E2.20144
;WIDTH:1.01357
G1 X118.250 Y73.803 E2.20228
;WIDTH:1.01358
G1 X118.202 Y73.484 E2.24629
;WIDTH:1.01357
G1 X118.202 Y73.484 E2.24631
;WIDTH:1.01355
G1 X118.199 Y73.391 E2.25906
;WIDTH:1.01956
G1 X118.200 Y73.279 E2.27440
;WIDTH:1.01956
G1 X118.213 Y73.069 E2.30340
;WIDTH:1.01431
G1 X118.214 Y73.063 E2.30423
;WIDTH:1.01355
G1 X118.229 Y72.971 E2.31697
;WIDTH:1.01956
G1 X118.252 Y72.861 E2.33231
;WIDTH:1.01956
G1 X118.307 Y72.658 E2.36131
;WIDTH:1.0143
G1 X118.309 Y72.652 E2.36214
;WIDTH:1.01355
G1 X118.342 Y72.565 E2.37488
;WIDTH:1.01956
G1 X118.387 Y72.462 E2.39022
;WIDTH:1.01956
G1 X118.481 Y72.273 E2.41922
;WIDTH:1.0143
G1 X118.483 Y72.268 E2.42005
;WIDTH:1.01355
G1 X118.533 Y72.189 E2.43279
;WIDTH:1.01956
G1 X118.597 Y72.098 E2.44813
;WIDTH:1.01956
G1 X118.723 Y71.936 E2.47632
;WIDTH:1.01445
G1 X118.731 Y71.927 E2.47796
;WIDTH:1.01266
G1 X118.796 Y71.860 E2.49066
;WIDTH:1.01912
G1 X118.959 Y71.708 E2.52129
;WIDTH:1.01912
G1 X119.041 Y71.641 E2.53582
;WIDTH:1.01355
G1 X119.116 Y71.586 E2.54856
;WIDTH:1.01357
G1 X119.117 Y71.586 E2.54859
;WIDTH:1.01358
G1 X119.396 Y71.425 E2.59260
;WIDTH:1.01357
G1 X119.401 Y71.422 E2.59343
;WIDTH:1.01266
G1 X119.487 Y71.386 E2.60614
;WIDTH:1.01883
G1 X119.691 Y71.312 E2.63595
;WIDTH:1.01883
G1 X119.798 Y71.281 E2.65129
;WIDTH:1.00769
G1 X119.889 Y71.261 E2.66389
;WIDTH:1.01883
G1 X119.999 Y71.241 E2.67923
;WIDTH:1.01883
G1 X120.545 Y71.187 E2.75455
G1 E0.75455 F2400.000
G92 E0
G1 X119.037 Y75.019 F7800.000
G1 E2.00000 F2400.000
;WIDTH:1.01692
G1 F1800.000
G1 X119.136 Y75.090 E2.01676
;WIDTH:1.01355
G1 X119.205 Y75.136 E2.02806
;WIDTH:1.0143
G1 X119.210 Y75.139 E2.02888
;WIDTH:1.01957
G1 X119.397 Y75.237 E2.05788
;WIDTH:1.01956
G1 X119.498 Y75.284 E2.07322
;WIDTH:1.01355
G1 X119.584 Y75.320 E2.08597
;WIDTH:1.0143
G1 X119.590 Y75.322 E2.08680
;WIDTH:1.01942
G1 X119.787 Y75.380 E2.11497
;WIDTH:1.01942
G1 X119.901 Y75.406 E2.13113
;WIDTH:1.00769
G1 X119.993 Y75.422 E2.14373
;WIDTH:1.015
G1 X120.066 Y75.431 E2.15376
;WIDTH:1.015
G1 X120.301 Y75.670 E2.19966
;WIDTH:0.989336
G1 X120.537 Y75.909 E2.24431
G1 E0.24431 F2400.000
G92 E0
G1 X76.310 Y74.123 F7800.000
G1 E2.00000 F2400.000
;TYPE:Perimeter
;WIDTH:0.7
G1 F1800.000
G1 X73.139 Y74.121 E2.28830
G1 X74.188 Y73.070 E2.42333
G1 X75.467 Y71.901 E2.58085
G1 X75.743 Y71.671 E2.61350
G1 X76.094 Y72.648 E2.70793
G1 X76.313 Y72.623 E2.72797
G1 X76.241 Y72.951 E2.75850
G1 X76.224 Y73.513 E2.80959
G1 X76.302 Y74.064 E2.86016
G1 E0.86016 F2400.000
G92 E0
G1 X70.409 Y74.745 F7800.000
G1 E2.00000 F2400.000
G1 F1800.000
G1 X68.913 Y76.586 E2.21570
G1 X68.912 Y74.744 E2.38316
G1 X70.349 Y74.745 E2.51376
G1 E0.51376 F2400.000
G92 E0
G1 X76.515 Y71.971 F7800.000
G1 E2.00000 F2400.000
G1 F1800.000
G1 X77.275 Y71.884 E2.06964
G1 X76.988 Y72.462 E2.12836
G1 X76.863 Y73.028 E2.18102
G1 X76.850 Y73.478 E2.22197
G1 X76.912 Y73.918 E2.26238
G1 X77.059 Y74.369 E2.30548
G1 X77.304 Y74.772 E2.34837
G1 X76.732 Y74.748 E2.40045
G1 X71.214 Y74.744 E2.90222
G1 X69.703 Y76.604 E3.12006
G1 X68.547 Y78.179 E3.29773
G1 X68.289 Y78.094 E3.32243
G1 X68.287 Y74.119 E3.68388
G1 X72.257 Y74.120 E4.04487
G1 X73.756 Y72.618 E4.23780
G1 X75.056 Y71.430 E4.39792
G1 X76.029 Y70.619 E4.51311
G1 X76.494 Y71.915 E4.63828
G1 E2.63828 F2400.000
G92 E0
G1 X123.690 Y72.624 F7800.000
G1 E2.00000 F2400.000
G1 F1800.000
G1 X123.895 Y72.648 E2.01872
G1 X124.246 Y71.670 E2.11319
G1 X125.801 Y73.071 E2.30350
G1 X126.849 Y74.121 E2.43844
G1 X123.658 Y74.123 E2.72863
G1 X123.748 Y73.713 E2.76682
G1 X123.764 Y73.151 E2.81791
G1 X123.699 Y72.684 E2.86081
G1 E0.86081 F2400.000
G92 E0
G1 X129.580 Y74.745 F7800.000
G1 E2.00000 F2400.000
G1 F1800.000
G1 X131.076 Y74.744 E2.13607
G1 X131.075 Y76.199 E2.26837
G1 X130.825 Y76.288 E2.29248
G1 X129.617 Y74.791 E2.46735
G1 X128.776 Y74.744 F7800.000
G1 F1800.000
G1 X123.256 Y74.748 E2.96928
G1 X122.717 Y74.771 E3.01833
G1 X123.001 Y74.202 E3.07613
G1 X123.125 Y73.636 E3.12879
G1 X123.138 Y73.186 E3.16974
G1 X123.076 Y72.746 E3.21015
G1 X122.929 Y72.295 E3.25325
G1 X122.677 Y71.880 E3.29742
G1 X123.474 Y71.971 E3.37033
G1 X123.958 Y70.621 E3.50076
G1 X124.872 Y71.377 E3.60860
G1 X126.233 Y72.619 E3.77613
G1 X127.731 Y74.120 E3.96900
G1 X131.701 Y74.119 E4.32999
G1 X131.699 Y78.094 E4.69144
G1 X131.441 Y78.179 E4.71614
G1 X130.361 Y76.707 E4.88214
G1 X128.814 Y74.791 E5.10609
G1 E3.10609 F2400.000
G92 E0
G1 X130.818 Y123.725 F7800.000
G1 E2.00000 F2400.000
G1 F1800.000
G1 X131.075 Y123.809 E2.02465
G1 X131.076 Y125.260 E2.15652
G1 X129.575 Y125.260 E2.29298
G1 X130.782 Y123.773 E2.46710
G1 E0.46710 F2400.000
G92 E0
G1 X131.433 Y121.824 F7800.000
G1 E2.00000 F2400.000
G1 F1800.000
G1 X131.699 Y121.904 E2.02529
G1 X131.701 Y125.885 E2.38721
G1 X128.178 Y125.884 E2.70757
G1 X129.014 Y124.959 E2.82091
G1 X130.195 Y123.515 E2.99058
G1 X131.400 Y121.874 E3.17572
G1 E1.17572 F2400.000
G92 E0
G1 X121.479 Y130.490 F7800.000
G1 E2.00000 F2400.000
G1 F1800.000
G1 X120.016 Y131.473 E2.16027
G1 X119.525 Y131.768 E2.21235
G1 X119.523 Y130.020 E2.37132
G1 X119.866 Y130.095 E2.40321
G1 X120.405 Y130.126 E2.45227
G1 X121.048 Y130.053 E2.51113
G1 X121.029 Y130.278 E2.53163
G1 X121.425 Y130.464 E2.57141
G1 X121.688 Y129.897 F7800.000
G1 F1800.000
G1 X122.692 Y130.371 E2.67233
G1 X121.903 Y130.958 E2.76178
G1 X120.352 Y132.000 E2.93167
G1 X118.902 Y132.873 E3.08556
G1 X118.898 Y129.610 E3.38227
G1 X118.876 Y129.090 E3.42957
G1 X119.505 Y129.376 E3.49243
G1 X119.951 Y129.474 E3.53394
G1 X120.387 Y129.499 E3.57365
G1 X120.824 Y129.450 E3.61364
G1 X121.280 Y129.319 E3.65677
G1 X121.758 Y129.047 E3.70673
G1 X121.693 Y129.838 E3.77887
G1 E1.77887 F2400.000
G92 E0
G1 X76.298 Y127.380 F7800.000
G1 E2.00000 F2400.000
G1 F1800.000
G1 X76.094 Y127.356 E2.01872
G1 X75.738 Y128.347 E2.11442
G1 X74.187 Y126.933 E2.30525
G1 X73.139 Y125.883 E2.44015
G1 X76.331 Y125.881 E2.73035
G1 X76.241 Y126.291 E2.76854
G1 X76.224 Y126.853 E2.81963
G1 X76.290 Y127.320 E2.86254
G1 E0.86254 F2400.000
G92 E0
G1 X70.411 Y125.262 F7800.000
G1 E2.00000 F2400.000
G1 F1800.000
G1 X68.912 Y125.261 E2.13625
G1 X68.913 Y123.418 E2.30381
G1 X70.373 Y125.216 E2.51437
G1 X71.214 Y125.260 F7800.000
G1 F1800.000
G1 X76.732 Y125.256 E3.01614
G1 X77.271 Y125.233 E3.06519
G1 X76.988 Y125.802 E3.12299
G1 X76.863 Y126.368 E3.17565
G1 X76.850 Y126.818 E3.21660
G1 X76.912 Y127.258 E3.25701
G1 X77.059 Y127.709 E3.30011
G1 X77.311 Y128.124 E3.34428
G1 X76.515 Y128.033 E3.41720
G1 X76.031 Y129.383 E3.54754
G1 X75.146 Y128.653 E3.65179
G1 X73.756 Y127.385 E3.82292
G1 X72.262 Y125.889 E4.01516
G1 X68.287 Y125.885 E4.37657
G1 X68.289 Y121.910 E4.73806
G1 X68.547 Y121.825 E4.76275
G1 X69.703 Y123.400 E4.94042
G1 X71.176 Y125.213 E5.15281
G1 X71.511 Y124.635 F7800.000
;TYPE:External perimeter
G1 F1800.000
G1 X76.719 Y124.631 E5.62633
G1 X77.235 Y124.609 E5.67332
G1 X77.759 Y124.541 E5.72137
G1 X78.231 Y124.438 E5.76527
G1 X79.083 Y124.438 E5.84275
G1 X79.134 Y124.752 E5.87172
G1 X78.850 Y124.848 E5.89894
G1 X78.128 Y125.267 E5.97494
G1 X77.874 Y125.504 E6.00650
G1 X77.734 Y125.705 E6.02873
G1 X77.582 Y126.012 E6.05992
G1 X77.486 Y126.445 E6.10024
G1 X77.476 Y126.784 E6.13105
G1 X77.523 Y127.117 E6.16165
G1 X77.631 Y127.446 E6.19316
G1 X77.866 Y127.833 E6.23430
G1 X78.133 Y128.082 E6.26748
G1 X78.395 Y128.220 E6.29444
G1 X78.676 Y128.406 E6.32506
G1 X78.947 Y128.537 E6.35243
G1 X79.117 Y128.584 E6.36850
G1 X79.073 Y128.908 E6.39818
G1 X78.283 Y128.909 E6.46998
G1 X77.827 Y128.812 E6.51239
G1 X76.936 Y128.710 E6.59396
G1 X76.647 Y129.517 E6.67187
G1 X78.304 Y130.777 E6.86118
G1 X79.819 Y131.790 E7.02691
G1 X81.379 Y132.728 E7.19244
G1 X82.983 Y133.590 E7.35798
G1 X84.626 Y134.373 E7.52352
G1 X86.306 Y135.076 E7.68906
G1 X88.017 Y135.696 E7.85459
G1 X89.756 Y136.234 E8.02013
G1 X91.520 Y136.686 E8.18567
G1 X93.303 Y137.053 E8.35120
G1 X95.102 Y137.333 E8.51674
G1 X96.912 Y137.526 E8.68228
G1 X98.729 Y137.631 E8.84782
G1 X100.550 Y137.648 E9.01335
G1 X102.369 Y137.577 E9.17889
G1 X104.183 Y137.418 E9.34443
G1 X105.986 Y137.172 E9.50996
G1 X107.776 Y136.839 E9.67550
G1 X109.548 Y136.420 E9.84104
G1 X111.297 Y135.916 E10.00657
G1 X113.020 Y135.327 E10.17211
G1 X114.712 Y134.656 E10.33765
G1 X116.370 Y133.904 E10.50319
G1 X118.277 Y132.926 E10.69809
G1 X118.273 Y129.623 E10.99837
G1 X118.251 Y129.108 E11.04530
G1 X118.183 Y128.584 E11.09329
G1 X118.080 Y128.115 E11.13701
G1 X118.085 Y127.273 E11.21353
G1 X118.394 Y127.219 E11.24206
G1 X118.512 Y127.545 E11.27353
G1 X118.744 Y127.904 E11.31243
G1 X118.872 Y128.169 E11.33919
G1 X119.109 Y128.435 E11.37157
G1 X119.389 Y128.637 E11.40293
G1 X119.704 Y128.780 E11.43441
G1 X120.037 Y128.853 E11.46539
G1 X120.370 Y128.872 E11.49574
G1 X120.703 Y128.834 E11.52620
G1 X121.036 Y128.739 E11.55773
G1 X121.431 Y128.514 E11.59906
G1 X121.759 Y128.164 E11.64271
G1 X121.882 Y127.908 E11.66850
G1 X122.070 Y127.633 E11.69877
G1 X122.256 Y127.221 E11.73987
G1 X122.552 Y127.285 E11.76741
G1 X122.552 Y127.906 E11.82392
G1 X122.502 Y128.289 E11.85900
G1 X122.412 Y128.716 E11.89867
G1 X122.346 Y129.517 E11.97178
G1 X122.979 Y129.815 E12.03544
G1 X124.656 Y128.451 E12.23203
G1 X126.014 Y127.214 E12.39903
G1 X127.309 Y125.914 E12.56593
G1 X128.540 Y124.552 E12.73282
G1 X129.702 Y123.131 E12.89971
G1 X130.794 Y121.656 E13.06661
G1 X131.813 Y120.129 E13.23354
G1 X132.818 Y118.441 E13.41213
G1 X133.621 Y116.936 E13.56729
G1 X134.406 Y115.277 E13.73417
G1 X135.110 Y113.582 E13.90106
G1 X135.730 Y111.854 E14.06795
G1 X136.265 Y110.099 E14.23485
G1 X136.714 Y108.319 E14.40174
G1 X137.075 Y106.520 E14.56863
G1 X137.349 Y104.704 E14.73555
G1 X137.543 Y102.750 E14.91416
G1 X137.629 Y101.045 E15.06935
G1 X137.632 Y99.082 E15.24783
G1 X137.543 Y97.250 E15.41461
G1 X137.365 Y95.425 E15.58134
G1 X137.118 Y93.737 E15.73650
G1 X136.742 Y91.812 E15.91484
G1 X136.300 Y90.032 E16.08163
G1 X135.771 Y88.276 E16.24838
G1 X135.158 Y86.548 E16.41514
G1 X134.461 Y84.851 E16.58188
G1 X133.738 Y83.306 E16.73703
G1 X132.824 Y81.571 E16.91536
G1 X131.888 Y79.993 E17.08216
G1 X130.875 Y78.464 E17.24891
G1 X129.866 Y77.089 E17.40406
G1 X128.478 Y75.369 E17.60498
G1 X123.270 Y75.373 E18.07855
G1 X122.753 Y75.395 E18.12555
G1 X122.229 Y75.463 E18.17360
G1 X121.759 Y75.566 E18.21741
G1 X120.917 Y75.561 E18.29395
G1 X120.867 Y75.248 E18.32284
G1 X121.138 Y75.156 E18.34887
G1 X121.861 Y74.737 E18.42487
G1 X122.115 Y74.500 E18.45643
G1 X122.254 Y74.299 E18.47866
G1 X122.407 Y73.992 E18.50985
G1 X122.502 Y73.559 E18.55017
G1 X122.512 Y73.220 E18.58098
G1 X122.465 Y72.887 E18.61158
G1 X122.358 Y72.558 E18.64309
G1 X122.123 Y72.171 E18.68423
G1 X121.855 Y71.923 E18.71741
G1 X121.593 Y71.784 E18.74438
G1 X121.313 Y71.598 E18.77499
G1 X121.041 Y71.467 E18.80237
G1 X120.866 Y71.418 E18.81891
G1 X120.911 Y71.095 E18.84862
G1 X121.705 Y71.095 E18.92082
G1 X122.161 Y71.192 E18.96325
G1 X123.053 Y71.294 E19.04483
G1 X123.342 Y70.488 E19.12272
G1 X121.699 Y69.238 E19.31039
G1 X120.200 Y68.233 E19.47447
G1 X119.166 Y67.610 E19.58428
G1 X119.674 Y66.864 E19.66631
G1 X120.822 Y67.563 E19.78847
G1 X122.362 Y68.605 E19.95752
G1 X123.849 Y69.720 E20.12659
G1 X125.282 Y70.905 E20.29564
G1 X126.664 Y72.167 E20.46587
G1 X127.990 Y73.495 E20.63649
G1 X132.057 Y73.494 E21.00628
G1 X132.177 Y73.524 E21.01756
G1 X132.261 Y73.584 E21.02692
G1 X132.307 Y73.672 E21.03598
G1 X132.326 Y73.770 E21.04499
G1 X132.324 Y78.385 E21.46466
G1 X132.301 Y78.557 E21.48044
G1 X132.334 Y79.017 E21.52236
G1 X132.965 Y80.026 E21.63058
G1 X133.574 Y81.069 E21.74045
G1 X134.426 Y82.666 E21.90506
G1 X135.197 Y84.291 E22.06854
G1 X135.891 Y85.949 E22.23202
G1 X136.507 Y87.638 E22.39550
G1 X137.044 Y89.354 E22.55899
G1 X137.500 Y91.093 E22.72247
G1 X137.875 Y92.851 E22.88595
G1 X138.167 Y94.625 E23.04943
G1 X138.376 Y96.411 E23.21291
G1 X138.502 Y98.205 E23.37640
G1 X138.544 Y100.002 E23.53988
G1 X138.502 Y101.799 E23.70336
G1 X138.376 Y103.593 E23.86684
G1 X138.167 Y105.379 E24.03032
G1 X137.875 Y107.153 E24.19381
G1 X137.500 Y108.911 E24.35729
G1 X137.044 Y110.650 E24.52077
G1 X136.507 Y112.366 E24.68425
G1 X135.891 Y114.055 E24.84774
G1 X135.197 Y115.713 E25.01122
G1 X134.426 Y117.338 E25.17469
G1 X133.564 Y118.953 E25.34114
G1 X132.965 Y119.978 E25.44917
G1 X132.334 Y120.987 E25.55740
G1 X132.301 Y121.447 E25.59932
G1 X132.324 Y121.619 E25.61509
G1 X132.326 Y126.240 E26.03531
G1 X132.295 Y126.364 E26.04692
G1 X132.252 Y126.431 E26.05417
G1 X132.145 Y126.491 E26.06528
G1 X132.051 Y126.510 E26.07403
G1 X127.990 Y126.509 E26.44326
G1 X126.665 Y127.836 E26.61375
