; generated by PrusaSlicer 2.3.3+linux-x64 on 2021-10-27 at 22:03:27 UTC

; 

; external perimeters extrusion width = 0.45mm
; perimeters extrusion width = 0.45mm
; infill extrusion width = 0.45mm
; solid infill extrusion width = 0.45mm
; top infill extrusion width = 0.40mm
; first layer extrusion width = 0.70mm

M107
M104 S200 ; set temperature
;TYPE:Custom
G28 ; home all axes
G1 Z5 F5000 ; lift nozzle
M109 S200 ; set temperature and wait for it to be reached
G21 ; set units to millimeters
G90 ; use absolute coordinates
M82 ; use absolute distances for extrusion
G92 E0
; Filament gcode
;LAYER_CHANGE
;Z:0.35
;HEIGHT:0.35
G1 Z0.350 F7800.000
G1 E-2.00000 F2400.000
G92 E0
G1 X42.801 Y100.207 F7800.000
G1 E2.00000 F2400.000
;TYPE:Skirt
;WIDTH:0.7
G1 F1800.000
G1 X44.890 Y99.326 E2.20615
G1 X47.044 Y98.542 E2.41462
G1 X49.223 Y97.870 E2.62193
G1 X51.432 Y97.307 E2.82924
G1 X53.655 Y96.858 E3.03540
G1 X55.922 Y96.516 E3.24386
G1 X58.177 Y96.290 E3.45002
G1 X60.454 Y96.175 E3.65733
G1 X62.588 Y96.173 E3.85134
G1 X65.011 Y96.288 E4.07194
G1 X67.280 Y96.514 E4.27925
G1 X69.541 Y96.854 E4.48715
G1 X71.757 Y97.302 E4.69272
G1 X73.991 Y97.870 E4.90234
G1 X76.158 Y98.538 E5.10850
G1 X78.300 Y99.317 E5.31581
G1 X80.262 Y100.141 E5.50925
G1 X82.450 Y101.188 E5.72984
G1 X84.448 Y102.274 E5.93658
G1 X86.404 Y103.469 E6.14505
G1 X88.163 Y104.665 E6.33848
G1 X90.096 Y106.121 E6.55850
G1 X91.686 Y107.451 E6.74699
G1 X93.651 Y109.270 E6.99041
G1 X95.134 Y110.794 E7.18388
G1 X96.643 Y112.504 E7.39119
G1 X98.056 Y114.277 E7.59734
G1 X99.394 Y116.139 E7.80581
G1 X100.624 Y118.043 E8.01196
G1 X101.764 Y120.018 E8.21928
G1 X102.804 Y122.047 E8.42659
G1 X103.751 Y124.148 E8.63621
G1 X104.574 Y126.247 E8.84121
G1 X105.301 Y128.408 E9.04852
G1 X105.918 Y130.603 E9.25583
G1 X106.428 Y132.838 E9.46430
G1 X106.821 Y135.071 E9.67045
G1 X107.106 Y137.346 E9.87892
G1 X107.276 Y139.619 E10.08623
G1 X107.330 Y142.038 E10.30626
G1 X107.274 Y144.178 E10.50084
G1 X107.103 Y146.451 E10.70815
G1 X106.821 Y148.701 E10.91431
G1 X106.423 Y150.958 E11.12278
G1 X105.918 Y153.169 E11.32893
G1 X105.300 Y155.363 E11.53624
G1 X104.574 Y157.525 E11.74355
G1 X103.736 Y159.659 E11.95202
G1 X102.804 Y161.725 E12.15817
G1 X101.764 Y163.754 E12.36549
G1 X100.624 Y165.728 E12.57280
G1 X99.387 Y167.644 E12.78011
G1 X98.056 Y169.495 E12.98742
G1 X96.634 Y171.277 E13.19473
G1 X95.126 Y172.987 E13.40204
G1 X93.525 Y174.628 E13.61051
G1 X91.862 Y176.169 E13.81666
G1 X90.116 Y177.635 E14.02397
G1 X88.298 Y179.012 E14.23128
G1 X86.415 Y180.296 E14.43860
G1 X84.469 Y181.485 E14.64591
G1 X82.467 Y182.575 E14.85322
G1 X80.413 Y183.564 E15.06053
G1 X78.312 Y184.450 E15.26784
G1 X76.170 Y185.230 E15.47515
G1 X73.991 Y185.902 E15.68246
G1 X71.782 Y186.464 E15.88977
G1 X69.547 Y186.916 E16.09709
G1 X67.292 Y187.256 E16.30439
G1 X65.024 Y187.483 E16.51170
G1 X62.747 Y187.596 E16.71901
G1 X60.480 Y187.597 E16.92517
G1 X58.190 Y187.483 E17.13364
G1 X55.921 Y187.256 E17.34095
G1 X53.667 Y186.916 E17.54826
G1 X51.432 Y186.464 E17.75557
G1 X49.223 Y185.902 E17.96289
G1 X47.044 Y185.230 E18.17019
G1 X44.902 Y184.450 E18.37750
G1 X42.812 Y183.569 E18.58366
G1 X40.747 Y182.575 E18.79212
G1 X38.744 Y181.485 E18.99944
G1 X36.799 Y180.296 E19.20675
G1 X34.926 Y179.019 E19.41290
G1 X33.098 Y177.635 E19.62137
G1 X31.361 Y176.178 E19.82752
G1 X29.689 Y174.627 E20.03484
G1 X28.193 Y173.097 E20.22942
G1 X26.588 Y171.287 E20.44945
G1 X25.166 Y169.505 E20.65676
G1 X23.827 Y167.643 E20.86523
G1 X22.604 Y165.750 E21.07022
G1 X21.450 Y163.754 E21.27985
G1 X20.416 Y161.736 E21.48600
G1 X19.477 Y159.658 E21.69331
G1 X18.698 Y157.679 E21.88675
G1 X17.921 Y155.387 E22.10677
G1 X17.339 Y153.328 E22.30136
G1 X16.758 Y150.784 E22.53869
G1 X16.391 Y148.688 E22.73215
G1 X16.107 Y146.419 E22.94004
G1 X15.938 Y144.152 E23.14677
G1 X15.884 Y141.733 E23.36680
G1 X15.940 Y139.594 E23.56139
G1 X16.111 Y137.320 E23.76870
G1 X16.393 Y135.071 E23.97486
G1 X16.791 Y132.813 E24.18332
G1 X17.296 Y130.603 E24.38948
G1 X17.914 Y128.408 E24.59679
G1 X18.640 Y126.247 E24.80410
G1 X19.478 Y124.113 E25.01256
G1 X20.410 Y122.046 E25.21872
G1 X21.450 Y120.017 E25.42603
G1 X22.590 Y118.043 E25.63334
G1 X23.827 Y116.128 E25.84065
G1 X25.158 Y114.277 E26.04796
G1 X26.580 Y112.494 E26.25528
G1 X28.088 Y110.785 E26.46259
G1 X29.680 Y109.153 E26.66990
G1 X31.352 Y107.602 E26.87721
G1 X33.098 Y106.136 E27.08452
G1 X34.916 Y104.760 E27.29183
G1 X36.799 Y103.476 E27.49914
G1 X38.745 Y102.287 E27.70645
G1 X40.747 Y101.196 E27.91376
G1 X42.747 Y100.233 E28.11562
G1 E26.11562 F2400.000
G92 E0
G1 X87.668 Y158.316 F7800.000
G1 E2.00000 F2400.000
;TYPE:External perimeter
G1 F1800.000
G1 X87.991 Y158.108 E2.03492
G1 X88.333 Y157.933 E2.06985
G1 X88.690 Y157.792 E2.10477
G1 X89.060 Y157.688 E2.13969
G1 X89.438 Y157.622 E2.17461
G1 X89.821 Y157.593 E2.20954
G1 X90.205 Y157.603 E2.24446
G1 X90.586 Y157.650 E2.27938
G1 X90.961 Y157.736 E2.31430
G1 X91.325 Y157.858 E2.34923
G1 X91.675 Y158.016 E2.38415
G1 X92.007 Y158.208 E2.41907
G1 X92.319 Y158.432 E2.45399
G1 X92.607 Y158.687 E2.48892
G1 X92.868 Y158.968 E2.52384
G1 X93.100 Y159.274 E2.55876
G1 X93.300 Y159.602 E2.59368
G1 X93.467 Y159.948 E2.62861
G1 X93.598 Y160.309 E2.66353
G1 X93.694 Y160.686 E2.69893
G1 X93.764 Y161.260 E2.75146
G1 X93.727 Y161.846 E2.80487
G1 X93.626 Y162.237 E2.84158
G1 X93.483 Y162.591 E2.87634
G1 X93.241 Y163.067 E2.92486
G1 X93.056 Y163.376 E2.95762
G1 X92.749 Y163.804 E3.00551
G1 X92.409 Y164.207 E3.05349
G1 X92.151 Y164.475 E3.08725
G1 X91.860 Y164.720 E3.12187
G1 X91.684 Y164.841 E3.14133
G1 X91.328 Y165.023 E3.17762
G1 X90.781 Y165.199 E3.22989
G1 X90.396 Y165.267 E3.26540
G1 X90.013 Y165.296 E3.30034
G1 X89.629 Y165.286 E3.33526
G1 X89.248 Y165.238 E3.37019
G1 X88.874 Y165.153 E3.40511
G1 X88.510 Y165.031 E3.44003
G1 X88.160 Y164.873 E3.47496
G1 X87.827 Y164.681 E3.50988
G1 X87.515 Y164.456 E3.54480
G1 X87.227 Y164.202 E3.57972
G1 X86.966 Y163.921 E3.61465
G1 X86.734 Y163.615 E3.64957
G1 X86.534 Y163.287 E3.68449
G1 X86.367 Y162.941 E3.71941
G1 X86.236 Y162.580 E3.75434
G1 X86.141 Y162.208 E3.78926
G1 X86.084 Y161.828 E3.82418
G1 X86.065 Y161.444 E3.85910
G1 X86.084 Y161.061 E3.89403
G1 X86.141 Y160.681 E3.92895
G1 X86.236 Y160.309 E3.96385
G1 X86.362 Y159.960 E3.99759
G1 X86.627 Y159.440 E4.05070
G1 X86.846 Y159.118 E4.08607
G1 X87.093 Y158.824 E4.12100
G1 X87.368 Y158.556 E4.15592
G1 X87.621 Y158.354 E4.18539
G1 X87.630 Y157.934 F7800.000
G1 E2.18539 F2400.000
G92 E0
G1 X63.091 Y112.869 F7800.000
G1 E2.00000 F2400.000
;TYPE:Perimeter
G1 F1800.000
G1 X62.525 Y113.178 E2.05866
G1 X62.098 Y113.345 E2.10036
G1 X61.668 Y113.466 E2.14096
G1 X61.228 Y113.544 E2.18155
G1 X60.783 Y113.577 E2.22215
G1 X60.337 Y113.566 E2.26274
G1 X59.894 Y113.511 E2.30333
G1 X59.458 Y113.411 E2.34393
G1 X59.035 Y113.269 E2.38452
G1 X58.628 Y113.085 E2.42512
G1 X58.242 Y112.862 E2.46571
G1 X57.879 Y112.602 E2.50631
G1 X57.545 Y112.306 E2.54690
G1 X57.241 Y111.979 E2.58749
G1 X56.971 Y111.623 E2.62809
G1 X56.739 Y111.242 E2.66868
G1 X56.545 Y110.840 E2.70928
G1 X56.392 Y110.420 E2.74987
G1 X56.282 Y109.988 E2.79046
G1 X56.215 Y109.546 E2.83106
G1 X56.193 Y109.100 E2.87165
G1 X56.215 Y108.655 E2.91219
G1 X56.280 Y108.220 E2.95222
G1 X56.458 Y107.581 E3.01247
G1 X56.637 Y107.157 E3.05431
G1 X56.850 Y106.765 E3.09490
G1 X57.102 Y106.396 E3.13550
G1 X57.389 Y106.054 E3.17609
G1 X57.708 Y105.743 E3.21668
G1 X58.057 Y105.464 E3.25728
G1 X58.432 Y105.222 E3.29787
G1 X58.830 Y105.019 E3.33847
G1 X59.245 Y104.855 E3.37906
G1 X59.675 Y104.734 E3.41966
G1 X60.115 Y104.657 E3.46025
G1 X60.560 Y104.624 E3.50084
G1 X61.006 Y104.635 E3.54144
G1 X61.449 Y104.690 E3.58203
G1 X61.884 Y104.790 E3.62263
G1 X62.307 Y104.932 E3.66322
G1 X62.714 Y105.115 E3.70381
G1 X63.101 Y105.339 E3.74441
G1 X63.463 Y105.599 E3.78500
G1 X63.798 Y105.895 E3.82560
G1 X64.102 Y106.222 E3.86619
G1 X64.371 Y106.578 E3.90679
G1 X64.604 Y106.959 E3.94738
G1 X64.798 Y107.361 E3.98797
G1 X64.951 Y107.780 E4.02857
G1 X65.061 Y108.213 E4.06916
G1 X65.127 Y108.654 E4.10976
G1 X65.150 Y109.100 E4.15035
G1 X65.127 Y109.546 E4.19095
G1 X65.061 Y109.988 E4.23154
G1 X64.951 Y110.420 E4.27213
G1 X64.798 Y110.840 E4.31273
G1 X64.604 Y111.242 E4.35332
G1 X64.371 Y111.623 E4.39392
G1 X64.102 Y111.979 E4.43451
G1 X63.798 Y112.306 E4.47511
G1 X63.463 Y112.602 E4.51570
G1 X63.140 Y112.834 E4.55195
G1 X62.775 Y112.327 F7800.000
;TYPE:External perimeter
G1 F1800.000
G1 X62.260 Y112.610 E4.60541
G1 X61.898 Y112.752 E4.64073
G1 X61.529 Y112.856 E4.67565
G1 X61.150 Y112.923 E4.71057
G1 X60.767 Y112.952 E4.74550
G1 X60.383 Y112.942 E4.78042
G1 X60.002 Y112.894 E4.81534
G1 X59.628 Y112.809 E4.85026
G1 X59.264 Y112.687 E4.88519
G1 X58.914 Y112.529 E4.92011
G1 X58.581 Y112.337 E4.95503
G1 X58.269 Y112.112 E4.98996
G1 X57.981 Y111.858 E5.02488
G1 X57.720 Y111.577 E5.05980
G1 X57.488 Y111.271 E5.09472
G1 X57.288 Y110.943 E5.12965
G1 X57.121 Y110.597 E5.16457
G1 X56.990 Y110.236 E5.19949
G1 X56.895 Y109.864 E5.23441
G1 X56.838 Y109.484 E5.26934
G1 X56.819 Y109.100 E5.30426
G1 X56.838 Y108.717 E5.33916
G1 X56.893 Y108.350 E5.37290
G1 X57.049 Y107.787 E5.42601
G1 X57.200 Y107.429 E5.46138
G1 X57.384 Y107.092 E5.49631
G1 X57.600 Y106.774 E5.53123
G1 X57.847 Y106.480 E5.56615
G1 X58.122 Y106.212 E5.60107
G1 X58.422 Y105.972 E5.63600
G1 X58.745 Y105.764 E5.67092
G1 X59.087 Y105.589 E5.70584
G1 X59.444 Y105.448 E5.74076
G1 X59.814 Y105.344 E5.77569
G1 X60.192 Y105.278 E5.81061
G1 X60.575 Y105.249 E5.84553
G1 X60.959 Y105.259 E5.88045
G1 X61.340 Y105.306 E5.91538
G1 X61.715 Y105.392 E5.95030
G1 X62.079 Y105.514 E5.98522
G1 X62.429 Y105.672 E6.02014
G1 X62.762 Y105.864 E6.05507
G1 X63.073 Y106.088 E6.08999
G1 X63.361 Y106.343 E6.12491
G1 X63.623 Y106.624 E6.15984
G1 X63.854 Y106.930 E6.19476
G1 X64.055 Y107.258 E6.22968
G1 X64.221 Y107.604 E6.26460
G1 X64.353 Y107.965 E6.29953
G1 X64.447 Y108.337 E6.33445
G1 X64.505 Y108.717 E6.36937
G1 X64.524 Y109.100 E6.40429
G1 X64.505 Y109.484 E6.43922
G1 X64.447 Y109.864 E6.47414
G1 X64.353 Y110.236 E6.50906
G1 X64.221 Y110.597 E6.54398
G1 X64.055 Y110.943 E6.57891
G1 X63.854 Y111.271 E6.61383
G1 X63.623 Y111.577 E6.64875
G1 X63.361 Y111.858 E6.68367
G1 X63.073 Y112.112 E6.71860
G1 X62.824 Y112.292 E6.74655
G1 X62.790 Y112.727 F7800.000
G1 E4.74655 F2400.000
G92 E0
G1 X63.588 Y104.919 F7800.000
G1 E2.00000 F2400.000
;TYPE:Perimeter
G1 F1800.000
G1 X63.681 Y104.655 E2.02549
G1 X64.394 Y104.690 E2.09046
G1 X66.245 Y104.875 E2.25957
G1 X68.084 Y105.153 E2.42868
G1 X69.907 Y105.521 E2.59779
G1 X71.709 Y105.980 E2.76690
G1 X73.486 Y106.528 E2.93602
G1 X75.234 Y107.164 E3.10513
G1 X76.948 Y107.887 E3.27424
G1 X78.624 Y108.694 E3.44335
G1 X80.257 Y109.583 E3.61246
G1 X81.844 Y110.553 E3.78158
G1 X83.380 Y111.601 E3.95069
G1 X84.863 Y112.724 E4.11980
G1 X86.288 Y113.919 E4.28891
G1 X87.651 Y115.184 E4.45802
G1 X88.950 Y116.515 E4.62714
G1 X90.180 Y117.910 E4.79625
G1 X91.340 Y119.364 E4.96536
G1 X92.425 Y120.874 E5.13447
G1 X93.434 Y122.436 E5.30358
G1 X94.364 Y124.047 E5.47270
G1 X95.213 Y125.702 E5.64181
G1 X95.978 Y127.397 E5.81092
G1 X96.657 Y129.128 E5.98003
G1 X97.250 Y130.891 E6.14914
G1 X97.753 Y132.682 E6.31826
G1 X98.167 Y134.495 E6.48737
G1 X98.490 Y136.326 E6.65648
G1 X98.721 Y138.172 E6.82559
G1 X98.860 Y140.026 E6.99470
G1 X98.907 Y141.886 E7.16382
G1 X98.860 Y143.745 E7.33293
G1 X98.721 Y145.600 E7.50204
G1 X98.490 Y147.445 E7.67115
G1 X98.167 Y149.276 E7.84026
G1 X97.753 Y151.090 E8.00938
G1 X97.250 Y152.880 E8.17849
G1 X96.657 Y154.643 E8.34760
G1 X95.978 Y156.374 E8.51671
G1 X95.213 Y158.069 E8.68582
G1 X94.561 Y159.340 E8.81566
G1 X94.399 Y159.003 E8.84962
G1 X94.134 Y158.569 E8.89588
G1 X93.827 Y158.164 E8.94215
G1 X93.481 Y157.791 E8.98842
G1 X93.099 Y157.454 E9.03468
G1 X92.686 Y157.157 E9.08095
G1 X92.246 Y156.903 E9.12721
G1 X91.782 Y156.693 E9.17348
G1 X91.299 Y156.531 E9.21975
G1 X90.803 Y156.418 E9.26601
G1 X90.299 Y156.355 E9.31228
G1 X89.790 Y156.342 E9.35854
G1 X89.282 Y156.380 E9.40481
G1 X88.781 Y156.469 E9.45107
G1 X88.292 Y156.606 E9.49734
G1 X87.818 Y156.792 E9.54361
G1 X87.365 Y157.024 E9.58987
G1 X86.938 Y157.300 E9.63614
G1 X86.540 Y157.618 E9.68240
G1 X86.176 Y157.973 E9.72867
G1 X85.849 Y158.363 E9.77494
G1 X85.549 Y158.802 E9.82325
G1 X85.213 Y159.462 E9.89062
G1 X85.040 Y159.941 E9.93694
G1 X84.914 Y160.433 E9.98312
G1 X84.839 Y160.936 E10.02938
G1 X84.813 Y161.444 E10.07565
G1 X84.839 Y161.953 E10.12192
G1 X84.914 Y162.456 E10.16818
G1 X85.040 Y162.949 E10.21445
G1 X85.214 Y163.427 E10.26071
G1 X85.435 Y163.885 E10.30698
G1 X85.700 Y164.319 E10.35325
G1 X86.007 Y164.725 E10.39951
G1 X86.353 Y165.098 E10.44578
G1 X86.735 Y165.435 E10.49204
G1 X87.148 Y165.732 E10.53831
G1 X87.589 Y165.986 E10.58457
G1 X88.052 Y166.195 E10.63084
G1 X88.535 Y166.357 E10.67711
G1 X89.031 Y166.471 E10.72337
G1 X89.582 Y166.540 E10.77385
G1 X88.950 Y167.255 E10.86059
G1 X87.606 Y168.629 E11.03535
G1 X86.288 Y169.852 E11.19892
G1 X84.863 Y171.048 E11.36803
G1 X83.380 Y172.171 E11.53715
G1 X81.844 Y173.218 E11.70626
G1 X80.257 Y174.188 E11.87537
G1 X78.624 Y175.078 E12.04448
G1 X76.948 Y175.885 E12.21359
G1 X75.234 Y176.607 E12.38271
G1 X73.486 Y177.243 E12.55182
G1 X71.709 Y177.791 E12.72093
G1 X69.907 Y178.250 E12.89004
G1 X68.084 Y178.619 E13.05915
G1 X66.245 Y178.896 E13.22827
G1 X64.394 Y179.081 E13.39738
G1 X62.537 Y179.174 E13.56649
G1 X60.677 Y179.174 E13.73560
G1 X58.820 Y179.081 E13.90471
G1 X56.969 Y178.896 E14.07383
G1 X55.130 Y178.619 E14.24294
G1 X53.307 Y178.250 E14.41205
G1 X51.505 Y177.791 E14.58116
G1 X49.728 Y177.243 E14.75027
G1 X47.980 Y176.607 E14.91939
G1 X46.266 Y175.885 E15.08850
G1 X44.590 Y175.078 E15.25761
G1 X42.957 Y174.188 E15.42672
G1 X41.370 Y173.218 E15.59583
G1 X39.834 Y172.171 E15.76495
G1 X38.351 Y171.048 E15.93406
G1 X36.926 Y169.852 E16.10317
G1 X35.563 Y168.587 E16.27228
G1 X34.264 Y167.256 E16.44139
G1 X33.034 Y165.861 E16.61051
G1 X31.874 Y164.407 E16.77962
G1 X30.789 Y162.897 E16.94873
G1 X29.780 Y161.335 E17.11784
G1 X28.850 Y159.724 E17.28695
G1 X28.001 Y158.069 E17.45607
G1 X27.236 Y156.374 E17.62518
G1 X26.557 Y154.643 E17.79429
G1 X25.964 Y152.880 E17.96340
G1 X25.461 Y151.090 E18.13251
G1 X25.047 Y149.276 E18.30163
G1 X24.724 Y147.445 E18.47074
G1 X24.493 Y145.600 E18.63985
G1 X24.413 Y144.536 E18.73686
G1 X25.055 Y145.162 E18.81841
G1 X25.631 Y145.599 E18.88416
G1 X26.089 Y145.863 E18.93225
G1 X26.553 Y146.072 E18.97851
G1 X27.035 Y146.234 E19.02478
G1 X27.532 Y146.347 E19.07104
G1 X28.036 Y146.411 E19.11731
G1 X28.545 Y146.423 E19.16357
G1 X29.052 Y146.385 E19.20984
G1 X29.554 Y146.297 E19.25611
G1 X30.043 Y146.159 E19.30237
G1 X30.517 Y145.973 E19.34864
G1 X30.970 Y145.741 E19.39490
G1 X31.397 Y145.465 E19.44117
G1 X31.795 Y145.148 E19.48744
G1 X32.159 Y144.793 E19.53370
G1 X32.486 Y144.403 E19.57997
G1 X32.773 Y143.982 E19.62623
G1 X33.016 Y143.536 E19.67250
G1 X33.214 Y143.067 E19.71876
G1 X33.364 Y142.581 E19.76503
G1 X33.465 Y142.082 E19.81130
G1 X33.515 Y141.576 E19.85756
G1 X33.515 Y141.067 E19.90383
G1 X33.465 Y140.560 E19.95009
G1 X33.364 Y140.062 E19.99636
G1 X33.214 Y139.576 E20.04263
G1 X33.016 Y139.107 E20.08889
G1 X32.773 Y138.660 E20.13516
G1 X32.486 Y138.239 E20.18142
G1 X32.159 Y137.850 E20.22769
G1 X31.781 Y137.480 E20.27577
G1 X31.204 Y137.044 E20.34153
G1 X30.746 Y136.779 E20.38961
G1 X30.282 Y136.570 E20.43588
G1 X29.800 Y136.408 E20.48214
G1 X29.304 Y136.295 E20.52841
G1 X28.799 Y136.232 E20.57468
G1 X28.291 Y136.219 E20.62094
G1 X27.783 Y136.257 E20.66721
G1 X27.282 Y136.345 E20.71347
G1 X26.792 Y136.483 E20.75974
G1 X26.319 Y136.669 E20.80601
G1 X25.866 Y136.901 E20.85227
G1 X25.438 Y137.177 E20.89854
G1 X25.041 Y137.494 E20.94480
G1 X24.801 Y137.728 E20.97520
G1 X24.563 Y137.609 E20.99939
G1 X24.724 Y136.326 E21.11695
G1 X25.047 Y134.495 E21.28607
G1 X25.461 Y132.682 E21.45518
G1 X25.964 Y130.891 E21.62429
G1 X26.557 Y129.128 E21.79340
G1 X27.236 Y127.397 E21.96251
G1 X28.001 Y125.702 E22.13163
G1 X28.850 Y124.047 E22.30074
G1 X29.780 Y122.436 E22.46985
G1 X30.789 Y120.874 E22.63896
G1 X31.874 Y119.364 E22.80807
