; generated by PrusaSlicer 2.3.3+linux-x64 on 2021-10-29 at 14:39:55 UTC

; 

; external perimeters extrusion width = 0.45mm
; perimeters extrusion width = 0.45mm
; infill extrusion width = 0.45mm
; solid infill extrusion width = 0.45mm
; top infill extrusion width = 0.40mm
; first layer extrusion width = 0.70mm

M107
M104 S200 ; set temperature
;TYPE:Custom
G28 ; home all axes
G1 Z5 F5000 ; lift nozzle
M109 S200 ; set temperature and wait for it to be reached
G21 ; set units to millimeters
G90 ; use absolute coordinates
M82 ; use absolute distances for extrusion
G92 E0
; Filament gcode
;LAYER_CHANGE
;Z:0.35
;HEIGHT:0.35
G1 Z0.350 F7800.000
G1 E-2.00000 F2400.000
G92 E0
G1 X68.072 Y67.268 F7800.000
G1 E2.00000 F2400.000
;TYPE:Skirt
;WIDTH:0.7
G1 F1800.000
G1 X69.745 Y65.716 E2.20745
G1 X71.484 Y64.256 E2.41395
G1 X73.307 Y62.875 E2.62193
G1 X75.192 Y61.590 E2.82938
G1 X77.130 Y60.406 E3.03588
G1 X79.131 Y59.316 E3.24305
G1 X81.185 Y58.326 E3.45036
G1 X83.273 Y57.445 E3.65651
G1 X85.436 Y56.657 E3.86579
G1 X87.616 Y55.984 E4.07324
G1 X89.825 Y55.421 E4.28055
G1 X92.048 Y54.972 E4.48671
G1 X94.306 Y54.631 E4.69436
G1 X96.560 Y54.405 E4.90038
G1 X98.837 Y54.290 E5.10769
G1 X100.980 Y54.287 E5.30251
G1 X103.398 Y54.402 E5.52267
G1 X105.673 Y54.628 E5.73056
G1 X107.940 Y54.970 E5.93903
G1 X110.154 Y55.417 E6.14437
G1 X112.374 Y55.982 E6.35270
G1 X114.553 Y56.653 E6.56001
G1 X116.704 Y57.435 E6.76813
G1 X118.783 Y58.311 E6.97327
G1 X120.860 Y59.311 E7.18289
G1 X122.857 Y60.398 E7.38962
G1 X124.808 Y61.590 E7.59751
G1 X126.674 Y62.862 E7.80285
G1 X128.501 Y64.245 E8.01118
G1 X130.245 Y65.707 E8.21815
G1 X131.911 Y67.252 E8.42479
G1 X133.398 Y68.772 E8.61808
G1 X135.132 Y70.736 E8.85636
G1 X136.464 Y72.412 E9.05098
G1 X137.871 Y74.380 E9.27097
G1 X139.023 Y76.168 E9.46443
G1 X140.169 Y78.154 E9.67290
G1 X141.205 Y80.178 E9.87963
G1 X142.197 Y82.392 E10.10021
G1 X142.972 Y84.373 E10.29367
G1 X143.697 Y86.535 E10.50098
G1 X144.311 Y88.717 E10.70713
G1 X144.821 Y90.956 E10.91595
G1 X145.214 Y93.184 E11.12162
G1 X145.499 Y95.460 E11.33022
G1 X145.668 Y97.725 E11.53672
G1 X145.723 Y100.151 E11.75742
G1 X145.667 Y102.292 E11.95215
G1 X145.496 Y104.566 E12.15946
G1 X145.214 Y106.815 E12.36561
G1 X144.816 Y109.073 E12.57408
G1 X144.311 Y111.283 E12.78023
G1 X143.693 Y113.478 E12.98755
G1 X142.967 Y115.639 E13.19486
G1 X142.133 Y117.765 E13.40251
G1 X141.197 Y119.838 E13.60934
G1 X140.161 Y121.860 E13.81598
G1 X139.017 Y123.841 E14.02396
G1 X137.780 Y125.758 E14.23141
G1 X136.449 Y127.609 E14.43872
G1 X135.033 Y129.385 E14.64522
G1 X133.526 Y131.093 E14.85239
G1 X131.919 Y132.741 E15.06167
G1 X130.255 Y134.284 E15.26796
G1 X128.509 Y135.749 E15.47527
G1 X126.691 Y137.126 E15.68258
G1 X124.808 Y138.410 E15.88990
G1 X122.862 Y139.599 E16.09720
G1 X120.868 Y140.685 E16.30370
G1 X118.815 Y141.674 E16.51088
G1 X116.706 Y142.564 E16.71900
G1 X114.563 Y143.344 E16.92645
G1 X112.384 Y144.016 E17.13376
G1 X110.175 Y144.579 E17.34107
G1 X107.940 Y145.030 E17.54838
G1 X105.694 Y145.369 E17.75488
G1 X103.427 Y145.596 E17.96205
G1 X101.150 Y145.710 E18.16936
G1 X98.874 Y145.711 E18.37633
G1 X96.583 Y145.597 E18.58493
G1 X94.314 Y145.370 E18.79224
G1 X92.060 Y145.030 E18.99956
G1 X89.825 Y144.578 E19.20686
G1 X87.624 Y144.018 E19.41336
G1 X85.447 Y143.347 E19.62054
G1 X83.304 Y142.568 E19.82785
G1 X81.207 Y141.684 E20.03481
G1 X79.140 Y140.689 E20.24342
G1 X77.137 Y139.599 E20.45073
G1 X75.192 Y138.410 E20.65804
G1 X73.326 Y137.138 E20.86338
G1 X71.492 Y135.750 E21.07252
G1 X69.754 Y134.292 E21.27881
G1 X68.082 Y132.742 E21.48612
G1 X66.597 Y131.222 E21.67933
G1 X64.868 Y129.264 E21.91689
G1 X63.536 Y127.588 E22.11151
G1 X62.129 Y125.620 E22.33150
G1 X60.977 Y123.832 E22.52496
G1 X59.831 Y121.846 E22.73343
G1 X58.795 Y119.822 E22.94016
G1 X57.803 Y117.608 E23.16074
G1 X57.028 Y115.627 E23.35420
G1 X56.306 Y113.474 E23.56070
G1 X55.689 Y111.284 E23.76753
G1 X55.177 Y109.035 E23.97729
G1 X54.786 Y106.815 E24.18229
G1 X54.501 Y104.540 E24.39075
G1 X54.331 Y102.266 E24.59806
G1 X54.277 Y99.847 E24.81809
G1 X54.332 Y97.717 E25.01187
G1 X54.503 Y95.436 E25.21985
G1 X54.785 Y93.194 E25.42533
G1 X55.182 Y90.937 E25.63366
G1 X55.689 Y88.718 E25.84062
G1 X56.307 Y86.522 E26.04807
G1 X57.033 Y84.361 E26.25538
G1 X57.867 Y82.235 E26.46304
G1 X58.803 Y80.162 E26.66987
G1 X59.839 Y78.140 E26.87650
G1 X60.978 Y76.166 E27.08368
G1 X62.215 Y74.251 E27.29099
G1 X63.545 Y72.399 E27.49829
G1 X64.966 Y70.617 E27.70561
G1 X66.474 Y68.907 E27.91292
G1 X68.030 Y67.311 E28.11558
G1 X69.417 Y68.667 F7800.000
G1 F1800.000
G1 X71.076 Y67.127 E28.32143
G1 X72.738 Y65.736 E28.51849
G1 X74.479 Y64.420 E28.71700
G1 X76.285 Y63.192 E28.91552
G1 X78.149 Y62.056 E29.11403
G1 X80.053 Y61.021 E29.31111
G1 X82.021 Y60.075 E29.50962
G1 X84.033 Y59.228 E29.70815
G1 X86.085 Y58.483 E29.90667
G1 X88.172 Y57.841 E30.10519
G1 X90.273 Y57.308 E30.30229
G1 X92.413 Y56.876 E30.50078
G1 X94.571 Y56.551 E30.69924
G1 X96.743 Y56.335 E30.89775
G1 X98.908 Y56.227 E31.09486
G1 X101.092 Y56.227 E31.29339
G1 X103.272 Y56.336 E31.49190
G1 X105.429 Y56.551 E31.68899
G1 X107.588 Y56.876 E31.88751
G1 X109.728 Y57.308 E32.08603
G1 X111.844 Y57.846 E32.28455
G1 X113.930 Y58.488 E32.48308
G1 X115.982 Y59.234 E32.68159
G1 X117.994 Y60.082 E32.88009
G1 X119.961 Y61.028 E33.07859
G1 X121.879 Y62.071 E33.27710
G1 X123.742 Y63.209 E33.47560
G1 X125.546 Y64.438 E33.67413
G1 X127.287 Y65.756 E33.87265
G1 X128.960 Y67.158 E34.07117
G1 X130.550 Y68.632 E34.26827
G1 X132.076 Y70.194 E34.46679
G1 X133.521 Y71.830 E34.66531
G1 X134.884 Y73.535 E34.86383
G1 X136.160 Y75.307 E35.06234
G1 X137.346 Y77.140 E35.26086
G1 X138.431 Y79.016 E35.45796
G1 X139.429 Y80.958 E35.65648
G1 X140.329 Y82.947 E35.85500
G1 X141.129 Y84.979 E36.05352
G1 X141.827 Y87.047 E36.25205
G1 X142.421 Y89.148 E36.45057
G1 X142.909 Y91.276 E36.64908
G1 X143.288 Y93.410 E36.84614
G1 X143.562 Y95.575 E37.04462
G1 X143.729 Y97.752 E37.24315
G1 X143.787 Y99.935 E37.44167
G1 X143.735 Y102.117 E37.64019
G1 X143.575 Y104.295 E37.83871
G1 X143.307 Y106.462 E38.03724
G1 X142.931 Y108.612 E38.23576
G1 X142.449 Y110.741 E38.43428
G1 X141.860 Y112.844 E38.63281
G1 X141.168 Y114.915 E38.83133
G1 X140.374 Y116.948 E39.02985
G1 X139.479 Y118.940 E39.22837
G1 X138.485 Y120.884 E39.42690
G1 X137.397 Y122.776 E39.62542
G1 X136.215 Y124.612 E39.82394
G1 X134.943 Y126.387 E40.02247
G1 X133.584 Y128.096 E40.22099
G1 X132.153 Y129.722 E40.41801
G1 X130.528 Y131.390 E40.62977
G1 X128.936 Y132.863 E40.82694
G1 X127.262 Y134.264 E41.02546
G1 X125.520 Y135.581 E41.22398
G1 X123.715 Y136.808 E41.42251
G1 X121.851 Y137.945 E41.62103
G1 X119.933 Y138.987 E41.81952
G1 X117.979 Y139.925 E42.01658
G1 X115.967 Y140.772 E42.21508
G1 X113.915 Y141.517 E42.41360
G1 X111.828 Y142.159 E42.61213
G1 X109.727 Y142.692 E42.80922
G1 X107.587 Y143.124 E43.00772
G1 X105.429 Y143.449 E43.20618
G1 X103.257 Y143.665 E43.40469
G1 X101.092 Y143.773 E43.60180
G1 X98.908 Y143.773 E43.80032
G1 X96.728 Y143.664 E43.99884
G1 X94.571 Y143.449 E44.19593
G1 X92.412 Y143.124 E44.39445
G1 X90.272 Y142.692 E44.59297
G1 X88.156 Y142.154 E44.79149
G1 X86.070 Y141.512 E44.99001
G1 X84.018 Y140.766 E45.18853
G1 X82.006 Y139.918 E45.38703
G1 X80.039 Y138.972 E45.58554
G1 X78.121 Y137.928 E45.78406
G1 X76.258 Y136.791 E45.98258
G1 X74.466 Y135.571 E46.17968
G1 X72.725 Y134.254 E46.37817
G1 X71.052 Y132.852 E46.57668
G1 X69.450 Y131.368 E46.77520
G1 X67.924 Y129.806 E46.97373
G1 X66.479 Y128.170 E47.17224
G1 X65.116 Y126.465 E47.37077
G1 X63.840 Y124.693 E47.56929
G1 X62.663 Y122.873 E47.76638
G1 X61.569 Y120.984 E47.96489
G1 X60.571 Y119.042 E48.16341
G1 X59.671 Y117.053 E48.36194
G1 X58.871 Y115.021 E48.56046
G1 X58.173 Y112.953 E48.75898
G1 X57.579 Y110.852 E48.95750
G1 X57.091 Y108.724 E49.15600
G1 X56.710 Y106.575 E49.35451
G1 X56.436 Y104.409 E49.55302
G1 X56.271 Y102.247 E49.75010
G1 X56.213 Y100.065 E49.94860
G1 X56.265 Y97.883 E50.14713
G1 X56.425 Y95.705 E50.34565
G1 X56.693 Y93.538 E50.54418
G1 X57.069 Y91.388 E50.74270
G1 X57.551 Y89.259 E50.94122
G1 X58.140 Y87.156 E51.13974
G1 X58.832 Y85.085 E51.33827
G1 X59.626 Y83.052 E51.53679
G1 X60.521 Y81.060 E51.73531
G1 X61.515 Y79.116 E51.93384
G1 X62.603 Y77.224 E52.13236
G1 X63.785 Y75.388 E52.33088
G1 X65.047 Y73.627 E52.52790
G1 X66.499 Y71.805 E52.73969
G1 X67.947 Y70.170 E52.93830
G1 X69.375 Y68.710 E53.12399
G1 X69.821 Y69.147 F7800.000
G1 F1800.000
G1 X71.483 Y67.601 E53.33035
G1 X73.121 Y66.230 E53.52458
G1 X74.837 Y64.932 E53.72027
G1 X76.617 Y63.721 E53.91596
G1 X78.454 Y62.601 E54.11163
G1 X80.331 Y61.581 E54.30589
G1 X82.270 Y60.648 E54.50158
G1 X84.254 Y59.813 E54.69727
G1 X86.277 Y59.078 E54.89296
G1 X88.333 Y58.445 E55.08864
G1 X90.419 Y57.915 E55.28432
G1 X92.528 Y57.490 E55.47998
G1 X94.641 Y57.172 E55.67421
G1 X96.782 Y56.958 E55.86989
G1 X98.932 Y56.852 E56.06558
G1 X101.084 Y56.852 E56.26127
G1 X103.233 Y56.960 E56.45695
G1 X105.359 Y57.172 E56.65122
G1 X107.487 Y57.493 E56.84691
G1 X109.597 Y57.919 E57.04260
G1 X111.682 Y58.449 E57.23829
G1 X113.739 Y59.083 E57.43398
G1 X115.761 Y59.819 E57.62966
G1 X117.744 Y60.654 E57.82533
G1 X119.683 Y61.588 E58.02100
G1 X121.573 Y62.617 E58.21668
G1 X123.397 Y63.730 E58.41095
G1 X125.176 Y64.941 E58.60665
G1 X126.892 Y66.240 E58.80234
G1 X128.541 Y67.622 E58.99802
G1 X130.120 Y69.085 E59.19370
G1 X131.623 Y70.625 E59.38938
G1 X133.048 Y72.237 E59.58507
G1 X134.391 Y73.919 E59.78076
G1 X135.648 Y75.666 E59.97643
G1 X136.817 Y77.473 E60.17212
G1 X137.886 Y79.322 E60.36640
G1 X138.870 Y81.237 E60.56209
G1 X139.757 Y83.197 E60.75778
G1 X140.545 Y85.200 E60.95347
G1 X141.232 Y87.239 E61.14916
G1 X141.817 Y89.311 E61.34485
G1 X142.298 Y91.408 E61.54054
G1 X142.671 Y93.511 E61.73477
G1 X142.942 Y95.646 E61.93043
G1 X143.105 Y97.792 E62.12612
G1 X143.162 Y99.943 E62.32181
G1 X143.111 Y102.095 E62.51750
G1 X142.953 Y104.241 E62.71319
G1 X142.688 Y106.377 E62.90888
G1 X142.317 Y108.497 E63.10457
G1 X141.841 Y110.596 E63.30025
G1 X141.261 Y112.668 E63.49595
G1 X140.578 Y114.709 E63.69164
G1 X139.794 Y116.713 E63.88732
G1 X138.912 Y118.676 E64.08301
G1 X137.933 Y120.593 E64.27871
G1 X136.859 Y122.458 E64.47439
G1 X135.694 Y124.267 E64.67008
G1 X134.440 Y126.016 E64.86577
G1 X133.100 Y127.700 E65.06146
G1 X131.689 Y129.303 E65.25564
G1 X130.097 Y130.937 E65.46306
G1 X128.529 Y132.389 E65.65738
G1 X126.879 Y133.771 E65.85307
G1 X125.162 Y135.068 E66.04876
G1 X123.383 Y136.279 E66.24445
G1 X121.546 Y137.399 E66.44014
G1 X119.655 Y138.427 E66.63580
G1 X117.730 Y139.352 E66.83004
G1 X115.746 Y140.187 E67.02571
G1 X113.723 Y140.922 E67.22140
G1 X111.667 Y141.555 E67.41709
G1 X109.581 Y142.085 E67.61276
G1 X107.472 Y142.510 E67.80843
G1 X105.359 Y142.828 E68.00266
G1 X103.218 Y143.042 E68.19834
G1 X101.068 Y143.148 E68.39403
G1 X98.916 Y143.148 E68.58972
G1 X96.767 Y143.040 E68.78540
G1 X94.641 Y142.828 E68.97967
G1 X92.513 Y142.507 E69.17536
G1 X90.403 Y142.081 E69.37105
G1 X88.318 Y141.551 E69.56674
G1 X86.261 Y140.917 E69.76243
G1 X84.239 Y140.181 E69.95811
G1 X82.256 Y139.346 E70.15378
G1 X80.317 Y138.412 E70.34945
G1 X78.427 Y137.383 E70.54514
G1 X76.590 Y136.262 E70.74084
G1 X74.824 Y135.059 E70.93511
G1 X73.108 Y133.760 E71.13077
G1 X71.459 Y132.378 E71.32645
G1 X69.880 Y130.915 E71.52214
G1 X68.377 Y129.375 E71.71783
G1 X66.952 Y127.763 E71.91352
G1 X65.609 Y126.081 E72.10921
G1 X64.352 Y124.334 E72.30490
G1 X63.191 Y122.540 E72.49917
G1 X62.114 Y120.678 E72.69485
G1 X61.130 Y118.763 E72.89054
G1 X60.243 Y116.803 E73.08623
G1 X59.455 Y114.800 E73.28192
G1 X58.768 Y112.761 E73.47761
G1 X58.183 Y110.689 E73.67329
G1 X57.702 Y108.592 E73.86896
G1 X57.326 Y106.473 E74.06463
G1 X57.057 Y104.338 E74.26032
G1 X56.895 Y102.208 E74.45458
G1 X56.838 Y100.057 E74.65025
G1 X56.889 Y97.905 E74.84595
G1 X57.047 Y95.759 E75.04163
G1 X57.312 Y93.623 E75.23733
G1 X57.683 Y91.503 E75.43301
G1 X58.159 Y89.404 E75.62870
G1 X58.739 Y87.332 E75.82439
G1 X59.422 Y85.291 E76.02008
G1 X60.206 Y83.287 E76.21577
G1 X61.088 Y81.324 E76.41146
G1 X62.067 Y79.407 E76.60715
G1 X63.141 Y77.542 E76.80284
G1 X64.306 Y75.733 E76.99853
G1 X65.551 Y73.997 E77.19271
G1 X66.972 Y72.213 E77.40014
G1 X68.399 Y70.601 E77.59590
G1 X69.779 Y69.190 E77.77542
G1 X70.226 Y69.626 F7800.000
G1 F1800.000
G1 X71.890 Y68.075 E77.98228
G1 X73.504 Y66.723 E78.17370
G1 X75.195 Y65.444 E78.36655
G1 X76.949 Y64.251 E78.55940
G1 X78.759 Y63.146 E78.75226
G1 X80.609 Y62.140 E78.94369
G1 X82.520 Y61.221 E79.13655
G1 X84.475 Y60.398 E79.32940
G1 X86.468 Y59.673 E79.52226
G1 X88.495 Y59.049 E79.71511
G1 X90.550 Y58.526 E79.90795
G1 X92.629 Y58.107 E80.10079
G1 X94.711 Y57.793 E80.29220
G1 X96.821 Y57.582 E80.48505
G1 X98.939 Y57.476 E80.67791
G1 X101.060 Y57.476 E80.87076
G1 X103.179 Y57.582 E81.06362
G1 X105.274 Y57.791 E81.25507
G1 X107.371 Y58.107 E81.44793
G1 X109.450 Y58.526 E81.64078
G1 X111.506 Y59.049 E81.83364
G1 X113.533 Y59.673 E82.02650
G1 X115.526 Y60.398 E82.21935
G1 X117.480 Y61.221 E82.41218
G1 X119.391 Y62.140 E82.60502
G1 X121.254 Y63.154 E82.79786
G1 X123.064 Y64.259 E82.99071
G1 X124.817 Y65.453 E83.18357
G1 X126.509 Y66.733 E83.37643
G1 X128.134 Y68.096 E83.56928
G1 X129.689 Y69.538 E83.76212
G1 X131.170 Y71.056 E83.95497
G1 X132.574 Y72.645 E84.14783
G1 X133.897 Y74.303 E84.34069
G1 X135.127 Y76.012 E84.53213
G1 X136.280 Y77.792 E84.72499
G1 X137.341 Y79.628 E84.91785
G1 X138.310 Y81.515 E85.11070
G1 X139.184 Y83.448 E85.30356
G1 X139.961 Y85.421 E85.49642
G1 X140.638 Y87.431 E85.68927
G1 X141.214 Y89.473 E85.88213
G1 X141.687 Y91.540 E86.07498
G1 X142.055 Y93.613 E86.26640
G1 X142.321 Y95.717 E86.45923
G1 X142.481 Y97.832 E86.65209
G1 X142.537 Y99.952 E86.84494
G1 X142.486 Y102.072 E87.03780
G1 X142.330 Y104.187 E87.23065
G1 X142.069 Y106.292 E87.42351
G1 X141.703 Y108.381 E87.61637
G1 X141.233 Y110.450 E87.80922
G1 X140.661 Y112.492 E88.00208
G1 X139.988 Y114.503 E88.19494
G1 X139.215 Y116.478 E88.38780
G1 X138.345 Y118.413 E88.58065
G1 X137.380 Y120.301 E88.77351
G1 X136.321 Y122.139 E88.96636
G1 X135.173 Y123.922 E89.15922
G1 X133.937 Y125.645 E89.35208
G1 X132.616 Y127.305 E89.54494
G1 X131.225 Y128.885 E89.73627
G1 X129.667 Y130.484 E89.93935
G1 X128.122 Y131.915 E90.13084
G1 X126.496 Y133.277 E90.32369
G1 X124.804 Y134.556 E90.51655
G1 X123.051 Y135.750 E90.70941
G1 X121.240 Y136.854 E90.90226
G1 X119.377 Y137.867 E91.09510
G1 X117.480 Y138.779 E91.28652
G1 X115.525 Y139.602 E91.47936
G1 X113.532 Y140.327 E91.67222
G1 X111.505 Y140.951 E91.86507
G1 X109.450 Y141.474 E92.05791
G1 X107.371 Y141.893 E92.25075
G1 X105.289 Y142.207 E92.44216
G1 X103.179 Y142.418 E92.63501
G1 X101.061 Y142.524 E92.82786
G1 X98.940 Y142.524 E93.02072
G1 X96.821 Y142.418 E93.21358
G1 X94.726 Y142.209 E93.40502
G1 X92.629 Y141.893 E93.59789
G1 X90.550 Y141.474 E93.79074
G1 X88.494 Y140.951 E93.98360
G1 X86.467 Y140.327 E94.17645
G1 X84.474 Y139.602 E94.36931
G1 X82.520 Y138.779 E94.56213
G1 X80.609 Y137.860 E94.75498
G1 X78.745 Y136.846 E94.94784
G1 X76.935 Y135.741 E95.14069
G1 X75.182 Y134.547 E95.33355
G1 X73.492 Y133.267 E95.52637
G1 X71.866 Y131.904 E95.71922
G1 X70.311 Y130.462 E95.91207
G1 X68.830 Y128.944 E96.10493
G1 X67.426 Y127.355 E96.29778
G1 X66.103 Y125.697 E96.49064
G1 X64.864 Y123.975 E96.68350
G1 X63.720 Y122.208 E96.87495
G1 X62.659 Y120.372 E97.06781
G1 X61.690 Y118.485 E97.26066
G1 X60.816 Y116.552 E97.45352
G1 X60.039 Y114.579 E97.64638
G1 X59.362 Y112.569 E97.83923
G1 X58.786 Y110.527 E98.03208
G1 X58.313 Y108.460 E98.22491
G1 X57.943 Y106.372 E98.41776
G1 X57.678 Y104.268 E98.61062
G1 X57.519 Y102.168 E98.80205
G1 X57.463 Y100.048 E98.99490
G1 X57.514 Y97.928 E99.18776
G1 X57.670 Y95.813 E99.38061
G1 X57.931 Y93.708 E99.57347
G1 X58.297 Y91.619 E99.76633
G1 X58.767 Y89.550 E99.95918
G1 X59.339 Y87.508 E100.15204
G1 X60.012 Y85.497 E100.34490
G1 X60.785 Y83.522 E100.53775
G1 X61.655 Y81.587 E100.73061
G1 X62.620 Y79.699 E100.92347
G1 X63.679 Y77.861 E101.11632
G1 X64.827 Y76.078 E101.30918
G1 X66.054 Y74.368 E101.50052
G1 X67.446 Y72.621 E101.70360
G1 X68.851 Y71.032 E101.89651
G1 X70.184 Y69.669 E102.06986
