; generated by PrusaSlicer 2.3.3+linux-x64 on 2021-11-12 at 20:19:21 UTC

; 

; external perimeters extrusion width = 0.45mm
; perimeters extrusion width = 0.45mm
; infill extrusion width = 0.45mm
; solid infill extrusion width = 0.45mm
; top infill extrusion width = 0.40mm
; first layer extrusion width = 0.70mm

M107
M104 S200 ; set temperature
;TYPE:Custom
G28 ; home all axes
G1 Z5 F5000 ; lift nozzle
M109 S200 ; set temperature and wait for it to be reached
G21 ; set units to millimeters
G90 ; use absolute coordinates
M82 ; use absolute distances for extrusion
G92 E0
; Filament gcode
;LAYER_CHANGE
;Z:0.35
;HEIGHT:0.35
G1 Z0.350 F7800.000
G1 E-2.00000 F2400.000
G92 E0
G1 X40.112 Y105.300 F7800.000
G1 E2.00000 F2400.000
;TYPE:Skirt
;WIDTH:0.7
G1 F1800.000
G1 X42.266 Y104.516 E2.20847
G1 X44.445 Y103.844 E2.41578
G1 X46.654 Y103.281 E2.62309
G1 X48.876 Y102.832 E2.82925
G1 X51.143 Y102.490 E3.03771
G1 X53.399 Y102.264 E3.24387
G1 X55.676 Y102.149 E3.45118
G1 X57.810 Y102.147 E3.64519
G1 X60.233 Y102.262 E3.86579
G1 X62.502 Y102.488 E4.07310
G1 X64.763 Y102.829 E4.28099
G1 X66.979 Y103.276 E4.48657
G1 X69.213 Y103.844 E4.69619
G1 X71.380 Y104.512 E4.90235
G1 X73.522 Y105.291 E5.10966
G1 X75.484 Y106.115 E5.30309
G1 X77.672 Y107.162 E5.52369
G1 X79.669 Y108.248 E5.73042
G1 X81.626 Y109.443 E5.93889
G1 X83.385 Y110.639 E6.13233
G1 X86.524 Y113.103 E6.49512
G1 X88.872 Y115.244 E6.78410
G1 X90.356 Y116.768 E6.97757
G1 X91.864 Y118.478 E7.18488
G1 X93.278 Y120.251 E7.39103
G1 X94.616 Y122.113 E7.59950
G1 X95.846 Y124.017 E7.80565
G1 X96.986 Y125.992 E8.01296
G1 X98.026 Y128.021 E8.22027
G1 X98.973 Y130.122 E8.42990
G1 X99.796 Y132.221 E8.63490
G1 X100.524 Y134.388 E8.84279
G1 X101.140 Y136.577 E9.04952
G1 X101.650 Y138.812 E9.25799
G1 X102.043 Y141.045 E9.46414
G1 X102.328 Y143.320 E9.67261
G1 X102.498 Y145.593 E9.87992
G1 X102.552 Y148.013 E10.09994
G1 X102.496 Y150.152 E10.29453
G1 X102.325 Y152.425 E10.50184
G1 X102.043 Y154.675 E10.70800
G1 X101.645 Y156.933 E10.91647
G1 X101.140 Y159.143 E11.12262
G1 X100.522 Y161.338 E11.32993
G1 X99.796 Y163.499 E11.53724
G1 X98.958 Y165.633 E11.74571
G1 X98.026 Y167.699 E11.95186
G1 X96.985 Y169.728 E12.15917
G1 X95.845 Y171.702 E12.36649
G1 X94.608 Y173.618 E12.57380
G1 X93.278 Y175.469 E12.78111
G1 X91.856 Y177.251 E12.98842
G1 X90.347 Y178.961 E13.19573
G1 X88.751 Y180.597 E13.40362
G1 X87.084 Y182.144 E13.61035
G1 X85.338 Y183.609 E13.81766
G1 X83.520 Y184.986 E14.02497
G1 X81.637 Y186.270 E14.23228
G1 X79.691 Y187.459 E14.43959
G1 X77.689 Y188.549 E14.64691
G1 X75.635 Y189.538 E14.85422
G1 X73.534 Y190.424 E15.06153
G1 X71.391 Y191.204 E15.26884
G1 X69.213 Y191.876 E15.47615
G1 X67.003 Y192.438 E15.68346
G1 X64.769 Y192.890 E15.89077
G1 X62.514 Y193.230 E16.09808
G1 X60.246 Y193.457 E16.30539
G1 X57.969 Y193.570 E16.51270
G1 X55.701 Y193.571 E16.71886
G1 X53.412 Y193.457 E16.92733
G1 X51.143 Y193.230 E17.13464
G1 X48.889 Y192.890 E17.34195
G1 X46.654 Y192.438 E17.54926
G1 X44.445 Y191.876 E17.75657
G1 X42.266 Y191.204 E17.96388
G1 X40.124 Y190.424 E18.17119
G1 X38.034 Y189.543 E18.37735
G1 X35.969 Y188.549 E18.58581
G1 X33.966 Y187.459 E18.79312
G1 X32.021 Y186.270 E19.00044
G1 X30.147 Y184.993 E19.20659
G1 X28.320 Y183.609 E19.41506
G1 X26.583 Y182.152 E19.62121
G1 X24.907 Y180.597 E19.82910
G1 X23.415 Y179.071 E20.02311
G1 X21.810 Y177.261 E20.24314
G1 X20.388 Y175.479 E20.45045
G1 X19.049 Y173.617 E20.65892
G1 X17.825 Y171.724 E20.86391
G1 X16.672 Y169.728 E21.07354
G1 X15.638 Y167.710 E21.27969
G1 X14.699 Y165.633 E21.48700
G1 X13.920 Y163.653 E21.68044
G1 X13.143 Y161.362 E21.90046
G1 X12.561 Y159.302 E22.09505
G1 X11.980 Y156.758 E22.33238
G1 X11.613 Y154.662 E22.52584
G1 X11.329 Y152.387 E22.73431
G1 X11.160 Y150.126 E22.94046
G1 X11.106 Y147.707 E23.16049
G1 X11.161 Y145.568 E23.35508
G1 X11.332 Y143.294 E23.56239
G1 X11.615 Y141.045 E23.76854
G1 X12.013 Y138.787 E23.97701
G1 X12.518 Y136.577 E24.18316
G1 X13.135 Y134.382 E24.39048
G1 X13.862 Y132.221 E24.59779
G1 X14.699 Y130.087 E24.80625
G1 X15.632 Y128.020 E25.01241
G1 X16.672 Y125.992 E25.21972
G1 X17.812 Y124.017 E25.42703
G1 X19.049 Y122.102 E25.63434
G1 X20.380 Y120.251 E25.84165
G1 X21.802 Y118.468 E26.04896
G1 X23.310 Y116.759 E26.25627
G1 X24.902 Y115.127 E26.46359
G1 X26.573 Y113.576 E26.67090
G1 X28.320 Y112.111 E26.87821
G1 X30.137 Y110.734 E27.08552
G1 X32.021 Y109.450 E27.29283
G1 X33.967 Y108.261 E27.50014
G1 X35.969 Y107.170 E27.70745
G1 X38.023 Y106.181 E27.91476
G1 X40.057 Y105.324 E28.11546
G1 E26.11546 F2400.000
G92 E0
G1 X59.723 Y168.212 F7800.000
G1 E2.00000 F2400.000
;TYPE:Perimeter
G1 F1800.000
G1 X60.079 Y168.794 E2.06206
G1 X60.325 Y169.470 E2.12740
G1 X60.432 Y170.180 E2.19273
G1 X60.396 Y170.898 E2.25806
G1 X60.219 Y171.594 E2.32339
G1 X59.907 Y172.241 E2.38872
G1 X59.474 Y172.814 E2.45404
G1 X58.935 Y173.289 E2.51937
G1 X58.313 Y173.648 E2.58470
G1 X57.632 Y173.877 E2.65003
G1 X56.919 Y173.967 E2.71536
G1 X56.202 Y173.913 E2.78068
G1 X55.511 Y173.718 E2.84601
G1 X54.871 Y173.390 E2.91134
G1 X54.310 Y172.943 E2.97667
G1 X53.848 Y172.392 E3.04200
G1 X53.504 Y171.761 E3.10733
G1 X53.293 Y171.075 E3.17265
G1 X53.221 Y170.360 E3.23798
G1 X53.293 Y169.645 E3.30331
G1 X53.504 Y168.958 E3.36865
G1 X53.916 Y168.203 E3.44681
G1 X53.224 Y167.891 E3.51580
G1 X52.542 Y167.498 E3.58743
G1 X51.902 Y167.038 E3.65906
G1 X51.311 Y166.516 E3.73069
G1 X50.776 Y165.939 E3.80232
G1 X50.300 Y165.311 E3.87395
G1 X49.889 Y164.639 E3.94558
G1 X49.548 Y163.929 E4.01721
G1 X49.278 Y163.189 E4.08884
G1 X49.089 Y162.445 E4.15865
G1 X49.013 Y162.018 E4.19810
G1 X48.937 Y161.254 E4.26791
G1 X48.937 Y160.466 E4.33954
G1 X49.015 Y159.682 E4.41117
G1 X49.171 Y158.910 E4.48280
G1 X49.404 Y158.157 E4.55443
G1 X49.710 Y157.431 E4.62606
G1 X50.086 Y156.739 E4.69769
G1 X50.530 Y156.089 E4.76932
G1 X51.036 Y155.486 E4.84090
G1 X51.604 Y154.932 E4.91306
G1 X52.224 Y154.439 E4.98504
G1 X52.885 Y154.013 E5.05655
G1 X53.585 Y153.655 E5.12804
G1 X54.317 Y153.368 E5.19954
G1 X55.074 Y153.155 E5.27103
G1 X55.848 Y153.019 E5.34249
G1 X56.632 Y152.960 E5.41400
G1 X57.418 Y152.980 E5.48552
G1 X58.199 Y153.078 E5.55704
G1 X58.965 Y153.252 E5.62849
G1 X59.710 Y153.502 E5.69998
G1 X60.427 Y153.825 E5.77147
G1 X61.109 Y154.217 E5.84296
G1 X61.732 Y154.665 E5.91275
G1 X62.079 Y154.956 E5.95393
G1 X62.622 Y155.485 E6.02286
G1 X63.128 Y156.089 E6.09445
G1 X63.571 Y156.739 E6.16608
G1 X63.948 Y157.431 E6.23771
G1 X64.254 Y158.157 E6.30934
G1 X64.486 Y158.910 E6.38097
G1 X64.642 Y159.682 E6.45260
G1 X64.721 Y160.466 E6.52423
G1 X64.721 Y161.254 E6.59586
G1 X64.642 Y162.038 E6.66749
G1 X64.490 Y162.790 E6.73731
G1 X64.373 Y163.208 E6.77675
G1 X64.110 Y163.929 E6.84657
G1 X63.768 Y164.639 E6.91820
G1 X63.358 Y165.311 E6.98983
G1 X62.882 Y165.939 E7.06146
G1 X62.346 Y166.516 E7.13309
G1 X61.756 Y167.038 E7.20472
G1 X61.116 Y167.498 E7.27635
G1 X60.434 Y167.891 E7.34798
G1 X59.778 Y168.187 E7.41339
G1 X58.613 Y167.926 F7800.000
G1 F1800.000
G1 X59.203 Y168.559 E7.49211
G1 X59.514 Y169.067 E7.54618
G1 X59.717 Y169.625 E7.60015
G1 X59.805 Y170.211 E7.65411
G1 X59.775 Y170.804 E7.70806
G1 X59.629 Y171.379 E7.76202
G1 X59.372 Y171.914 E7.81598
G1 X59.013 Y172.387 E7.86993
G1 X58.568 Y172.779 E7.92389
G1 X58.054 Y173.076 E7.97784
G1 X57.492 Y173.265 E8.03180
G1 X56.903 Y173.339 E8.08576
G1 X56.311 Y173.294 E8.13971
G1 X55.740 Y173.134 E8.19367
G1 X55.212 Y172.863 E8.24763
G1 X54.748 Y172.493 E8.30158
G1 X54.367 Y172.038 E8.35554
G1 X54.083 Y171.517 E8.40950
G1 X53.908 Y170.950 E8.46345
G1 X53.849 Y170.360 E8.51741
G1 X53.908 Y169.769 E8.57137
G1 X54.083 Y169.202 E8.62533
G1 X54.367 Y168.681 E8.67934
G1 X54.751 Y168.224 E8.73360
G1 X55.105 Y167.946 E8.77446
G1 X54.171 Y167.633 E8.86402
G1 X53.509 Y167.335 E8.93000
G1 X52.881 Y166.972 E8.99596
G1 X52.292 Y166.548 E9.06192
G1 X51.748 Y166.069 E9.12787
G1 X51.255 Y165.537 E9.19383
G1 X50.817 Y164.959 E9.25979
G1 X50.439 Y164.340 E9.32575
G1 X50.124 Y163.686 E9.39171
G1 X49.876 Y163.004 E9.45767
G1 X49.700 Y162.313 E9.52252
G1 X49.633 Y161.932 E9.55771
G1 X49.562 Y161.222 E9.62256
G1 X49.562 Y160.497 E9.68852
G1 X49.634 Y159.775 E9.75448
G1 X49.778 Y159.064 E9.82044
G1 X49.992 Y158.371 E9.88640
G1 X50.273 Y157.703 E9.95236
G1 X50.620 Y157.066 E10.01831
G1 X51.029 Y156.466 E10.08427
G1 X51.495 Y155.911 E10.15016
G1 X52.018 Y155.401 E10.21663
G1 X52.588 Y154.947 E10.28292
G1 X53.197 Y154.555 E10.34876
G1 X53.842 Y154.225 E10.41459
G1 X54.516 Y153.961 E10.48042
G1 X55.213 Y153.765 E10.54626
G1 X55.926 Y153.640 E10.61205
G1 X56.648 Y153.586 E10.67791
G1 X57.372 Y153.604 E10.74376
G1 X58.090 Y153.694 E10.80962
G1 X58.796 Y153.855 E10.87541
G1 X59.482 Y154.085 E10.94123
G1 X60.142 Y154.382 E11.00707
G1 X60.770 Y154.743 E11.07290
G1 X61.349 Y155.159 E11.13769
G1 X61.659 Y155.419 E11.17457
G1 X62.163 Y155.911 E11.23855
G1 X62.629 Y156.466 E11.30448
G1 X63.038 Y157.066 E11.37044
G1 X63.384 Y157.703 E11.43639
G1 X63.666 Y158.371 E11.50235
G1 X63.880 Y159.064 E11.56831
G1 X64.024 Y159.775 E11.63427
G1 X64.096 Y160.497 E11.70023
G1 X64.096 Y161.222 E11.76619
G1 X64.024 Y161.944 E11.83215
G1 X63.882 Y162.643 E11.89700
G1 X63.778 Y163.016 E11.93220
G1 X63.534 Y163.686 E11.99705
G1 X63.219 Y164.340 E12.06300
G1 X62.841 Y164.959 E12.12896
G1 X62.403 Y165.537 E12.19492
G1 X61.909 Y166.069 E12.26088
G1 X61.365 Y166.549 E12.32684
G1 X60.777 Y166.972 E12.39280
G1 X60.148 Y167.335 E12.45875
G1 X59.487 Y167.633 E12.52473
G1 X58.670 Y167.907 E12.60310
G1 X58.533 Y167.283 F7800.000
;TYPE:External perimeter
G1 F1800.000
G1 X57.980 Y167.404 E12.65456
G1 X57.631 Y167.446 E12.68653
G1 X56.027 Y167.446 E12.83243
G1 X55.678 Y167.404 E12.86439
G1 X55.029 Y167.262 E12.92474
G1 X54.399 Y167.051 E12.98517
G1 X53.795 Y166.778 E13.04546
G1 X53.221 Y166.446 E13.10575
G1 X52.682 Y166.059 E13.16603
G1 X52.185 Y165.621 E13.22632
G1 X51.734 Y165.135 E13.28661
G1 X51.334 Y164.606 E13.34689
G1 X50.988 Y164.040 E13.40718
G1 X50.701 Y163.443 E13.46746
G1 X50.474 Y162.820 E13.52775
G1 X50.311 Y162.182 E13.58764
G1 X50.252 Y161.847 E13.61859
G1 X50.187 Y161.191 E13.67847
G1 X50.187 Y160.528 E13.73876
G1 X50.253 Y159.869 E13.79905
G1 X50.384 Y159.219 E13.85933
G1 X50.579 Y158.585 E13.91962
G1 X50.837 Y157.974 E13.97991
G1 X51.154 Y157.392 E14.04019
G1 X51.528 Y156.844 E14.10048
G1 X51.953 Y156.337 E14.16069
G1 X52.432 Y155.870 E14.22146
G1 X52.953 Y155.455 E14.28205
G1 X53.509 Y155.097 E14.34223
G1 X54.099 Y154.796 E14.40240
G1 X54.715 Y154.554 E14.46257
G1 X55.352 Y154.375 E14.52274
G1 X56.003 Y154.261 E14.58288
G1 X56.663 Y154.211 E14.64307
G1 X57.325 Y154.228 E14.70326
G1 X57.982 Y154.310 E14.76346
G1 X58.627 Y154.457 E14.82358
G1 X59.254 Y154.667 E14.88375
G1 X59.857 Y154.939 E14.94392
G1 X60.431 Y155.269 E15.00409
G1 X60.965 Y155.653 E15.06389
G1 X61.240 Y155.883 E15.09647
G1 X61.704 Y156.336 E15.15549
G1 X62.130 Y156.844 E15.21577
G1 X62.504 Y157.392 E15.27605
G1 X62.821 Y157.974 E15.33634
G1 X63.078 Y158.585 E15.39663
G1 X63.274 Y159.219 E15.45691
G1 X63.405 Y159.869 E15.51720
G1 X63.471 Y160.528 E15.57749
G1 X63.471 Y161.191 E15.63778
G1 X63.405 Y161.851 E15.69806
G1 X63.275 Y162.497 E15.75795
G1 X63.182 Y162.824 E15.78890
G1 X62.957 Y163.443 E15.84879
G1 X62.669 Y164.040 E15.90907
G1 X62.324 Y164.606 E15.96936
G1 X61.923 Y165.135 E16.02965
G1 X61.472 Y165.621 E16.08993
G1 X60.975 Y166.059 E16.15022
G1 X60.437 Y166.446 E16.21050
G1 X59.863 Y166.778 E16.27079
G1 X59.258 Y167.051 E16.33108
G1 X58.592 Y167.270 E16.39492
G1 X58.431 Y167.670 F7800.000
G1 X58.072 Y168.371
G1 F1800.000
G1 X58.386 Y168.599 E16.43026
G1 X58.703 Y168.939 E16.47255
G1 X58.948 Y169.339 E16.51518
G1 X59.108 Y169.779 E16.55776
G1 X59.178 Y170.243 E16.60035
G1 X59.154 Y170.710 E16.64293
G1 X59.039 Y171.164 E16.68552
G1 X58.836 Y171.586 E16.72810
G1 X58.553 Y171.959 E16.77069
G1 X58.202 Y172.269 E16.81327
G1 X57.796 Y172.503 E16.85586
G1 X57.352 Y172.653 E16.89844
G1 X56.888 Y172.711 E16.94103
G1 X56.420 Y172.676 E16.98361
G1 X55.970 Y172.549 E17.02620
G1 X55.553 Y172.335 E17.06878
G1 X55.187 Y172.043 E17.11137
G1 X54.886 Y171.685 E17.15395
G1 X54.662 Y171.273 E17.19654
G1 X54.524 Y170.826 E17.23912
G1 X54.477 Y170.360 E17.28171
G1 X54.524 Y169.894 E17.32429
G1 X54.662 Y169.446 E17.36688
G1 X54.886 Y169.035 E17.40948
G1 X55.188 Y168.675 E17.45218
G1 X55.560 Y168.383 E17.49523
G1 X55.987 Y168.182 E17.53811
G1 X56.340 Y168.095 E17.57116
G1 X56.779 Y168.071 E17.61111
G1 X57.316 Y168.095 E17.66003
G1 X57.671 Y168.182 E17.69325
G1 X58.017 Y168.345 E17.72809
G1 X58.411 Y168.181 F7800.000
G1 E15.72809 F2400.000
G92 E0
G1 X56.924 Y148.516 F7800.000
G1 E2.00000 F2400.000
;TYPE:Perimeter
G1 F1800.000
G1 X56.168 Y148.460 E2.06895
G1 X55.438 Y148.254 E2.13790
G1 X54.763 Y147.908 E2.20685
G1 X54.170 Y147.436 E2.27580
G1 X53.683 Y146.855 E2.34475
G1 X53.320 Y146.189 E2.41370
G1 X53.097 Y145.464 E2.48265
G1 X53.021 Y144.710 E2.55160
G1 X53.097 Y143.955 E2.62055
G1 X53.320 Y143.231 E2.68950
G1 X53.683 Y142.565 E2.75845
G1 X54.170 Y141.984 E2.82739
G1 X54.763 Y141.511 E2.89634
G1 X55.420 Y141.174 E2.96346
G1 X56.002 Y140.995 E3.01882
G1 X56.734 Y140.903 E3.08594
G1 X57.490 Y140.960 E3.15489
G1 X58.220 Y141.165 E3.22384
G1 X58.895 Y141.511 E3.29279
G1 X59.472 Y141.971 E3.35991
G1 X59.875 Y142.428 E3.41526
G1 X60.260 Y143.058 E3.48238
G1 X60.519 Y143.770 E3.55133
G1 X60.632 Y144.520 E3.62028
G1 X60.594 Y145.277 E3.68923
G1 X60.407 Y146.012 E3.75818
G1 X60.078 Y146.695 E3.82713
G1 X59.620 Y147.300 E3.89608
G1 X59.052 Y147.802 E3.96503
G1 X58.395 Y148.181 E4.03398
G1 X57.676 Y148.422 E4.10293
G1 X56.983 Y148.509 E4.16642
G1 X56.908 Y147.889 F7800.000
G1 F1800.000
G1 X56.277 Y147.841 E4.22400
G1 X55.667 Y147.670 E4.28158
G1 X55.104 Y147.381 E4.33915
G1 X54.609 Y146.986 E4.39673
G1 X54.202 Y146.501 E4.45431
G1 X53.899 Y145.945 E4.51189
G1 X53.712 Y145.340 E4.56947
G1 X53.649 Y144.710 E4.62704
G1 X53.712 Y144.080 E4.68462
G1 X53.899 Y143.475 E4.74220
G1 X54.202 Y142.919 E4.79978
G1 X54.609 Y142.433 E4.85736
G1 X55.104 Y142.039 E4.91493
G1 X55.656 Y141.755 E4.97140
G1 X56.133 Y141.608 E5.01681
G1 X56.750 Y141.531 E5.07327
G1 X57.381 Y141.578 E5.13085
G1 X57.991 Y141.750 E5.18843
G1 X58.554 Y142.039 E5.24601
G1 X59.040 Y142.426 E5.30247
G1 X59.370 Y142.800 E5.34788
G1 X59.694 Y143.330 E5.40434
G1 X59.910 Y143.925 E5.46192
G1 X60.005 Y144.551 E5.51950
G1 X59.973 Y145.184 E5.57708
G1 X59.817 Y145.797 E5.63466
G1 X59.542 Y146.368 E5.69223
G1 X59.160 Y146.873 E5.74981
G1 X58.685 Y147.292 E5.80739
G1 X58.137 Y147.608 E5.86497
G1 X57.536 Y147.810 E5.92255
G1 X56.968 Y147.881 E5.97467
G1 X56.892 Y147.261 F7800.000
;TYPE:External perimeter
G1 F1800.000
G1 X56.386 Y147.223 E6.02087
G1 X55.897 Y147.085 E6.06708
G1 X55.444 Y146.853 E6.11329
G1 X55.047 Y146.537 E6.15949
G1 X54.720 Y146.147 E6.20570
G1 X54.477 Y145.701 E6.25191
G1 X54.328 Y145.215 E6.29811
G1 X54.277 Y144.710 E6.34432
G1 X54.328 Y144.204 E6.39053
G1 X54.477 Y143.719 E6.43673
G1 X54.720 Y143.272 E6.48294
G1 X55.047 Y142.883 E6.52914
G1 X55.444 Y142.566 E6.57535
G1 X55.893 Y142.336 E6.62116
G1 X56.265 Y142.221 E6.65663
G1 X56.765 Y142.159 E6.70243
G1 X57.272 Y142.197 E6.74864
G1 X57.761 Y142.334 E6.79484
G1 X58.213 Y142.566 E6.84105
G1 X58.607 Y142.880 E6.88686
G1 X58.865 Y143.173 E6.92233
G1 X59.128 Y143.603 E6.96813
G1 X59.302 Y144.080 E7.01434
G1 X59.378 Y144.583 E7.06054
G1 X59.352 Y145.090 E7.10675
G1 X59.227 Y145.583 E7.15296
G1 X59.006 Y146.040 E7.19916
G1 X58.699 Y146.445 E7.24537
G1 X58.318 Y146.782 E7.29158
G1 X57.878 Y147.036 E7.33778
G1 X57.397 Y147.198 E7.38399
G1 X56.952 Y147.253 E7.42474
G1 X56.701 Y147.612 F7800.000
G1 E5.42474 F2400.000
G92 E0
G1 X74.029 Y143.782 F7800.000
G1 E2.00000 F2400.000
;TYPE:Perimeter
G1 F1800.000
G1 X76.747 Y145.351 E2.28536
G1 X77.223 Y144.930 E2.34311
G1 X77.845 Y144.571 E2.40843
G1 X78.526 Y144.342 E2.47376
G1 X79.239 Y144.253 E2.53909
G1 X79.955 Y144.307 E2.60442
G1 X80.647 Y144.501 E2.66975
G1 X81.286 Y144.829 E2.73507
G1 X81.848 Y145.277 E2.80040
G1 X82.310 Y145.827 E2.86573
G1 X82.653 Y146.458 E2.93106
G1 X82.860 Y147.128 E2.99480
G1 X82.932 Y147.714 E3.04850
