; generated by PrusaSlicer 2.3.3+linux-x64 on 2021-11-10 at 18:08:33 UTC

; 

; external perimeters extrusion width = 0.45mm
; perimeters extrusion width = 0.45mm
; infill extrusion width = 0.45mm
; solid infill extrusion width = 0.45mm
; top infill extrusion width = 0.40mm
; first layer extrusion width = 0.70mm

M107
M104 S200 ; set temperature
;TYPE:Custom
G28 ; home all axes
G1 Z5 F5000 ; lift nozzle
M109 S200 ; set temperature and wait for it to be reached
G21 ; set units to millimeters
G90 ; use absolute coordinates
M82 ; use absolute distances for extrusion
G92 E0
; Filament gcode
;LAYER_CHANGE
;Z:0.35
;HEIGHT:0.35
G1 Z0.350 F7800.000
G1 E-2.00000 F2400.000
G92 E0
G1 X74.989 Y71.392 F7800.000
G1 E2.00000 F2400.000
;TYPE:Skirt
;WIDTH:0.7
G1 F1800.000
G1 X76.581 Y69.759 E2.20731
G1 X78.252 Y68.209 E2.41462
G1 X79.999 Y66.743 E2.62193
G1 X81.816 Y65.367 E2.82924
G1 X83.700 Y64.082 E3.03655
G1 X85.645 Y62.893 E3.24386
G1 X87.647 Y61.803 E3.45118
G1 X89.702 Y60.814 E3.65849
G1 X91.791 Y59.933 E3.86464
G1 X93.945 Y59.149 E4.07311
G1 X96.123 Y58.477 E4.28042
G1 X98.333 Y57.914 E4.48773
G1 X100.555 Y57.464 E4.69389
G1 X102.822 Y57.122 E4.90235
G1 X105.078 Y56.896 E5.10851
G1 X107.355 Y56.782 E5.31582
G1 X109.489 Y56.780 E5.50983
G1 X111.912 Y56.894 E5.73043
G1 X114.181 Y57.121 E5.93774
G1 X116.441 Y57.461 E6.14563
G1 X118.658 Y57.908 E6.35121
G1 X120.892 Y58.477 E6.56083
G1 X123.058 Y59.145 E6.76699
G1 X125.201 Y59.924 E6.97430
G1 X127.162 Y60.748 E7.16773
G1 X129.351 Y61.795 E7.38833
G1 X131.348 Y62.881 E7.59506
G1 X133.305 Y64.076 E7.80353
G1 X135.064 Y65.272 E7.99697
G1 X138.202 Y67.736 E8.35976
G1 X140.551 Y69.876 E8.64874
G1 X142.035 Y71.401 E8.84221
G1 X143.543 Y73.111 E9.04952
G1 X144.956 Y74.884 E9.25567
G1 X146.294 Y76.745 E9.46414
G1 X147.524 Y78.650 E9.67029
G1 X148.664 Y80.624 E9.87761
G1 X149.704 Y82.653 E10.08492
G1 X150.652 Y84.755 E10.29454
G1 X151.475 Y86.854 E10.49954
G1 X152.203 Y89.021 E10.70743
G1 X152.818 Y91.210 E10.91416
G1 X153.328 Y93.445 E11.12263
G1 X153.722 Y95.678 E11.32878
G1 X154.006 Y97.953 E11.53725
G1 X154.176 Y100.226 E11.74456
G1 X154.231 Y102.645 E11.96458
G1 X154.175 Y104.785 E12.15917
G1 X154.004 Y107.058 E12.36648
G1 X153.722 Y109.308 E12.57264
G1 X153.323 Y111.565 E12.78111
G1 X152.818 Y113.776 E12.98726
G1 X152.201 Y115.970 E13.19457
G1 X151.475 Y118.131 E13.40188
G1 X150.637 Y120.265 E13.61035
G1 X149.704 Y122.332 E13.81650
G1 X148.664 Y124.361 E14.02382
G1 X147.524 Y126.335 E14.23113
G1 X146.287 Y128.250 E14.43844
G1 X144.956 Y130.101 E14.64575
G1 X143.535 Y131.884 E14.85306
G1 X142.026 Y133.593 E15.06037
G1 X140.430 Y135.230 E15.26826
G1 X138.763 Y136.776 E15.47499
G1 X137.016 Y138.242 E15.68230
G1 X135.199 Y139.618 E15.88961
G1 X133.315 Y140.903 E16.09693
G1 X131.370 Y142.091 E16.30423
G1 X129.368 Y143.182 E16.51155
G1 X127.313 Y144.171 E16.71886
G1 X125.213 Y145.057 E16.92617
G1 X123.070 Y145.836 E17.13348
G1 X120.891 Y146.508 E17.34079
G1 X118.682 Y147.071 E17.54810
G1 X116.447 Y147.523 E17.75541
G1 X114.193 Y147.863 E17.96272
G1 X111.924 Y148.089 E18.17004
G1 X109.647 Y148.203 E18.37734
G1 X107.380 Y148.203 E18.58350
G1 X105.090 Y148.089 E18.79197
G1 X102.822 Y147.862 E18.99928
G1 X100.567 Y147.523 E19.20659
G1 X98.333 Y147.071 E19.41390
G1 X96.123 Y146.508 E19.62121
G1 X93.945 Y145.836 E19.82852
G1 X91.802 Y145.056 E20.03583
G1 X89.713 Y144.176 E20.24199
G1 X87.647 Y143.182 E20.45045
G1 X85.645 Y142.091 E20.65776
G1 X83.699 Y140.902 E20.86508
G1 X81.826 Y139.626 E21.07123
G1 X79.998 Y138.242 E21.27970
G1 X78.261 Y136.784 E21.48585
G1 X76.585 Y135.230 E21.69374
G1 X75.094 Y133.704 E21.88776
G1 X73.488 Y131.893 E22.10778
G1 X72.066 Y130.111 E22.31509
G1 X70.728 Y128.250 E22.52356
G1 X69.504 Y126.357 E22.72855
G1 X68.351 Y124.360 E22.93818
G1 X67.316 Y122.343 E23.14433
G1 X66.378 Y120.265 E23.35164
G1 X65.599 Y118.286 E23.54508
G1 X64.822 Y115.994 E23.76510
G1 X64.239 Y113.935 E23.95969
G1 X63.658 Y111.390 E24.19702
G1 X63.291 Y109.295 E24.39048
G1 X63.007 Y107.020 E24.59895
G1 X62.839 Y104.759 E24.80510
G1 X62.784 Y102.340 E25.02513
G1 X62.840 Y100.200 E25.21972
G1 X63.011 Y97.927 E25.42703
G1 X63.293 Y95.677 E25.63319
G1 X63.692 Y93.420 E25.84165
G1 X64.197 Y91.209 E26.04781
G1 X64.814 Y89.015 E26.25512
G1 X65.540 Y86.853 E26.46243
G1 X66.378 Y84.719 E26.67090
G1 X67.311 Y82.653 E26.87705
G1 X68.351 Y80.624 E27.08436
G1 X69.491 Y78.650 E27.29167
G1 X70.728 Y76.735 E27.49898
G1 X72.059 Y74.883 E27.70629
G1 X73.480 Y73.101 E27.91361
G1 X74.949 Y71.437 E28.11546
G1 E26.11546 F2400.000
G92 E0
G1 X111.303 Y122.873 F7800.000
G1 E2.00000 F2400.000
;TYPE:Perimeter
G1 F1800.000
G1 X111.668 Y123.470 E2.06363
G1 X111.907 Y124.127 E2.12715
G1 X112.011 Y124.818 E2.19067
G1 X111.976 Y125.515 E2.25418
G1 X111.804 Y126.192 E2.31770
G1 X111.501 Y126.822 E2.38122
G1 X111.079 Y127.378 E2.44474
G1 X110.555 Y127.841 E2.50825
G1 X109.950 Y128.190 E2.57177
G1 X109.288 Y128.412 E2.63529
G1 X108.595 Y128.499 E2.69880
G1 X107.898 Y128.447 E2.76232
G1 X107.226 Y128.258 E2.82584
G1 X106.620 Y127.947 E2.88777
G1 X106.162 Y127.598 E2.94010
G1 X105.710 Y127.109 E3.00064
G1 X105.347 Y126.514 E3.06401
G1 X105.108 Y125.858 E3.12752
G1 X105.004 Y125.167 E3.19104
G1 X105.039 Y124.470 E3.25456
G1 X105.211 Y123.793 E3.31808
G1 X105.514 Y123.163 E3.38160
G1 X105.729 Y122.880 E3.41391
G1 X105.258 Y122.695 E3.45996
G1 X104.557 Y122.336 E3.53159
G1 X103.895 Y121.908 E3.60322
G1 X103.279 Y121.417 E3.67485
G1 X102.715 Y120.867 E3.74648
G1 X102.209 Y120.264 E3.81811
G1 X101.765 Y119.613 E3.88974
G1 X101.388 Y118.921 E3.96137
G1 X101.082 Y118.195 E4.03300
G1 X100.850 Y117.442 E4.10463
G1 X100.694 Y116.670 E4.17626
G1 X100.615 Y115.886 E4.24789
G1 X100.615 Y115.099 E4.31952
G1 X100.694 Y114.315 E4.39115
G1 X100.850 Y113.543 E4.46278
G1 X101.082 Y112.790 E4.53441
G1 X101.388 Y112.064 E4.60604
G1 X101.765 Y111.372 E4.67767
G1 X102.209 Y110.721 E4.74930
G1 X102.715 Y110.118 E4.82087
G1 X103.283 Y109.564 E4.89304
G1 X103.902 Y109.071 E4.96502
G1 X104.563 Y108.645 E5.03653
G1 X105.263 Y108.287 E5.10802
G1 X105.996 Y108.001 E5.17951
G1 X106.753 Y107.788 E5.25101
G1 X107.526 Y107.652 E5.32246
G1 X108.311 Y107.593 E5.39398
G1 X109.097 Y107.613 E5.46550
G1 X109.878 Y107.710 E5.53702
G1 X110.644 Y107.885 E5.60846
G1 X111.389 Y108.135 E5.67995
G1 X112.106 Y108.458 E5.75145
G1 X112.787 Y108.850 E5.82294
G1 X113.411 Y109.297 E5.89273
G1 X113.758 Y109.589 E5.93391
G1 X114.300 Y110.118 E6.00284
G1 X114.806 Y110.721 E6.07442
G1 X115.250 Y111.372 E6.14606
G1 X115.627 Y112.064 E6.21769
G1 X115.933 Y112.790 E6.28932
G1 X116.165 Y113.543 E6.36095
G1 X116.321 Y114.315 E6.43258
G1 X116.399 Y115.099 E6.50421
G1 X116.399 Y115.886 E6.57584
G1 X116.321 Y116.670 E6.64747
G1 X116.165 Y117.442 E6.71910
G1 X115.933 Y118.195 E6.79073
G1 X115.627 Y118.921 E6.86236
G1 X115.250 Y119.613 E6.93399
G1 X114.806 Y120.264 E7.00562
G1 X114.300 Y120.867 E7.07725
G1 X113.736 Y121.417 E7.14888
G1 X113.120 Y121.908 E7.22051
G1 X112.458 Y122.336 E7.29214
G1 X111.757 Y122.695 E7.36377
G1 X111.359 Y122.851 E7.40269
G1 X110.095 Y122.595 F7800.000
G1 F1800.000
G1 X110.421 Y122.842 E7.43989
G1 X110.803 Y123.254 E7.49097
G1 X111.102 Y123.743 E7.54313
G1 X111.298 Y124.282 E7.59527
G1 X111.384 Y124.849 E7.64742
G1 X111.355 Y125.422 E7.69956
G1 X111.214 Y125.977 E7.75171
G1 X110.965 Y126.494 E7.80385
G1 X110.619 Y126.951 E7.85600
G1 X110.189 Y127.331 E7.90815
G1 X109.692 Y127.617 E7.96029
G1 X109.148 Y127.800 E8.01244
G1 X108.579 Y127.871 E8.06458
G1 X108.007 Y127.829 E8.11673
G1 X107.455 Y127.673 E8.16887
G1 X106.954 Y127.416 E8.22006
G1 X106.584 Y127.134 E8.26238
G1 X106.211 Y126.730 E8.31236
G1 X105.913 Y126.242 E8.36441
G1 X105.717 Y125.703 E8.41656
G1 X105.631 Y125.136 E8.46871
G1 X105.660 Y124.563 E8.52085
G1 X105.801 Y124.007 E8.57300
G1 X106.050 Y123.491 E8.62515
G1 X106.397 Y123.034 E8.67731
G1 X106.900 Y122.589 E8.73836
G1 X106.190 Y122.390 E8.80543
G1 X105.515 Y122.125 E8.87139
G1 X104.869 Y121.794 E8.93735
G1 X104.260 Y121.400 E9.00330
G1 X103.693 Y120.948 E9.06926
G1 X103.174 Y120.441 E9.13522
G1 X102.707 Y119.886 E9.20118
G1 X102.299 Y119.286 E9.26714
G1 X101.952 Y118.649 E9.33310
G1 X101.670 Y117.981 E9.39905
G1 X101.456 Y117.288 E9.46501
G1 X101.313 Y116.577 E9.53097
G1 X101.240 Y115.855 E9.59693
G1 X101.240 Y115.130 E9.66289
G1 X101.313 Y114.408 E9.72884
G1 X101.456 Y113.697 E9.79480
G1 X101.670 Y113.004 E9.86076
G1 X101.952 Y112.335 E9.92672
G1 X102.299 Y111.698 E9.99268
G1 X102.707 Y111.099 E10.05863
G1 X103.173 Y110.544 E10.12453
G1 X103.697 Y110.034 E10.19099
G1 X104.267 Y109.580 E10.25728
G1 X104.876 Y109.188 E10.32312
G1 X105.520 Y108.858 E10.38896
G1 X106.194 Y108.594 E10.45479
G1 X106.891 Y108.398 E10.52062
G1 X107.604 Y108.273 E10.58642
G1 X108.326 Y108.219 E10.65227
G1 X109.050 Y108.237 E10.71813
G1 X109.769 Y108.326 E10.78398
G1 X110.474 Y108.487 E10.84977
G1 X111.161 Y108.717 E10.91560
G1 X111.821 Y109.015 E10.98143
G1 X112.448 Y109.376 E11.04726
G1 X113.027 Y109.791 E11.11205
G1 X113.338 Y110.052 E11.14893
G1 X113.841 Y110.544 E11.21291
G1 X114.307 Y111.099 E11.27884
G1 X114.716 Y111.698 E11.34480
G1 X115.063 Y112.335 E11.41076
G1 X115.345 Y113.004 E11.47672
G1 X115.559 Y113.697 E11.54268
G1 X115.702 Y114.408 E11.60864
G1 X115.775 Y115.130 E11.67459
G1 X115.775 Y115.855 E11.74055
G1 X115.702 Y116.577 E11.80651
G1 X115.559 Y117.288 E11.87247
G1 X115.345 Y117.981 E11.93843
G1 X115.063 Y118.649 E12.00439
G1 X114.716 Y119.287 E12.07034
G1 X114.308 Y119.886 E12.13630
G1 X113.841 Y120.442 E12.20226
G1 X113.322 Y120.948 E12.26822
G1 X112.755 Y121.400 E12.33418
G1 X112.146 Y121.794 E12.40013
G1 X111.500 Y122.125 E12.46609
G1 X110.825 Y122.390 E12.53206
G1 X110.152 Y122.579 E12.59558
G1 X109.991 Y121.975 F7800.000
;TYPE:External perimeter
G1 F1800.000
G1 X109.657 Y122.042 E12.62660
G1 X109.002 Y122.121 E12.68662
G1 X108.342 Y122.131 E12.74657
G1 X107.683 Y122.090 E12.80661
G1 X107.028 Y121.976 E12.86710
G1 X106.389 Y121.797 E12.92742
G1 X105.772 Y121.554 E12.98771
G1 X105.182 Y121.252 E13.04800
G1 X104.625 Y120.892 E13.10828
G1 X104.107 Y120.479 E13.16857
G1 X103.632 Y120.016 E13.22885
G1 X103.206 Y119.508 E13.28914
G1 X102.833 Y118.960 E13.34943
G1 X102.516 Y118.378 E13.40971
G1 X102.258 Y117.767 E13.47000
G1 X102.063 Y117.133 E13.53029
G1 X101.931 Y116.484 E13.59057
G1 X101.865 Y115.824 E13.65086
G1 X101.865 Y115.161 E13.71115
G1 X101.931 Y114.501 E13.77143
G1 X102.063 Y113.851 E13.83172
G1 X102.258 Y113.218 E13.89201
G1 X102.516 Y112.607 E13.95229
G1 X102.833 Y112.025 E14.01258
G1 X103.206 Y111.477 E14.07286
G1 X103.632 Y110.970 E14.13308
G1 X104.110 Y110.503 E14.19384
G1 X104.632 Y110.088 E14.25444
G1 X105.188 Y109.730 E14.31461
G1 X105.777 Y109.428 E14.37478
G1 X106.393 Y109.187 E14.43495
G1 X107.030 Y109.008 E14.49513
G1 X107.682 Y108.893 E14.55526
G1 X108.342 Y108.844 E14.61545
G1 X109.004 Y108.860 E14.67565
G1 X109.661 Y108.943 E14.73584
G1 X110.305 Y109.090 E14.79597
G1 X110.933 Y109.300 E14.85614
G1 X111.536 Y109.572 E14.91631
G1 X112.109 Y109.902 E14.97648
G1 X112.644 Y110.285 E15.03628
G1 X112.918 Y110.516 E15.06886
G1 X113.383 Y110.969 E15.12788
G1 X113.809 Y111.477 E15.18815
G1 X114.182 Y112.025 E15.24844
G1 X114.499 Y112.607 E15.30872
G1 X114.757 Y113.218 E15.36901
G1 X114.952 Y113.851 E15.42930
G1 X115.084 Y114.501 E15.48959
G1 X115.150 Y115.161 E15.54987
G1 X115.150 Y115.824 E15.61016
G1 X115.084 Y116.484 E15.67045
G1 X114.952 Y117.134 E15.73073
G1 X114.757 Y117.767 E15.79102
G1 X114.499 Y118.378 E15.85131
G1 X114.182 Y118.960 E15.91159
G1 X113.809 Y119.508 E15.97188
G1 X113.383 Y120.016 E16.03217
G1 X112.908 Y120.479 E16.09245
G1 X112.390 Y120.892 E16.15274
G1 X111.833 Y121.252 E16.21303
G1 X111.243 Y121.554 E16.27331
G1 X110.626 Y121.797 E16.33360
G1 X110.049 Y121.959 E16.38804
G1 X109.896 Y122.303 F7800.000
G1 X109.328 Y122.897
G1 F1800.000
G1 X109.725 Y123.099 E16.42847
G1 X110.000 Y123.307 E16.45990
G1 X110.302 Y123.633 E16.50029
G1 X110.536 Y124.015 E16.54106
G1 X110.690 Y124.437 E16.58184
G1 X110.756 Y124.880 E16.62261
G1 X110.734 Y125.328 E16.66339
G1 X110.623 Y125.763 E16.70416
G1 X110.429 Y126.167 E16.74494
G1 X110.158 Y126.524 E16.78571
G1 X109.822 Y126.821 E16.82648
G1 X109.434 Y127.045 E16.86726
G1 X109.009 Y127.188 E16.90803
G1 X108.564 Y127.244 E16.94881
G1 X108.116 Y127.210 E16.98958
G1 X107.685 Y127.089 E17.03036
G1 X107.289 Y126.886 E17.07078
G1 X107.007 Y126.670 E17.10311
G1 X106.712 Y126.352 E17.14253
G1 X106.479 Y125.969 E17.18327
G1 X106.325 Y125.548 E17.22404
G1 X106.258 Y125.105 E17.26482
G1 X106.281 Y124.657 E17.30559
G1 X106.391 Y124.222 E17.34636
G1 X106.586 Y123.818 E17.38714
G1 X106.857 Y123.461 E17.42792
G1 X107.193 Y123.164 E17.46871
G1 X107.583 Y122.940 E17.50960
G1 X108.001 Y122.803 E17.54958
G1 X108.235 Y122.763 E17.57119
G1 X108.463 Y122.754 E17.59193
G1 X108.893 Y122.777 E17.63112
G1 X109.271 Y122.881 E17.66670
G1 X109.640 Y122.646 F7800.000
G1 E15.66670 F2400.000
G92 E0
G1 X108.602 Y103.149 F7800.000
G1 E2.00000 F2400.000
;TYPE:Perimeter
G1 F1800.000
G1 X107.846 Y103.092 E2.06895
G1 X107.116 Y102.887 E2.13790
G1 X106.442 Y102.541 E2.20685
G1 X105.849 Y102.068 E2.27580
G1 X105.361 Y101.487 E2.34475
G1 X104.999 Y100.822 E2.41370
G1 X104.775 Y100.097 E2.48265
G1 X104.700 Y99.342 E2.55160
G1 X104.775 Y98.588 E2.62055
G1 X104.999 Y97.863 E2.68950
G1 X105.361 Y97.197 E2.75845
G1 X105.849 Y96.617 E2.82739
G1 X106.442 Y96.144 E2.89634
G1 X107.098 Y95.807 E2.96346
G1 X107.680 Y95.628 E3.01882
G1 X108.413 Y95.536 E3.08594
G1 X109.169 Y95.592 E3.15489
G1 X109.899 Y95.798 E3.22384
G1 X110.573 Y96.144 E3.29279
G1 X111.151 Y96.604 E3.35991
G1 X111.553 Y97.060 E3.41526
G1 X111.938 Y97.690 E3.48238
G1 X112.198 Y98.403 E3.55133
G1 X112.311 Y99.153 E3.62028
G1 X112.273 Y99.910 E3.68923
G1 X112.086 Y100.645 E3.75818
G1 X111.757 Y101.328 E3.82713
G1 X111.299 Y101.932 E3.89608
G1 X110.730 Y102.434 E3.96503
G1 X110.074 Y102.813 E4.03398
G1 X109.355 Y103.055 E4.10293
G1 X108.662 Y103.142 E4.16642
G1 X108.587 Y102.521 F7800.000
G1 F1800.000
G1 X107.955 Y102.474 E4.22400
G1 X107.346 Y102.302 E4.28158
G1 X106.782 Y102.014 E4.33915
G1 X106.287 Y101.619 E4.39673
G1 X105.880 Y101.134 E4.45431
G1 X105.577 Y100.578 E4.51189
G1 X105.391 Y99.973 E4.56947
G1 X105.328 Y99.342 E4.62704
G1 X105.391 Y98.712 E4.68462
G1 X105.577 Y98.107 E4.74220
G1 X105.880 Y97.551 E4.79978
G1 X106.287 Y97.066 E4.85736
G1 X106.782 Y96.671 E4.91493
G1 X107.335 Y96.388 E4.97140
G1 X107.812 Y96.241 E5.01681
G1 X108.428 Y96.164 E5.07327
G1 X109.060 Y96.211 E5.13085
G1 X109.669 Y96.382 E5.18843
G1 X110.233 Y96.671 E5.24601
G1 X110.718 Y97.058 E5.30247
G1 X111.049 Y97.433 E5.34788
G1 X111.372 Y97.963 E5.40434
G1 X111.589 Y98.558 E5.46192
G1 X111.683 Y99.184 E5.51950
G1 X111.652 Y99.816 E5.57708
G1 X111.496 Y100.430 E5.63466
G1 X111.221 Y101.001 E5.69223
G1 X110.838 Y101.505 E5.74981
G1 X110.364 Y101.924 E5.80739
G1 X109.815 Y102.241 E5.86497
G1 X109.215 Y102.443 E5.92255
G1 X108.646 Y102.514 E5.97467
G1 X108.571 Y101.893 F7800.000
;TYPE:External perimeter
G1 F1800.000
G1 X108.064 Y101.855 E6.02087
G1 X107.575 Y101.718 E6.06708
G1 X107.123 Y101.486 E6.11329
G1 X106.726 Y101.169 E6.15949
G1 X106.399 Y100.780 E6.20570
G1 X106.156 Y100.334 E6.25191
G1 X106.006 Y99.848 E6.29811
G1 X105.956 Y99.342 E6.34432
G1 X106.006 Y98.837 E6.39053
G1 X106.156 Y98.351 E6.43673
G1 X106.399 Y97.905 E6.48294
G1 X106.726 Y97.516 E6.52914
G1 X107.123 Y97.199 E6.57535
G1 X107.571 Y96.969 E6.62116
G1 X107.944 Y96.854 E6.65663
G1 X108.444 Y96.791 E6.70243
G1 X108.951 Y96.829 E6.74864
G1 X109.440 Y96.967 E6.79484
G1 X109.892 Y97.199 E6.84105
G1 X110.286 Y97.513 E6.88686
G1 X110.544 Y97.805 E6.92233
G1 X110.807 Y98.235 E6.96813
G1 X110.980 Y98.713 E7.01434
G1 X111.056 Y99.215 E7.06054
G1 X111.031 Y99.723 E7.10675
G1 X110.905 Y100.215 E7.15296
G1 X110.685 Y100.673 E7.19916
G1 X110.378 Y101.078 E7.24537
G1 X109.997 Y101.414 E7.29158
G1 X109.557 Y101.668 E7.33778
G1 X109.075 Y101.830 E7.38399
G1 X108.631 Y101.886 E7.42474
G1 X108.380 Y102.245 F7800.000
G1 E5.42474 F2400.000
G92 E0
G1 X123.507 Y99.414 F7800.000
G1 E2.00000 F2400.000
;TYPE:Perimeter
G1 F1800.000
