; generated by PrusaSlicer 2.3.3+linux-x64 on 2021-11-05 at 18:57:57 UTC

; 

; external perimeters extrusion width = 0.45mm
; perimeters extrusion width = 0.45mm
; infill extrusion width = 0.45mm
; solid infill extrusion width = 0.45mm
; top infill extrusion width = 0.40mm
; first layer extrusion width = 0.70mm

M107
M104 S200 ; set temperature
;TYPE:Custom
G28 ; home all axes
G1 Z5 F5000 ; lift nozzle
M109 S200 ; set temperature and wait for it to be reached
G21 ; set units to millimeters
G90 ; use absolute coordinates
M82 ; use absolute distances for extrusion
G92 E0
; Filament gcode
;LAYER_CHANGE
;Z:0.35
;HEIGHT:0.35
G1 Z0.350 F7800.000
G1 E-2.00000 F2400.000
G92 E0
G1 X55.722 Y119.413 F7800.000
G1 E2.00000 F2400.000
;TYPE:Skirt
;WIDTH:0.7
G1 F1800.000
G1 X59.070 Y118.274 E2.32156
G1 X62.186 Y117.637 E2.61075
G1 X66.186 Y117.333 E2.97549
G1 X69.708 Y117.561 E3.29647
G1 X72.831 Y118.165 E3.58566
G1 X76.637 Y119.412 E3.94982
G1 X80.212 Y121.222 E4.31420
G1 X82.850 Y123.006 E4.60375
G1 X85.502 Y125.335 E4.92473
G1 X88.112 Y128.376 E5.28911
G1 X89.867 Y131.033 E5.57866
G1 X91.426 Y134.200 E5.89964
G1 X92.674 Y138.008 E6.26402
G1 X93.278 Y141.135 E6.55357
G1 X93.506 Y144.657 E6.87455
G1 X93.202 Y148.653 E7.23893
G1 X92.564 Y151.773 E7.52848
G1 X91.427 Y155.115 E7.84946
G1 X89.617 Y158.690 E8.21384
G1 X87.833 Y161.328 E8.50339
G1 X85.504 Y163.980 E8.82437
G1 X82.463 Y166.590 E9.18875
G1 X79.806 Y168.345 E9.47830
G1 X76.639 Y169.904 E9.79928
G1 X72.831 Y171.152 E10.16365
G1 X69.704 Y171.756 E10.45321
G1 X66.182 Y171.984 E10.77419
G1 X62.186 Y171.680 E11.13856
G1 X59.066 Y171.042 E11.42812
G1 X55.725 Y169.905 E11.74910
G1 X52.150 Y168.094 E12.11347
G1 X49.511 Y166.311 E12.40303
G1 X46.859 Y163.982 E12.72401
G1 X44.249 Y160.941 E13.08838
G1 X42.494 Y158.284 E13.37794
G1 X40.935 Y155.117 E13.69892
G1 X39.687 Y151.309 E14.06329
G1 X39.083 Y148.182 E14.35285
G1 X38.855 Y144.660 E14.67383
G1 X39.159 Y140.664 E15.03820
G1 X39.797 Y137.544 E15.32776
G1 X40.934 Y134.202 E15.64874
G1 X42.745 Y130.627 E16.01311
G1 X44.528 Y127.989 E16.30267
G1 X46.857 Y125.337 E16.62365
G1 X49.898 Y122.727 E16.98802
G1 X52.555 Y120.972 E17.27758
G1 X55.669 Y119.440 E17.59310
G1 E15.59310 F2400.000
G92 E0
G1 X53.783 Y139.701 F7800.000
G1 E2.00000 F2400.000
;TYPE:Perimeter
G1 F1800.000
G1 X54.951 Y139.989 E2.10946
G1 X56.017 Y140.549 E2.21892
G1 X56.918 Y141.347 E2.32838
G1 X57.602 Y142.338 E2.43785
G1 X58.029 Y143.463 E2.54731
G1 X58.174 Y144.658 E2.65677
G1 X58.029 Y145.853 E2.76623
G1 X57.602 Y146.979 E2.87569
G1 X56.918 Y147.970 E2.98515
G1 X56.017 Y148.768 E3.09461
G1 X54.951 Y149.327 E3.20408
G1 X53.783 Y149.616 E3.31354
G1 X52.579 Y149.616 E3.42300
G1 X51.410 Y149.327 E3.53246
G1 X50.344 Y148.768 E3.64192
G1 X49.443 Y147.970 E3.75138
G1 X48.759 Y146.979 E3.86084
G1 X48.332 Y145.853 E3.97031
G1 X48.187 Y144.658 E4.07977
G1 X48.332 Y143.463 E4.18923
G1 X48.759 Y142.338 E4.29869
G1 X49.443 Y141.347 E4.40815
G1 X50.344 Y140.549 E4.51761
G1 X51.410 Y139.989 E4.62707
G1 X52.579 Y139.701 E4.73653
G1 X53.723 Y139.701 E4.84054
G1 X53.707 Y140.326 F7800.000
;TYPE:External perimeter
G1 F1800.000
G1 X54.728 Y140.578 E4.93620
G1 X55.660 Y141.067 E5.03187
G1 X56.447 Y141.765 E5.12753
G1 X57.045 Y142.630 E5.22319
G1 X57.418 Y143.614 E5.31885
G1 X57.545 Y144.658 E5.41452
G1 X57.418 Y145.703 E5.51018
G1 X57.045 Y146.687 E5.60584
G1 X56.447 Y147.552 E5.70151
G1 X55.660 Y148.250 E5.79717
G1 X54.728 Y148.739 E5.89283
G1 X53.707 Y148.991 E5.98849
G1 X52.655 Y148.991 E6.08416
G1 X51.633 Y148.739 E6.17982
G1 X50.702 Y148.250 E6.27548
G1 X49.914 Y147.552 E6.37115
G1 X49.316 Y146.687 E6.46681
G1 X48.943 Y145.703 E6.56247
G1 X48.817 Y144.658 E6.65813
G1 X48.943 Y143.614 E6.75380
G1 X49.316 Y142.630 E6.84946
G1 X49.914 Y141.765 E6.94512
G1 X50.702 Y141.067 E7.04078
G1 X51.633 Y140.578 E7.13645
G1 X52.655 Y140.326 E7.23211
G1 X53.647 Y140.326 E7.32232
G1 X53.947 Y140.006 F7800.000
G1 E5.32232 F2400.000
G92 E0
G1 X63.692 Y144.045 F7800.000
G1 E2.00000 F2400.000
;TYPE:Perimeter
G1 F1800.000
G1 X63.911 Y143.467 E2.05618
G1 X64.262 Y142.959 E2.11236
G1 X64.725 Y142.549 E2.16855
G1 X65.272 Y142.262 E2.22473
G1 X65.872 Y142.114 E2.28091
G1 X66.490 Y142.114 E2.33710
G1 X67.089 Y142.262 E2.39328
G1 X67.637 Y142.549 E2.44946
G1 X68.099 Y142.959 E2.50564
G1 X68.450 Y143.467 E2.56183
G1 X68.669 Y144.045 E2.61801
G1 X68.744 Y144.658 E2.67419
G1 X68.669 Y145.272 E2.73037
G1 X68.450 Y145.850 E2.78656
G1 X68.099 Y146.358 E2.84274
G1 X67.637 Y146.768 E2.89892
G1 X67.089 Y147.055 E2.95511
G1 X66.490 Y147.203 E3.01129
G1 X65.872 Y147.203 E3.06747
G1 X65.272 Y147.055 E3.12365
G1 X64.725 Y146.768 E3.17984
G1 X64.262 Y146.358 E3.23602
G1 X63.911 Y145.850 E3.29220
G1 X63.692 Y145.272 E3.34838
G1 X63.618 Y144.658 E3.40457
G1 X63.685 Y144.105 E3.45529
G1 X64.303 Y144.196 F7800.000
G1 F1800.000
G1 X64.469 Y143.760 E3.49768
G1 X64.733 Y143.376 E3.54006
G1 X65.082 Y143.067 E3.58245
G1 X65.495 Y142.851 E3.62483
G1 X65.948 Y142.739 E3.66721
G1 X66.414 Y142.739 E3.70960
G1 X66.866 Y142.851 E3.75198
G1 X67.279 Y143.067 E3.79437
G1 X67.628 Y143.376 E3.83675
G1 X67.893 Y143.760 E3.87913
G1 X68.058 Y144.196 E3.92152
G1 X68.114 Y144.658 E3.96390
G1 X68.058 Y145.121 E4.00629
G1 X67.893 Y145.557 E4.04867
G1 X67.628 Y145.941 E4.09105
G1 X67.279 Y146.250 E4.13344
G1 X66.866 Y146.466 E4.17582
G1 X66.414 Y146.578 E4.21821
G1 X65.948 Y146.578 E4.26059
G1 X65.495 Y146.466 E4.30297
G1 X65.082 Y146.250 E4.34536
G1 X64.733 Y145.941 E4.38774
G1 X64.469 Y145.557 E4.43013
G1 X64.303 Y145.121 E4.47251
G1 X64.247 Y144.658 E4.51489
G1 X64.296 Y144.255 E4.55182
G1 X64.914 Y144.346 F7800.000
;TYPE:External perimeter
G1 F1800.000
G1 X65.026 Y144.052 E4.58041
G1 X65.205 Y143.794 E4.60899
G1 X65.440 Y143.585 E4.63758
G1 X65.718 Y143.439 E4.66616
G1 X66.023 Y143.364 E4.69475
G1 X66.338 Y143.364 E4.72334
G1 X66.643 Y143.439 E4.75192
G1 X66.921 Y143.585 E4.78051
G1 X67.157 Y143.794 E4.80909
G1 X67.335 Y144.052 E4.83768
G1 X67.447 Y144.346 E4.86626
G1 X67.485 Y144.658 E4.89485
G1 X67.447 Y144.971 E4.92343
G1 X67.335 Y145.264 E4.95202
G1 X67.157 Y145.523 E4.98060
G1 X66.921 Y145.732 E5.00919
G1 X66.643 Y145.878 E5.03778
G1 X66.338 Y145.953 E5.06636
G1 X66.023 Y145.953 E5.09495
G1 X65.718 Y145.878 E5.12353
G1 X65.440 Y145.732 E5.15212
G1 X65.205 Y145.523 E5.18070
G1 X65.026 Y145.264 E5.20929
G1 X64.914 Y144.971 E5.23787
G1 X64.877 Y144.658 E5.26646
G1 X64.907 Y144.406 E5.28959
G1 X64.688 Y144.129 F7800.000
G1 E3.28959 F2400.000
G92 E0
G1 X65.842 Y151.866 F7800.000
G1 E2.00000 F2400.000
;TYPE:Perimeter
G1 F1800.000
G1 X66.520 Y151.866 E2.06166
G1 X67.178 Y152.028 E2.12333
G1 X67.779 Y152.343 E2.18499
G1 X68.286 Y152.793 E2.24665
G1 X68.671 Y153.351 E2.30831
G1 X68.912 Y153.985 E2.36998
G1 X68.994 Y154.658 E2.43164
G1 X68.912 Y155.332 E2.49330
G1 X68.671 Y155.966 E2.55497
G1 X68.286 Y156.524 E2.61663
G1 X67.779 Y156.974 E2.67829
G1 X67.178 Y157.289 E2.73995
G1 X66.520 Y157.451 E2.80162
G1 X65.842 Y157.451 E2.86328
G1 X65.183 Y157.289 E2.92494
G1 X64.583 Y156.974 E2.98661
G1 X64.075 Y156.524 E3.04827
G1 X63.690 Y155.966 E3.10993
G1 X63.449 Y155.332 E3.17159
G1 X63.368 Y154.658 E3.23326
G1 X63.449 Y153.985 E3.29492
G1 X63.690 Y153.351 E3.35658
G1 X64.075 Y152.793 E3.41825
G1 X64.583 Y152.343 E3.47991
G1 X65.183 Y152.028 E3.54157
G1 X65.783 Y151.880 E3.59778
G1 X65.917 Y152.491 F7800.000
G1 F1800.000
G1 X66.444 Y152.491 E3.64564
G1 X66.955 Y152.617 E3.69351
G1 X67.421 Y152.861 E3.74137
G1 X67.815 Y153.211 E3.78924
G1 X68.114 Y153.644 E3.83710
G1 X68.301 Y154.136 E3.88496
G1 X68.364 Y154.658 E3.93283
G1 X68.301 Y155.181 E3.98069
G1 X68.114 Y155.673 E4.02856
G1 X67.815 Y156.106 E4.07642
G1 X67.421 Y156.455 E4.12428
G1 X66.955 Y156.700 E4.17215
G1 X66.444 Y156.826 E4.22001
G1 X65.917 Y156.826 E4.26788
G1 X65.406 Y156.700 E4.31574
G1 X64.940 Y156.455 E4.36361
G1 X64.546 Y156.106 E4.41147
G1 X64.247 Y155.673 E4.45933
G1 X64.061 Y155.181 E4.50720
G1 X63.997 Y154.658 E4.55506
G1 X64.061 Y154.136 E4.60293
G1 X64.247 Y153.644 E4.65079
G1 X64.546 Y153.211 E4.69866
G1 X64.940 Y152.861 E4.74652
G1 X65.406 Y152.617 E4.79438
G1 X65.859 Y152.505 E4.83679
G1 X65.993 Y153.116 F7800.000
;TYPE:External perimeter
G1 F1800.000
G1 X66.368 Y153.116 E4.87086
G1 X66.732 Y153.205 E4.90492
G1 X67.063 Y153.380 E4.93899
G1 X67.344 Y153.628 E4.97306
G1 X67.557 Y153.936 E5.00712
G1 X67.689 Y154.287 E5.04119
G1 X67.735 Y154.658 E5.07525
G1 X67.689 Y155.030 E5.10932
G1 X67.557 Y155.381 E5.14338
G1 X67.344 Y155.689 E5.17745
G1 X67.063 Y155.937 E5.21151
G1 X66.732 Y156.112 E5.24558
G1 X66.368 Y156.201 E5.27965
G1 X65.993 Y156.201 E5.31371
G1 X65.630 Y156.112 E5.34778
G1 X65.298 Y155.937 E5.38184
G1 X65.017 Y155.689 E5.41591
G1 X64.805 Y155.381 E5.44997
G1 X64.672 Y155.030 E5.48404
G1 X64.627 Y154.658 E5.51811
G1 X64.672 Y154.287 E5.55217
G1 X64.805 Y153.936 E5.58624
G1 X65.017 Y153.628 E5.62030
G1 X65.298 Y153.380 E5.65437
G1 X65.630 Y153.205 E5.68843
G1 X65.935 Y153.130 E5.71704
G1 X66.140 Y152.771 F7800.000
G1 E3.71704 F2400.000
G92 E0
G1 X76.075 Y146.524 F7800.000
G1 E2.00000 F2400.000
;TYPE:Perimeter
G1 F1800.000
G1 X75.690 Y145.966 E2.06166
G1 X75.449 Y145.332 E2.12333
G1 X75.368 Y144.658 E2.18499
G1 X75.449 Y143.985 E2.24665
G1 X75.690 Y143.351 E2.30831
G1 X76.075 Y142.793 E2.36998
G1 X76.583 Y142.343 E2.43164
G1 X77.183 Y142.028 E2.49330
G1 X77.842 Y141.866 E2.55497
G1 X78.520 Y141.866 E2.61663
G1 X79.178 Y142.028 E2.67829
G1 X79.779 Y142.343 E2.73995
G1 X80.286 Y142.793 E2.80162
G1 X80.671 Y143.351 E2.86328
G1 X80.912 Y143.985 E2.92494
G1 X80.994 Y144.658 E2.98661
G1 X80.912 Y145.332 E3.04827
G1 X80.671 Y145.966 E3.10993
G1 X80.286 Y146.524 E3.17159
G1 X79.779 Y146.974 E3.23326
G1 X79.178 Y147.289 E3.29492
G1 X78.520 Y147.451 E3.35658
G1 X77.842 Y147.451 E3.41825
G1 X77.183 Y147.289 E3.47991
G1 X76.583 Y146.974 E3.54157
G1 X76.120 Y146.564 E3.59778
G1 X76.546 Y146.106 F7800.000
G1 F1800.000
G1 X76.247 Y145.673 E3.64564
G1 X76.061 Y145.181 E3.69351
G1 X75.997 Y144.658 E3.74137
G1 X76.061 Y144.136 E3.78924
G1 X76.247 Y143.644 E3.83710
G1 X76.546 Y143.211 E3.88496
G1 X76.940 Y142.861 E3.93283
G1 X77.406 Y142.617 E3.98069
G1 X77.917 Y142.491 E4.02856
G1 X78.444 Y142.491 E4.07642
G1 X78.955 Y142.617 E4.12429
G1 X79.421 Y142.861 E4.17215
G1 X79.815 Y143.211 E4.22001
G1 X80.114 Y143.644 E4.26788
G1 X80.301 Y144.136 E4.31574
G1 X80.364 Y144.658 E4.36361
G1 X80.301 Y145.181 E4.41147
G1 X80.114 Y145.673 E4.45933
G1 X79.815 Y146.106 E4.50720
G1 X79.421 Y146.455 E4.55506
G1 X78.955 Y146.700 E4.60293
G1 X78.444 Y146.826 E4.65079
G1 X77.917 Y146.826 E4.69866
G1 X77.406 Y146.700 E4.74652
G1 X76.940 Y146.455 E4.79438
G1 X76.591 Y146.146 E4.83679
G1 X77.017 Y145.689 F7800.000
;TYPE:External perimeter
G1 F1800.000
G1 X76.805 Y145.381 E4.87086
G1 X76.672 Y145.030 E4.90492
G1 X76.627 Y144.658 E4.93899
G1 X76.672 Y144.287 E4.97306
G1 X76.805 Y143.936 E5.00712
G1 X77.017 Y143.628 E5.04119
G1 X77.298 Y143.380 E5.07525
G1 X77.630 Y143.205 E5.10932
G1 X77.993 Y143.116 E5.14338
G1 X78.368 Y143.116 E5.17745
G1 X78.732 Y143.205 E5.21151
G1 X79.063 Y143.380 E5.24558
G1 X79.344 Y143.628 E5.27965
G1 X79.557 Y143.936 E5.31371
G1 X79.689 Y144.287 E5.34778
G1 X79.735 Y144.658 E5.38184
G1 X79.689 Y145.030 E5.41591
G1 X79.557 Y145.381 E5.44997
G1 X79.344 Y145.689 E5.48404
G1 X79.063 Y145.937 E5.51811
G1 X78.732 Y146.112 E5.55217
G1 X78.368 Y146.201 E5.58624
G1 X77.993 Y146.201 E5.62030
G1 X77.630 Y146.112 E5.65437
G1 X77.298 Y145.937 E5.68843
G1 X77.062 Y145.729 E5.71704
G1 X76.650 Y145.764 F7800.000
G1 E3.71704 F2400.000
G92 E0
G1 X68.286 Y136.524 F7800.000
G1 E2.00000 F2400.000
;TYPE:Perimeter
G1 F1800.000
G1 X67.779 Y136.974 E2.06166
G1 X67.178 Y137.289 E2.12333
G1 X66.520 Y137.451 E2.18499
G1 X65.842 Y137.451 E2.24665
G1 X65.183 Y137.289 E2.30831
G1 X64.583 Y136.974 E2.36998
G1 X64.075 Y136.524 E2.43164
G1 X63.690 Y135.966 E2.49330
G1 X63.449 Y135.332 E2.55497
G1 X63.368 Y134.658 E2.61663
G1 X63.449 Y133.985 E2.67829
G1 X63.690 Y133.351 E2.73995
G1 X64.075 Y132.793 E2.80162
G1 X64.583 Y132.343 E2.86328
G1 X65.183 Y132.028 E2.92494
G1 X65.842 Y131.866 E2.98661
G1 X66.520 Y131.866 E3.04827
G1 X67.178 Y132.028 E3.10993
G1 X67.779 Y132.343 E3.17159
G1 X68.286 Y132.793 E3.23326
G1 X68.671 Y133.351 E3.29492
G1 X68.912 Y133.985 E3.35658
G1 X68.994 Y134.658 E3.41825
G1 X68.912 Y135.332 E3.47991
G1 X68.671 Y135.966 E3.54157
G1 X68.320 Y136.474 E3.59778
G1 X67.815 Y136.106 F7800.000
G1 F1800.000
G1 X67.421 Y136.455 E3.64564
G1 X66.955 Y136.700 E3.69351
G1 X66.444 Y136.826 E3.74137
G1 X65.917 Y136.826 E3.78924
G1 X65.406 Y136.700 E3.83710
G1 X64.940 Y136.455 E3.88496
G1 X64.546 Y136.106 E3.93283
G1 X64.247 Y135.673 E3.98069
G1 X64.061 Y135.181 E4.02856
G1 X63.997 Y134.658 E4.07642
G1 X64.061 Y134.136 E4.12428
G1 X64.247 Y133.644 E4.17215
G1 X64.546 Y133.211 E4.22001
G1 X64.940 Y132.861 E4.26788
G1 X65.406 Y132.617 E4.31574
G1 X65.917 Y132.491 E4.36361
G1 X66.444 Y132.491 E4.41147
G1 X66.955 Y132.617 E4.45933
G1 X67.421 Y132.861 E4.50720
G1 X67.815 Y133.211 E4.55506
G1 X68.114 Y133.644 E4.60293
G1 X68.301 Y134.136 E4.65079
G1 X68.364 Y134.658 E4.69866
G1 X68.301 Y135.181 E4.74652
G1 X68.114 Y135.673 E4.79438
G1 X67.849 Y136.057 E4.83679
G1 X67.344 Y135.689 F7800.000
;TYPE:External perimeter
G1 F1800.000
G1 X67.063 Y135.937 E4.87086
G1 X66.732 Y136.112 E4.90492
G1 X66.368 Y136.201 E4.93899
G1 X65.993 Y136.201 E4.97306
G1 X65.630 Y136.112 E5.00712
G1 X65.298 Y135.937 E5.04119
G1 X65.017 Y135.689 E5.07525
G1 X64.805 Y135.381 E5.10932
G1 X64.672 Y135.030 E5.14338
G1 X64.627 Y134.658 E5.17745
G1 X64.672 Y134.287 E5.21151
G1 X64.805 Y133.936 E5.24558
G1 X65.017 Y133.628 E5.27965
G1 X65.298 Y133.380 E5.31371
G1 X65.630 Y133.205 E5.34778
G1 X65.993 Y133.116 E5.38184
G1 X66.368 Y133.116 E5.41591
G1 X66.732 Y133.205 E5.44997
G1 X67.063 Y133.380 E5.48404
G1 X67.344 Y133.628 E5.51811
G1 X67.557 Y133.936 E5.55217
G1 X67.689 Y134.287 E5.58624
G1 X67.735 Y134.658 E5.62030
G1 X67.689 Y135.030 E5.65437
G1 X67.557 Y135.381 E5.68843
G1 X67.378 Y135.640 E5.71704
G1 X67.462 Y136.044 F7800.000
G1 E3.71704 F2400.000
G92 E0
G1 X47.370 Y145.979 F7800.000
G1 E2.00000 F2400.000
;TYPE:Perimeter
G1 F1800.000
G1 X47.685 Y145.910 E2.02937
G1 X48.202 Y147.272 E2.16175
G1 X48.972 Y148.387 E2.28501
G1 X49.986 Y149.286 E2.40827
G1 X51.187 Y149.916 E2.53153
G1 X52.503 Y150.240 E2.65479
G1 X53.858 Y150.240 E2.77805
G1 X55.175 Y149.916 E2.90131
G1 X56.375 Y149.286 E3.02457
G1 X57.389 Y148.387 E3.14783
G1 X58.160 Y147.272 E3.27109
G1 X58.640 Y146.004 E3.39435
G1 X58.804 Y144.658 E3.51761
G1 X58.640 Y143.313 E3.64087
G1 X58.160 Y142.045 E3.76413
G1 X57.389 Y140.930 E3.88739
G1 X56.375 Y140.031 E4.01065
G1 X55.175 Y139.401 E4.13391
G1 X53.858 Y139.076 E4.25717
G1 X52.503 Y139.076 E4.38043
G1 X51.187 Y139.401 E4.50369
G1 X49.986 Y140.031 E4.62695
G1 X48.972 Y140.930 E4.75021
G1 X48.202 Y142.045 E4.87347
G1 X47.685 Y143.407 E5.00586
G1 X47.370 Y143.338 E5.03523
G1 X47.445 Y142.192 E5.13967
G1 X47.927 Y139.767 E5.36444
G1 X48.722 Y137.427 E5.58921
G1 X49.815 Y135.210 E5.81397
G1 X51.188 Y133.154 E6.03874
G1 X52.818 Y131.296 E6.26351
G1 X54.677 Y129.666 E6.48828
G1 X56.732 Y128.293 E6.71305
G1 X58.949 Y127.200 E6.93782
G1 X61.290 Y126.405 E7.16258
G1 X63.714 Y125.923 E7.38735
G1 X66.181 Y125.761 E7.61212
G1 X68.647 Y125.923 E7.83689
G1 X71.072 Y126.405 E8.06166
G1 X73.412 Y127.200 E8.28642
G1 X75.629 Y128.293 E8.51119
G1 X77.685 Y129.666 E8.73596
G1 X79.543 Y131.296 E8.96073
G1 X81.173 Y133.154 E9.18550
G1 X82.546 Y135.210 E9.41027
G1 X83.639 Y137.427 E9.63503
G1 X84.434 Y139.767 E9.85980
G1 X84.916 Y142.192 E10.08457
G1 X85.078 Y144.658 E10.30934
G1 X84.916 Y147.125 E10.53411
G1 X84.434 Y149.549 E10.75887
G1 X83.639 Y151.890 E10.98364
G1 X82.546 Y154.107 E11.20841
G1 X81.173 Y156.162 E11.43318
G1 X79.543 Y158.021 E11.65795
G1 X77.685 Y159.651 E11.88272
G1 X75.629 Y161.024 E12.10748
G1 X73.412 Y162.117 E12.33225
G1 X71.072 Y162.912 E12.55702
G1 X68.647 Y163.394 E12.78179
G1 X66.181 Y163.556 E13.00656
G1 X63.714 Y163.394 E13.23132
G1 X61.290 Y162.912 E13.45609
G1 X58.949 Y162.117 E13.68086
G1 X56.732 Y161.024 E13.90563
