; generated by PrusaSlicer 2.3.3+linux-x64 on 2021-10-29 at 16:25:13 UTC

; 

; external perimeters extrusion width = 0.45mm
; perimeters extrusion width = 0.45mm
; infill extrusion width = 0.45mm
; solid infill extrusion width = 0.45mm
; top infill extrusion width = 0.40mm
; first layer extrusion width = 0.70mm

M107
M104 S200 ; set temperature
;TYPE:Custom
G28 ; home all axes
G1 Z5 F5000 ; lift nozzle
M109 S200 ; set temperature and wait for it to be reached
G21 ; set units to millimeters
G90 ; use absolute coordinates
M82 ; use absolute distances for extrusion
G92 E0
; Filament gcode
;LAYER_CHANGE
;Z:0.35
;HEIGHT:0.35
G1 Z0.350 F7800.000
G1 E-2.00000 F2400.000
G92 E0
G1 X82.240 Y81.004 F7800.000
G1 E2.00000 F2400.000
;TYPE:Skirt
;WIDTH:0.7
G1 F1800.000
G1 X83.116 Y80.229 E2.10632
G1 X85.776 Y78.233 E2.40879
G1 X88.233 Y76.807 E2.66708
G1 X91.021 Y75.604 E2.94314
G1 X92.045 Y75.249 E3.04170
G1 X94.762 Y74.532 E3.29724
G1 X97.818 Y74.100 E3.57790
G1 X98.924 Y74.032 E3.67861
G1 X101.971 Y74.079 E3.95573
G1 X104.740 Y74.450 E4.20977
G1 X105.767 Y74.661 E4.30512
G1 X108.786 Y75.538 E4.59093
G1 X111.861 Y76.875 E4.89584
G1 X114.248 Y78.284 E5.14787
G1 X115.137 Y78.883 E5.24530
G1 X117.482 Y80.778 E5.51952
G1 X119.532 Y82.862 E5.78532
G1 X121.401 Y85.265 E6.06216
G1 X123.001 Y87.916 E6.34369
G1 X124.050 Y90.211 E6.57310
G1 X124.415 Y91.135 E6.66345
G1 X125.293 Y94.086 E6.94339
G1 X125.794 Y96.900 E7.20329
G1 X125.979 Y99.869 E7.47386
G1 X125.892 Y102.092 E7.67611
G1 X125.593 Y104.364 E7.88447
G1 X124.987 Y107.112 E8.14036
G1 X123.873 Y110.250 E8.44319
G1 X122.434 Y113.093 E8.73284
G1 X121.877 Y113.990 E8.82894
G1 X120.261 Y116.266 E9.08272
G1 X118.076 Y118.665 E9.37779
G1 X115.595 Y120.777 E9.67404
G1 X114.727 Y121.399 E9.77112
G1 X112.337 Y122.873 E10.02645
G1 X109.372 Y124.240 E10.32339
G1 X106.312 Y125.205 E10.61512
G1 X105.366 Y125.431 E10.70354
G1 X102.548 Y125.871 E10.96292
G1 X99.951 Y125.994 E11.19935
G1 X96.979 Y125.815 E11.47001
G1 X95.895 Y125.667 E11.56948
G1 X92.874 Y125.010 E11.85068
G1 X89.687 Y123.876 E12.15824
G1 X86.644 Y122.320 E12.46899
G1 X84.349 Y120.755 E12.72156
G1 X83.503 Y120.107 E12.81845
G1 X81.237 Y118.021 E13.09859
G1 X78.727 Y114.963 E13.45827
G1 X77.101 Y112.354 E13.73780
G1 X75.696 Y109.295 E14.04391
G1 X74.587 Y105.551 E14.39895
G1 X74.101 Y102.521 E14.67799
G1 X73.992 Y99.436 E14.95875
G1 X74.295 Y96.013 E15.27120
G1 X74.490 Y94.952 E15.36926
G1 X75.174 Y92.207 E15.62648
G1 X76.363 Y89.125 E15.92689
G1 X77.888 Y86.302 E16.21861
G1 X78.457 Y85.435 E16.31297
G1 X80.139 Y83.197 E16.56755
G1 X82.199 Y81.047 E16.83820
G1 E14.83820 F2400.000
G92 E0
G1 X85.431 Y95.920 F7800.000
G1 E2.00000 F2400.000
;TYPE:External perimeter
G1 F1800.000
G1 X86.453 Y95.668 E2.09566
G1 X87.505 Y95.668 E2.19133
G1 X88.526 Y95.920 E2.28699
G1 X89.458 Y96.408 E2.38265
G1 X90.245 Y97.106 E2.47831
G1 X90.843 Y97.972 E2.57398
G1 X91.216 Y98.956 E2.66964
G1 X91.343 Y100.000 E2.76530
G1 X91.216 Y101.044 E2.86097
G1 X90.843 Y102.028 E2.95663
G1 X90.245 Y102.894 E3.05229
G1 X89.458 Y103.592 E3.14795
G1 X88.526 Y104.080 E3.24362
G1 X87.505 Y104.332 E3.33928
G1 X86.453 Y104.332 E3.43494
G1 X85.431 Y104.080 E3.53060
G1 X84.500 Y103.592 E3.62627
G1 X83.712 Y102.894 E3.72193
G1 X83.115 Y102.028 E3.81759
G1 X82.742 Y101.044 E3.91326
G1 X82.615 Y100.000 E4.00892
G1 X82.742 Y98.956 E4.10458
G1 X83.115 Y97.972 E4.20024
G1 X83.712 Y97.106 E4.29591
G1 X84.500 Y96.408 E4.39157
G1 X85.378 Y95.947 E4.48178
G1 X85.496 Y95.525 F7800.000
G1 E2.48178 F2400.000
G92 E0
G1 X105.490 Y99.387 F7800.000
G1 E2.00000 F2400.000
;TYPE:Perimeter
G1 F1800.000
G1 X105.710 Y98.809 E2.05618
G1 X106.061 Y98.300 E2.11236
G1 X106.523 Y97.891 E2.16855
G1 X107.070 Y97.604 E2.22473
G1 X107.670 Y97.456 E2.28091
G1 X108.288 Y97.456 E2.33710
G1 X108.888 Y97.604 E2.39328
G1 X109.435 Y97.891 E2.44946
G1 X109.897 Y98.300 E2.50564
G1 X110.248 Y98.809 E2.56183
G1 X110.467 Y99.387 E2.61801
G1 X110.542 Y100.000 E2.67419
G1 X110.467 Y100.613 E2.73037
G1 X110.248 Y101.191 E2.78656
G1 X109.897 Y101.700 E2.84274
G1 X109.435 Y102.109 E2.89892
G1 X108.888 Y102.396 E2.95511
G1 X108.288 Y102.544 E3.01129
G1 X107.670 Y102.544 E3.06747
G1 X107.070 Y102.396 E3.12365
G1 X106.523 Y102.109 E3.17984
G1 X106.061 Y101.700 E3.23602
G1 X105.710 Y101.191 E3.29220
G1 X105.490 Y100.613 E3.34838
G1 X105.416 Y100.000 E3.40457
G1 X105.483 Y99.446 E3.45529
G1 X106.102 Y99.537 F7800.000
G1 F1800.000
G1 X106.267 Y99.101 E3.49768
G1 X106.532 Y98.718 E3.54006
G1 X106.881 Y98.409 E3.58245
G1 X107.293 Y98.192 E3.62483
G1 X107.746 Y98.081 E3.66721
G1 X108.212 Y98.081 E3.70960
G1 X108.665 Y98.192 E3.75198
G1 X109.077 Y98.409 E3.79437
G1 X109.426 Y98.718 E3.83675
G1 X109.691 Y99.101 E3.87913
G1 X109.856 Y99.537 E3.92152
G1 X109.912 Y100.000 E3.96390
G1 X109.856 Y100.463 E4.00629
G1 X109.691 Y100.899 E4.04867
G1 X109.426 Y101.282 E4.09105
G1 X109.077 Y101.591 E4.13344
G1 X108.665 Y101.808 E4.17582
G1 X108.212 Y101.919 E4.21821
G1 X107.746 Y101.919 E4.26059
G1 X107.293 Y101.808 E4.30297
G1 X106.881 Y101.591 E4.34536
G1 X106.532 Y101.282 E4.38774
G1 X106.267 Y100.899 E4.43013
G1 X106.102 Y100.463 E4.47251
G1 X106.045 Y100.000 E4.51489
G1 X106.094 Y99.597 E4.55182
G1 X106.713 Y99.688 F7800.000
;TYPE:External perimeter
G1 F1800.000
G1 X106.824 Y99.394 E4.58041
G1 X107.003 Y99.135 E4.60899
G1 X107.238 Y98.927 E4.63758
G1 X107.517 Y98.781 E4.66616
G1 X107.822 Y98.705 E4.69475
G1 X108.136 Y98.705 E4.72334
G1 X108.441 Y98.781 E4.75192
G1 X108.720 Y98.927 E4.78051
G1 X108.955 Y99.135 E4.80909
G1 X109.134 Y99.394 E4.83768
G1 X109.245 Y99.688 E4.86626
G1 X109.283 Y100.000 E4.89485
G1 X109.245 Y100.312 E4.92343
G1 X109.134 Y100.606 E4.95202
G1 X108.955 Y100.865 E4.98060
G1 X108.720 Y101.073 E5.00919
G1 X108.441 Y101.219 E5.03778
G1 X108.136 Y101.295 E5.06636
G1 X107.822 Y101.295 E5.09495
G1 X107.517 Y101.219 E5.12353
G1 X107.238 Y101.073 E5.15212
G1 X107.003 Y100.865 E5.18070
G1 X106.824 Y100.606 E5.20929
G1 X106.713 Y100.312 E5.23787
G1 X106.675 Y100.000 E5.26646
G1 X106.706 Y99.747 E5.28959
G1 X106.486 Y99.470 F7800.000
G1 E3.28959 F2400.000
G92 E0
G1 X82.943 Y104.247 F7800.000
G1 E2.00000 F2400.000
;TYPE:Perimeter
G1 F1800.000
G1 X83.182 Y104.093 E2.02582
G1 X83.785 Y104.628 E2.09910
G1 X84.985 Y105.258 E2.22236
G1 X86.301 Y105.582 E2.34562
G1 X87.657 Y105.582 E2.46888
G1 X88.973 Y105.258 E2.59214
G1 X90.173 Y104.628 E2.71540
G1 X91.188 Y103.729 E2.83866
G1 X91.958 Y102.613 E2.96192
G1 X92.439 Y101.346 E3.08518
G1 X92.602 Y100.000 E3.20844
G1 X92.439 Y98.654 E3.33170
G1 X91.958 Y97.387 E3.45496
G1 X91.188 Y96.271 E3.57822
G1 X90.173 Y95.372 E3.70148
G1 X88.973 Y94.742 E3.82474
G1 X87.657 Y94.418 E3.94800
G1 X86.301 Y94.418 E4.07126
G1 X84.985 Y94.742 E4.19452
G1 X83.785 Y95.372 E4.31778
G1 X83.202 Y95.889 E4.38857
G1 X82.966 Y95.747 E4.41361
G1 X83.203 Y94.772 E4.50476
G1 X84.046 Y92.590 E4.71749
G1 X85.183 Y90.518 E4.93239
G1 X86.555 Y88.662 E5.14230
G1 X88.182 Y86.979 E5.35514
G1 X90.043 Y85.506 E5.57096
G1 X92.054 Y84.316 E5.78338
G1 X94.208 Y83.403 E5.99619
G1 X96.465 Y82.783 E6.20898
G1 X96.652 Y82.746 E6.22630
G1 X98.974 Y82.457 E6.43909
G1 X101.314 Y82.479 E6.65188
G1 X103.631 Y82.811 E6.86468
G1 X105.879 Y83.447 E7.07712
G1 X108.053 Y84.394 E7.29274
G1 X110.058 Y85.607 E7.50585
G1 X111.703 Y86.911 E7.69667
G1 X113.184 Y88.406 E7.88808
G1 X114.476 Y90.069 E8.07952
G1 X115.561 Y91.876 E8.27116
G1 X116.350 Y93.630 E8.44608
G1 X116.417 Y93.787 E8.46159
G1 X117.045 Y95.810 E8.65421
G1 X117.425 Y97.894 E8.84689
G1 X117.553 Y100.017 E9.04025
G1 X117.496 Y101.389 E9.16510
G1 X117.378 Y102.474 E9.26436
G1 X116.892 Y104.767 E9.47750
G1 X116.110 Y106.969 E9.68993
G1 X115.032 Y109.068 E9.90454
G1 X113.712 Y110.961 E10.11440
G1 X112.133 Y112.689 E10.32716
G1 X110.314 Y114.212 E10.54290
G1 X108.337 Y115.457 E10.75535
G1 X108.168 Y115.545 E10.77267
G1 X106.208 Y116.431 E10.96823
G1 X103.963 Y117.114 E11.18163
G1 X101.685 Y117.488 E11.39153
G1 X99.620 Y117.569 E11.57950
G1 X97.492 Y117.394 E11.77365
G1 X95.230 Y116.919 E11.98382
G1 X92.999 Y116.126 E12.19908
G1 X90.918 Y115.056 E12.41185
G1 X89.014 Y113.732 E12.62278
G1 X87.277 Y112.143 E12.83682
G1 X85.777 Y110.349 E13.04946
G1 X84.532 Y108.378 E13.26145
G1 X83.555 Y106.248 E13.47455
G1 X82.960 Y104.304 E13.65935
G1 E11.65935 F2400.000
G92 E0
G1 X81.854 Y101.347 F7800.000
G1 E2.00000 F2400.000
G1 F1800.000
G1 X82.165 Y101.285 E2.02886
G1 X82.557 Y102.321 E2.12953
G1 X83.241 Y103.311 E2.23899
G1 X84.142 Y104.110 E2.34845
G1 X85.208 Y104.669 E2.45792
G1 X86.377 Y104.957 E2.56738
G1 X87.581 Y104.957 E2.67684
G1 X88.750 Y104.669 E2.78630
G1 X89.816 Y104.110 E2.89576
G1 X90.717 Y103.311 E3.00522
G1 X91.401 Y102.321 E3.11468
G1 X91.827 Y101.195 E3.22415
G1 X91.972 Y100.000 E3.33361
G1 X91.827 Y98.805 E3.44307
G1 X91.401 Y97.679 E3.55253
G1 X90.717 Y96.689 E3.66199
G1 X89.816 Y95.890 E3.77145
G1 X88.750 Y95.331 E3.88091
G1 X87.581 Y95.043 E3.99038
G1 X86.377 Y95.043 E4.09984
G1 X85.208 Y95.331 E4.20930
G1 X84.142 Y95.890 E4.31876
G1 X83.241 Y96.689 E4.42822
G1 X82.557 Y97.679 E4.53768
G1 X82.193 Y98.640 E4.63112
G1 X81.873 Y98.564 E4.66104
G1 X82.041 Y96.929 E4.81054
G1 X82.605 Y94.585 E5.02973
G1 X83.478 Y92.326 E5.24997
G1 X84.651 Y90.190 E5.47152
G1 X84.781 Y90.000 E5.49248
G1 X86.078 Y88.257 E5.69005
G1 X87.762 Y86.515 E5.91035
G1 X89.677 Y84.999 E6.13246
G1 X91.759 Y83.765 E6.35249
G1 X93.988 Y82.817 E6.57275
G1 X94.208 Y82.744 E6.59387
G1 X96.323 Y82.174 E6.79303
G1 X96.551 Y82.129 E6.81415
G1 X98.723 Y81.847 E7.01331
G1 X98.955 Y81.832 E7.03443
G1 X101.377 Y81.856 E7.25467
G1 X103.774 Y82.202 E7.47493
G1 X106.102 Y82.863 E7.69497
G1 X108.341 Y83.838 E7.91696
G1 X110.416 Y85.093 E8.13745
G1 X112.120 Y86.444 E8.33529
G1 X113.654 Y87.993 E8.53351
G1 X114.992 Y89.715 E8.73178
G1 X116.116 Y91.586 E8.93018
G1 X117.004 Y93.570 E9.12788
G1 X117.653 Y95.661 E9.32695
G1 X118.047 Y97.819 E9.52647
G1 X118.179 Y100.011 E9.72614
G1 X118.120 Y101.436 E9.85577
G1 X117.997 Y102.567 E9.95928
G1 X117.494 Y104.938 E10.17963
G1 X116.685 Y107.217 E10.39956
G1 X115.573 Y109.382 E10.62085
G1 X114.200 Y111.353 E10.83927
G1 X112.566 Y113.141 E11.05949
G1 X110.694 Y114.709 E11.28154
G1 X108.647 Y116.000 E11.50160
G1 X106.445 Y117.010 E11.72191
G1 X106.227 Y117.089 E11.74303
G1 X103.927 Y117.764 E11.96097
G1 X101.748 Y118.111 E12.16157
G1 X99.593 Y118.194 E12.35768
G1 X97.403 Y118.014 E12.55754
G1 X95.050 Y117.519 E12.77613
G1 X92.751 Y116.701 E12.99804
G1 X90.596 Y115.593 E13.21832
G1 X88.618 Y114.217 E13.43747
G1 X86.825 Y112.575 E13.65852
G1 X85.271 Y110.718 E13.87871
G1 X83.980 Y108.674 E14.09850
G1 X82.969 Y106.470 E14.31897
G1 X82.260 Y104.152 E14.53941
G1 X81.866 Y101.767 E14.75925
G1 X81.855 Y101.407 E14.79194
G1 X81.243 Y101.827 F7800.000
;TYPE:External perimeter
G1 F1800.000
G1 X81.166 Y99.324 E15.01966
G1 X81.423 Y96.829 E15.24769
G1 X82.007 Y94.398 E15.47506
G1 X82.910 Y92.062 E15.70281
G1 X84.118 Y89.862 E15.93102
G1 X85.601 Y87.851 E16.15814
G1 X87.341 Y86.050 E16.38590
G1 X89.311 Y84.492 E16.61429
G1 X91.464 Y83.214 E16.84193
G1 X91.710 Y83.094 E16.86685
G1 X93.768 Y82.232 E17.06968
G1 X94.027 Y82.145 E17.09460
G1 X96.181 Y81.566 E17.29743
G1 X96.450 Y81.512 E17.32234
G1 X98.662 Y81.225 E17.52517
G1 X98.936 Y81.207 E17.55008
G1 X101.166 Y81.217 E17.75290
G1 X101.440 Y81.234 E17.77782
G1 X103.649 Y81.542 E17.98064
G1 X103.918 Y81.594 E18.00556
G1 X106.326 Y82.279 E18.23320
G1 X108.628 Y83.282 E18.46156
G1 X110.773 Y84.578 E18.68944
G1 X112.538 Y85.978 E18.89428
G1 X114.125 Y87.580 E19.09933
G1 X115.509 Y89.361 E19.30442
G1 X116.670 Y91.296 E19.50959
G1 X117.591 Y93.353 E19.71456
G1 X118.261 Y95.512 E19.92007
G1 X118.668 Y97.744 E20.12644
G1 X118.804 Y100.005 E20.33242
G1 X118.743 Y101.482 E20.46683
G1 X118.615 Y102.660 E20.57458
G1 X118.097 Y105.109 E20.80214
G1 X117.259 Y107.465 E21.02956
G1 X116.114 Y109.696 E21.25754
G1 X114.689 Y111.745 E21.48453
G1 X112.999 Y113.593 E21.71220
G1 X111.074 Y115.206 E21.94057
G1 X108.958 Y116.543 E22.16823
G1 X108.714 Y116.670 E22.19315
G1 X106.681 Y117.589 E22.39604
G1 X106.424 Y117.683 E22.42096
G1 X104.284 Y118.323 E22.62402
G1 X104.047 Y118.378 E22.64619
G1 X101.811 Y118.733 E22.85205
G1 X99.566 Y118.819 E23.05630
G1 X97.313 Y118.634 E23.26186
G1 X94.870 Y118.118 E23.48890
G1 X92.502 Y117.275 E23.71745
G1 X90.274 Y116.130 E23.94523
G1 X88.222 Y114.702 E24.17260
G1 X86.372 Y113.008 E24.40066
G1 X84.765 Y111.087 E24.62840
G1 X83.429 Y108.971 E24.85599
G1 X82.384 Y106.693 E25.08384
G1 X81.651 Y104.297 E25.31168
G1 X81.253 Y101.886 E25.53384
G1 X81.568 Y101.594 F7800.000
G1 X81.975 Y101.005
;TYPE:Gap fill
;WIDTH:0.879794
G1 F1800.000
G1 X81.901 Y99.952 E25.65746
;WIDTH:0.924733
G1 X81.914 Y99.655 E25.69418
;WIDTH:0.969671
G1 X81.928 Y99.358 E25.73284
;WIDTH:0.969672
G1 X81.527 Y98.868 E25.81522
G1 X82.317 Y97.381 F7800.000
;WIDTH:0.38365
G1 F1800.000
G1 X82.441 Y97.097 E25.82914
;WIDTH:0.42299
G1 X82.565 Y96.813 E25.84483
;WIDTH:0.471495
G1 X82.619 Y96.691 E25.85252
;WIDTH:0.520002
G1 X82.674 Y96.569 E25.86115
;WIDTH:0.56851
G1 X82.728 Y96.448 E25.87072
;WIDTH:0.574688
G1 X82.785 Y96.320 E25.88088
G1 X83.208 Y96.257 E25.91195
G1 E23.91195 F2400.000
G92 E0
G1 X114.355 Y90.231 F7800.000
G1 E2.00000 F2400.000
;TYPE:Solid infill
;WIDTH:0.707846
G1 F1800.000
G1 X111.363 Y87.239 E2.38957
G1 X109.791 Y85.993 E2.57436
G1 X108.351 Y85.122 E2.72925
G1 X114.879 Y91.650 E3.57923
G1 X115.145 Y92.093 E3.62682
G1 X115.731 Y93.397 E3.75850
G1 X106.612 Y84.278 E4.94595
G1 X105.721 Y83.890 E5.03543
G1 X105.174 Y83.735 E5.08772
G1 X116.242 Y94.803 E6.52881
G1 X116.589 Y95.922 E6.63669
G1 X116.616 Y96.072 E6.65075
G1 X103.926 Y83.382 E8.30312
G1 X103.522 Y83.268 E8.34178
G1 X102.809 Y83.160 E8.40815
G1 X116.816 Y97.167 E10.23194
G1 X116.959 Y97.951 E10.30534
G1 X116.975 Y98.221 E10.33023
G1 X101.770 Y83.015 E12.31010
G1 X101.279 Y82.947 E12.35571
G1 X100.802 Y82.942 E12.39966
G1 X117.033 Y99.173 E14.51303
G1 X117.080 Y100.115 E14.59987
G1 X99.898 Y82.933 E16.83709
G1 X99.004 Y82.934 E16.91936
G1 X117.044 Y100.974 E19.26828
G1 X117.028 Y101.354 E19.30330
G1 X116.980 Y101.804 E19.34499
G1 X98.197 Y83.022 E21.79060
G1 X97.409 Y83.129 E21.86383
G1 X116.877 Y102.597 E24.39873
G1 X116.720 Y103.334 E24.46813
G1 X96.621 Y83.235 E27.08512
G1 X95.912 Y83.421 E27.15260
G1 X116.562 Y104.071 E29.84135
G1 X116.440 Y104.639 E29.89488
G1 X116.386 Y104.790 E29.90963
G1 X110.934 Y99.337 E30.61963
G1 X110.926 Y99.274 E30.62554
G1 X110.666 Y98.590 E30.69291
G1 X110.251 Y97.987 E30.76027
G1 X109.703 Y97.502 E30.82764
G1 X109.055 Y97.162 E30.89501
G1 X108.661 Y97.065 E30.93237
G1 X95.210 Y83.614 E32.68384
G1 X94.508 Y83.806 E32.75087
G1 X107.688 Y96.987 E34.46710
G1 X107.613 Y96.987 E34.47403
G1 X106.956 Y97.149 E34.53638
G1 X93.862 Y84.056 E36.24125
G1 X93.231 Y84.320 E36.30421
G1 X106.359 Y97.447 E38.01354
G1 X106.255 Y97.502 E38.02439
G1 X105.865 Y97.848 E38.07238
G1 X92.601 Y84.584 E39.79946
G1 X92.276 Y84.729 E39.83222
G1 X92.009 Y84.887 E39.86075
G1 X105.463 Y98.341 E41.61255
G1 X105.292 Y98.590 E41.64035
G1 X105.161 Y98.934 E41.67424
G1 X91.447 Y85.220 E43.45990
G1 X90.885 Y85.553 E43.52004
G1 X105.239 Y99.906 E45.38899
G1 E43.38899 F2400.000
G92 E0
G1 X110.728 Y100.026 F7800.000
G1 E2.00000 F2400.000
G1 F1800.000
G1 X116.152 Y105.450 E2.70627
G1 X115.917 Y106.111 E2.77078
G1 X110.818 Y101.011 E3.43477
G1 X110.666 Y101.410 E3.47408
G1 X110.526 Y101.614 E3.49686
G1 X115.683 Y106.771 E4.16831
G1 X115.380 Y107.363 E4.22955
G1 X110.133 Y102.117 E4.91271
G1 X109.703 Y102.498 E4.96565
G1 X109.649 Y102.526 E4.97132
G1 X115.077 Y107.954 E5.67810
G1 X114.773 Y108.546 E5.73929
G1 X109.062 Y102.834 E6.48294
G1 X108.345 Y103.013 E6.55092
G1 X114.440 Y109.107 E7.34446
G1 X114.071 Y109.633 E7.40361
G1 X107.397 Y102.960 E8.27255
G1 X106.903 Y102.838 E8.31946
G1 X106.255 Y102.498 E8.38683
G1 X105.707 Y102.013 E8.45420
G1 X105.292 Y101.410 E8.52157
G1 X105.032 Y100.726 E8.58893
G1 X105.014 Y100.576 E8.60286
G1 X90.323 Y85.885 E10.51575
G1 X89.822 Y86.279 E10.57442
G1 X113.702 Y110.159 E13.68384
G1 X113.331 Y110.683 E13.74294
G1 X89.322 Y86.674 E16.86912
