; generated by PrusaSlicer 2.3.3+linux-x64 on 2021-11-01 at 00:54:38 UTC

; 

; external perimeters extrusion width = 0.45mm
; perimeters extrusion width = 0.45mm
; infill extrusion width = 0.45mm
; solid infill extrusion width = 0.45mm
; top infill extrusion width = 0.40mm
; first layer extrusion width = 0.70mm

M107
M104 S200 ; set temperature
;TYPE:Custom
G28 ; home all axes
G1 Z5 F5000 ; lift nozzle
M109 S200 ; set temperature and wait for it to be reached
G21 ; set units to millimeters
G90 ; use absolute coordinates
M82 ; use absolute distances for extrusion
G92 E0
; Filament gcode
;LAYER_CHANGE
;Z:0.35
;HEIGHT:0.35
G1 Z0.350 F7800.000
G1 E-2.00000 F2400.000
G92 E0
G1 X61.778 Y18.114 F7800.000
G1 E2.00000 F2400.000
;TYPE:Skirt
;WIDTH:0.7
G1 F1800.000
G1 X63.211 Y17.610 E2.13806
G1 X81.736 Y13.383 E3.86589
G1 X83.823 Y12.972 E4.05932
G1 X86.172 Y12.632 E4.27512
G1 X90.304 Y12.328 E4.65187
G1 X92.545 Y12.320 E4.85558
G1 X95.093 Y12.445 E5.08756
G1 X97.177 Y12.652 E5.27804
G1 X99.494 Y12.999 E5.49100
G1 X101.566 Y13.412 E5.68316
G1 X119.886 Y17.593 E7.39186
G1 X121.078 Y17.981 E7.50583
G1 X122.189 Y18.529 E7.61850
G1 X123.219 Y19.238 E7.73213
G1 X124.096 Y20.048 E7.84065
G1 X124.970 Y21.138 E7.96768
G1 X125.645 Y22.332 E8.09250
G1 X133.372 Y39.474 E9.80222
G1 X134.222 Y41.520 E10.00371
G1 X134.972 Y43.604 E10.20508
G1 X135.636 Y45.783 E10.41223
G1 X136.154 Y47.832 E10.60434
G1 X136.656 Y50.348 E10.83768
G1 X136.963 Y52.424 E11.02845
G1 X137.184 Y54.666 E11.23329
G1 X137.294 Y56.909 E11.43755
G1 X137.294 Y59.162 E11.64239
G1 X134.818 Y148.565 E19.77493
G1 X134.568 Y151.092 E20.00577
G1 X134.255 Y153.181 E20.19789
G1 X133.819 Y155.365 E20.40041
G1 X133.223 Y157.715 E20.62085
G1 X132.609 Y159.724 E20.81181
G1 X131.876 Y161.766 E21.00913
G1 X130.977 Y163.935 E21.22264
G1 X123.117 Y181.343 E22.95934
G1 X122.575 Y182.254 E23.05578
G1 X121.879 Y183.142 E23.15833
G1 X121.141 Y183.873 E23.25286
G1 X120.251 Y184.558 E23.35496
G1 X119.009 Y185.249 E23.48419
G1 X117.582 Y185.750 E23.62170
G1 X99.026 Y189.984 E25.35233
G1 X96.819 Y190.412 E25.55680
G1 X92.800 Y190.907 E25.92494
G1 X90.353 Y191.037 E26.14783
G1 X88.100 Y191.038 E26.35263
G1 X85.889 Y190.931 E26.55397
G1 X83.811 Y190.730 E26.74374
G1 X81.234 Y190.349 E26.98064
G1 X79.265 Y189.957 E27.16315
G1 X60.900 Y185.765 E28.87608
G1 X59.707 Y185.377 E28.99018
G1 X58.599 Y184.828 E29.10255
G1 X57.573 Y184.121 E29.21586
G1 X56.693 Y183.308 E29.32483
G1 X55.824 Y182.224 E29.45114
G1 X55.146 Y181.025 E29.57634
G1 X47.402 Y163.842 E31.29020
G1 X46.557 Y161.803 E31.49088
G1 X45.811 Y159.726 E31.69157
G1 X45.152 Y157.560 E31.89746
G1 X44.659 Y155.610 E32.08033
G1 X44.137 Y153.011 E32.32135
G1 X43.831 Y150.941 E32.51163
G1 X43.610 Y148.705 E32.71593
G1 X43.499 Y146.476 E32.91888
G1 X43.498 Y144.225 E33.12357
G1 X45.972 Y54.829 E41.25538
G1 X46.232 Y52.211 E41.49463
G1 X46.547 Y50.130 E41.68606
G1 X46.982 Y47.959 E41.88732
G1 X47.580 Y45.611 E42.10766
G1 X48.193 Y43.610 E42.29794
G1 X48.919 Y41.587 E42.49343
G1 X49.819 Y39.419 E42.70682
G1 X57.675 Y22.017 E44.44294
G1 X58.218 Y21.106 E44.53937
G1 X58.909 Y20.223 E44.64137
G1 X59.647 Y19.491 E44.73587
G1 X60.537 Y18.806 E44.83798
G1 X61.726 Y18.143 E44.96177
G1 E42.96177 F2400.000
G92 E0
G1 X90.651 Y91.147 F7800.000
G1 E2.00000 F2400.000
;TYPE:External perimeter
G1 F1800.000
G1 X91.079 Y91.003 E2.04104
G1 X91.527 Y90.947 E2.08207
G1 X91.977 Y90.981 E2.12311
G1 X92.411 Y91.103 E2.16415
G1 X92.813 Y91.309 E2.20518
G1 X93.165 Y91.590 E2.24622
G1 X93.456 Y91.936 E2.28726
G1 X93.671 Y92.332 E2.32829
G1 X93.804 Y92.764 E2.36933
G1 X93.849 Y93.213 E2.41037
G1 X93.804 Y93.662 E2.45141
G1 X93.671 Y94.093 E2.49244
G1 X93.457 Y94.486 E2.53318
G1 X93.227 Y94.772 E2.56655
G1 X92.905 Y95.053 E2.60536
G1 X92.515 Y95.278 E2.64634
G1 X92.087 Y95.422 E2.68737
G1 X91.640 Y95.478 E2.72841
G1 X91.190 Y95.445 E2.76945
G1 X90.755 Y95.322 E2.81048
G1 X90.353 Y95.116 E2.85152
G1 X90.001 Y94.835 E2.89256
G1 X89.711 Y94.489 E2.93359
G1 X89.495 Y94.093 E2.97463
G1 X89.363 Y93.665 E3.01537
G1 X89.319 Y93.300 E3.04874
G1 X89.342 Y92.874 E3.08755
G1 X89.453 Y92.438 E3.12853
G1 X89.649 Y92.031 E3.16956
G1 X89.922 Y91.671 E3.21060
G1 X90.260 Y91.373 E3.25164
G1 X90.599 Y91.177 E3.28722
G1 X90.691 Y90.749 F7800.000
G1 E1.28722 F2400.000
G92 E0
G1 X58.065 Y59.575 F7800.000
G1 E2.00000 F2400.000
G1 F1800.000
G1 X57.727 Y59.874 E2.04104
G1 X57.336 Y60.099 E2.08207
G1 X56.908 Y60.243 E2.12311
G1 X56.460 Y60.299 E2.16415
G1 X56.010 Y60.265 E2.20518
G1 X55.576 Y60.143 E2.24622
G1 X55.174 Y59.937 E2.28726
G1 X54.821 Y59.656 E2.32830
G1 X54.531 Y59.310 E2.36933
G1 X54.315 Y58.914 E2.41037
G1 X54.182 Y58.482 E2.45141
G1 X54.137 Y58.033 E2.49244
G1 X54.182 Y57.584 E2.53348
G1 X54.315 Y57.153 E2.57452
G1 X54.531 Y56.757 E2.61555
G1 X54.821 Y56.411 E2.65659
G1 X55.174 Y56.130 E2.69763
G1 X55.573 Y55.925 E2.73836
G1 X55.924 Y55.819 E2.77174
G1 X56.348 Y55.768 E2.81055
G1 X56.797 Y55.802 E2.85152
G1 X57.232 Y55.924 E2.89256
G1 X57.633 Y56.130 E2.93359
G1 X57.986 Y56.411 E2.97463
G1 X58.273 Y56.753 E3.01527
G1 X58.447 Y57.054 E3.04686
G1 X58.600 Y57.474 E3.08749
G1 X58.667 Y57.920 E3.12853
G1 X58.645 Y58.371 E3.16957
G1 X58.533 Y58.809 E3.21060
G1 X58.338 Y59.215 E3.25164
G1 X58.101 Y59.527 E3.28722
G1 X58.183 Y59.957 F7800.000
G1 E1.28722 F2400.000
G92 E0
G1 X90.001 Y24.476 F7800.000
G1 E2.00000 F2400.000
G1 F1800.000
G1 X89.711 Y24.131 E2.04104
G1 X89.495 Y23.734 E2.08207
G1 X89.363 Y23.306 E2.12281
G1 X89.319 Y22.942 E2.15618
G1 X89.342 Y22.516 E2.19499
G1 X89.453 Y22.079 E2.23597
G1 X89.649 Y21.672 E2.27701
G1 X89.922 Y21.313 E2.31804
G1 X90.260 Y21.014 E2.35908
G1 X90.651 Y20.788 E2.40012
G1 X91.079 Y20.645 E2.44115
G1 X91.527 Y20.589 E2.48219
G1 X91.977 Y20.622 E2.52323
G1 X92.411 Y20.744 E2.56426
G1 X92.813 Y20.950 E2.60530
G1 X93.165 Y21.232 E2.64634
G1 X93.456 Y21.577 E2.68737
G1 X93.671 Y21.974 E2.72841
G1 X93.804 Y22.405 E2.76945
G1 X93.849 Y22.854 E2.81048
G1 X93.804 Y23.303 E2.85152
G1 X93.671 Y23.734 E2.89256
G1 X93.457 Y24.128 E2.93329
G1 X93.227 Y24.413 E2.96667
G1 X92.905 Y24.695 E3.00548
G1 X92.515 Y24.920 E3.04645
G1 X92.087 Y25.064 E3.08749
G1 X91.640 Y25.120 E3.12853
G1 X91.190 Y25.086 E3.16956
G1 X90.755 Y24.964 E3.21060
G1 X90.353 Y24.758 E3.25164
G1 X90.048 Y24.514 E3.28722
G1 X89.616 Y24.585 F7800.000
G1 E1.28722 F2400.000
G92 E0
G1 X65.141 Y31.689 F7800.000
G1 E2.00000 F2400.000
;TYPE:Perimeter
G1 F1800.000
G1 X65.150 Y25.925 E2.52415
G1 X65.187 Y25.847 E2.53197
G1 X65.269 Y25.780 E2.54164
G1 X72.840 Y25.767 E3.23000
G1 X74.884 Y24.681 E3.44049
G1 X76.533 Y23.905 E3.60620
G1 X78.218 Y23.211 E3.77191
G1 X79.934 Y22.599 E3.93762
G1 X81.679 Y22.073 E4.10333
G1 X83.447 Y21.632 E4.26905
G1 X85.235 Y21.278 E4.43476
G1 X87.038 Y21.012 E4.60047
G1 X88.657 Y20.853 E4.74837
G1 X88.273 Y21.649 E4.82875
G1 X88.101 Y22.326 E4.89224
G1 X88.066 Y22.982 E4.95201
G1 X88.135 Y23.566 E5.00549
G1 X88.337 Y24.222 E5.06790
G1 X88.673 Y24.838 E5.13168
G1 X89.124 Y25.376 E5.19546
G1 X89.672 Y25.813 E5.25924
G1 X90.296 Y26.133 E5.32302
G1 X90.971 Y26.323 E5.38680
G1 X91.671 Y26.375 E5.45058
G1 X92.367 Y26.288 E5.51436
G1 X93.032 Y26.065 E5.57814
G1 X93.636 Y25.716 E5.64163
G1 X94.131 Y25.283 E5.70140
G1 X94.501 Y24.825 E5.75488
G1 X94.829 Y24.222 E5.81729
G1 X95.036 Y23.552 E5.88107
G1 X95.105 Y22.854 E5.94485
G1 X95.036 Y22.156 E6.00863
G1 X94.829 Y21.486 E6.07241
G1 X94.483 Y20.850 E6.13821
G1 X96.128 Y21.012 E6.28856
G1 X97.931 Y21.278 E6.45427
G1 X99.719 Y21.632 E6.61998
G1 X101.487 Y22.073 E6.78569
G1 X103.232 Y22.599 E6.95140
G1 X104.949 Y23.211 E7.11711
G1 X106.634 Y23.905 E7.28283
G1 X108.283 Y24.681 E7.44854
G1 X110.326 Y25.767 E7.65895
G1 X117.841 Y25.776 E8.34234
G1 X117.929 Y25.794 E8.35046
G1 X118.012 Y25.895 E8.36237
G1 X118.022 Y25.978 E8.37002
G1 X118.025 Y31.689 E8.88930
G1 X119.762 Y33.595 E9.12378
G1 X120.931 Y35.013 E9.29087
G1 X122.029 Y36.486 E9.45797
G1 X123.054 Y38.012 E9.62506
G1 X124.001 Y39.586 E9.79215
G1 X124.871 Y41.205 E9.95925
G1 X125.659 Y42.865 E10.12634
G1 X126.365 Y44.561 E10.29343
G1 X126.985 Y46.289 E10.46035
G1 X127.546 Y48.144 E10.63656
G1 X127.970 Y49.831 E10.79470
G1 X128.329 Y51.633 E10.96180
G1 X128.600 Y53.451 E11.12889
G1 X128.765 Y55.122 E11.28159
G1 X128.049 Y54.755 E11.35477
G1 X127.374 Y54.565 E11.41855
G1 X126.675 Y54.512 E11.48233
G1 X125.982 Y54.599 E11.54582
G1 X125.358 Y54.806 E11.60559
G1 X124.840 Y55.084 E11.65907
G1 X124.303 Y55.512 E11.72148
G1 X123.852 Y56.049 E11.78526
G1 X123.517 Y56.665 E11.84904
G1 X123.310 Y57.335 E11.91282
G1 X123.240 Y58.033 E11.97660
G1 X123.310 Y58.731 E12.04038
G1 X123.517 Y59.402 E12.10416
G1 X123.852 Y60.018 E12.16794
G1 X124.303 Y60.555 E12.23172
G1 X124.851 Y60.992 E12.29550
G1 X125.476 Y61.312 E12.35928
G1 X126.151 Y61.502 E12.42306
G1 X126.850 Y61.555 E12.48684
G1 X127.546 Y61.467 E12.55062
G1 X128.211 Y61.244 E12.61440
G1 X128.768 Y60.923 E12.67283
G1 X128.600 Y62.616 E12.82758
G1 X128.329 Y64.434 E12.99467
G1 X127.970 Y66.236 E13.16176
G1 X127.522 Y68.018 E13.32886
G1 X126.986 Y69.776 E13.49595
G1 X126.365 Y71.505 E13.66305
G1 X125.659 Y73.202 E13.83014
G1 X124.871 Y74.862 E13.99723
G1 X124.001 Y76.481 E14.16433
G1 X123.054 Y78.055 E14.33142
G1 X122.029 Y79.581 E14.49851
G1 X120.931 Y81.054 E14.66561
G1 X119.762 Y82.472 E14.83270
G1 X118.024 Y84.378 E15.06722
G1 X118.024 Y90.018 E15.58008
G1 X118.002 Y90.250 E15.60126
G1 X117.859 Y90.292 E15.61475
G1 X117.763 Y90.299 E15.62351
G1 X110.326 Y90.299 E16.29974
G1 X108.313 Y91.370 E16.50709
G1 X106.588 Y92.181 E16.68043
G1 X104.908 Y92.871 E16.84555
G1 X103.284 Y93.450 E17.00236
G1 X101.458 Y94.002 E17.17580
G1 X99.697 Y94.440 E17.34085
G1 X98.005 Y94.775 E17.49769
G1 X96.119 Y95.056 E17.67101
G1 X94.485 Y95.212 E17.82030
G1 X94.829 Y94.581 E17.88569
G1 X95.036 Y93.911 E17.94947
G1 X95.105 Y93.213 E18.01325
G1 X95.036 Y92.515 E18.07703
G1 X94.829 Y91.845 E18.14081
G1 X94.493 Y91.229 E18.20459
G1 X94.042 Y90.691 E18.26837
G1 X93.494 Y90.254 E18.33215
G1 X92.870 Y89.934 E18.39593
G1 X92.195 Y89.744 E18.45971
G1 X91.495 Y89.691 E18.52349
G1 X90.799 Y89.779 E18.58727
G1 X90.134 Y90.002 E18.65105
G1 X89.527 Y90.353 E18.71483
G1 X89.001 Y90.817 E18.77861
G1 X88.577 Y91.376 E18.84239
G1 X88.273 Y92.008 E18.90617
G1 X88.101 Y92.685 E18.96966
G1 X88.066 Y93.341 E19.02943
G1 X88.135 Y93.925 E19.08291
G1 X88.337 Y94.581 E19.14532
G1 X88.683 Y95.216 E19.21104
G1 X86.971 Y95.046 E19.36746
G1 X85.265 Y94.794 E19.52429
G1 X83.483 Y94.443 E19.68945
G1 X81.721 Y94.005 E19.85449
G1 X79.896 Y93.455 E20.02784
G1 X78.187 Y92.844 E20.19287
G1 X76.508 Y92.151 E20.35802
G1 X74.947 Y91.417 E20.51487
G1 X72.838 Y90.299 E20.73191
G1 X65.420 Y90.299 E21.40647
G1 X65.304 Y90.288 E21.41703
G1 X65.157 Y90.243 E21.43103
G1 X65.142 Y90.038 E21.44972
G1 X65.142 Y84.380 E21.96423
G1 X63.349 Y82.404 E22.20682
G1 X62.242 Y81.063 E22.36499
G1 X61.148 Y79.596 E22.53131
G1 X60.078 Y78.000 E22.70608
G1 X59.181 Y76.510 E22.86422
G1 X58.314 Y74.898 E23.03061
G1 X57.490 Y73.163 E23.20527
G1 X56.789 Y71.473 E23.37161
G1 X56.172 Y69.750 E23.53804
G1 X55.639 Y67.999 E23.70446
G1 X55.194 Y66.224 E23.87090
G1 X54.853 Y64.518 E24.02907
G1 X54.566 Y62.618 E24.20377
G1 X54.404 Y60.947 E24.35648
G1 X55.117 Y61.312 E24.42931
G1 X55.792 Y61.502 E24.49309
G1 X56.492 Y61.555 E24.55687
G1 X57.188 Y61.467 E24.62065
G1 X57.852 Y61.244 E24.68443
G1 X58.460 Y60.893 E24.74821
G1 X58.986 Y60.429 E24.81199
G1 X59.409 Y59.870 E24.87577
G1 X59.714 Y59.238 E24.93955
G1 X59.887 Y58.558 E25.00333
G1 X59.922 Y57.858 E25.06711
G1 X59.817 Y57.164 E25.13089
G1 X59.584 Y56.524 E25.19284
G1 X59.301 Y56.034 E25.24432
G1 X58.863 Y55.512 E25.30627
G1 X58.315 Y55.075 E25.37005
G1 X57.691 Y54.755 E25.43382
G1 X57.015 Y54.565 E25.49760
G1 X56.319 Y54.512 E25.56110
G1 X55.667 Y54.592 E25.62086
G1 X55.103 Y54.761 E25.67435
G1 X54.400 Y55.122 E25.74622
G1 X54.561 Y53.490 E25.89534
G1 X54.829 Y51.680 E26.06176
G1 X55.205 Y49.796 E26.23642
G1 X55.652 Y48.022 E26.40279
G1 X56.159 Y46.358 E26.56094
G1 X56.807 Y44.548 E26.73572
G1 X57.509 Y42.860 E26.90201
G1 X58.295 Y41.206 E27.06847
G1 X59.160 Y39.593 E27.23490
G1 X60.104 Y38.025 E27.40132
G1 X61.123 Y36.505 E27.56774
G1 X62.216 Y35.037 E27.73417
G1 X63.379 Y33.626 E27.90043
G1 X65.100 Y31.734 E28.13303
G1 X64.516 Y31.447 F7800.000
G1 F1800.000
G1 X64.526 Y25.875 E28.63971
G1 X64.559 Y25.714 E28.65469
G1 X64.674 Y25.487 E28.67779
G1 X64.752 Y25.396 E28.68874
G1 X64.990 Y25.224 E28.71540
G1 X65.172 Y25.162 E28.73290
G1 X65.314 Y25.145 E28.74584
G1 X72.684 Y25.143 E29.41601
G1 X74.604 Y24.122 E29.61372
G1 X76.280 Y23.333 E29.78221
G1 X77.994 Y22.627 E29.95070
G1 X79.739 Y22.006 E30.11919
G1 X81.513 Y21.470 E30.28768
G1 X83.311 Y21.022 E30.45617
G1 X85.129 Y20.662 E30.62465
G1 X86.962 Y20.391 E30.79314
G1 X88.806 Y20.210 E30.96163
G1 X89.923 Y20.156 E31.06335
G1 X90.007 Y20.439 E31.09018
G1 X89.894 Y20.504 E31.10205
G1 X89.461 Y20.885 E31.15445
G1 X89.113 Y21.345 E31.20686
G1 X88.863 Y21.864 E31.25927
G1 X88.722 Y22.421 E31.31150
G1 X88.692 Y22.962 E31.36079
G1 X88.749 Y23.436 E31.40422
G1 X88.916 Y23.978 E31.45579
G1 X89.192 Y24.485 E31.50820
G1 X89.562 Y24.926 E31.56061
G1 X90.013 Y25.285 E31.61302
G1 X90.526 Y25.548 E31.66543
G1 X91.080 Y25.704 E31.71783
G1 X91.655 Y25.748 E31.77024
G1 X92.227 Y25.676 E31.82265
G1 X92.773 Y25.492 E31.87506
G1 X93.271 Y25.205 E31.92729
G1 X93.679 Y24.848 E31.97658
G1 X93.979 Y24.476 E32.02001
G1 X94.250 Y23.978 E32.07158
G1 X94.420 Y23.428 E32.12399
G1 X94.477 Y22.854 E32.17640
G1 X94.420 Y22.281 E32.22881
G1 X94.250 Y21.730 E32.28122
G1 X93.974 Y21.224 E32.33362
G1 X93.604 Y20.782 E32.38603
G1 X93.138 Y20.411 E32.44019
G1 X93.235 Y20.155 E32.46501
G1 X94.360 Y20.210 E32.56748
G1 X96.204 Y20.391 E32.73597
G1 X98.037 Y20.662 E32.90446
G1 X99.855 Y21.022 E33.07295
G1 X101.653 Y21.470 E33.24143
G1 X103.427 Y22.006 E33.40992
G1 X105.173 Y22.627 E33.57841
G1 X106.886 Y23.333 E33.74690
G1 X108.562 Y24.122 E33.91539
G1 X110.482 Y25.142 E34.11306
G1 X117.904 Y25.151 E34.78791
G1 X118.187 Y25.228 E34.81459
G1 X118.396 Y25.378 E34.83800
G1 X118.568 Y25.616 E34.86468
G1 X118.630 Y25.798 E34.88212
G1 X118.647 Y25.940 E34.89517
G1 X118.649 Y31.447 E35.39591
G1 X120.234 Y33.186 E35.60980
G1 X121.423 Y34.627 E35.77969
G1 X122.539 Y36.125 E35.94958
G1 X123.581 Y37.676 E36.11948
G1 X124.545 Y39.277 E36.28937
G1 X125.429 Y40.923 E36.45926
G1 X126.230 Y42.611 E36.62916
G1 X126.948 Y44.336 E36.79905
G1 X127.579 Y46.093 E36.96884
G1 X128.148 Y47.978 E37.14785
G1 X128.579 Y49.693 E37.30872
G1 X128.945 Y51.526 E37.47862
G1 X129.220 Y53.374 E37.64851
G1 X129.404 Y55.233 E37.81841
G1 X129.460 Y56.371 E37.92201
G1 X129.210 Y56.469 E37.94651
G1 X128.783 Y55.961 E38.00681
G1 X128.333 Y55.602 E38.05922
G1 X127.820 Y55.339 E38.11163
G1 X127.265 Y55.183 E38.16404
G1 X126.690 Y55.140 E38.21644
G1 X126.120 Y55.211 E38.26868
G1 X125.606 Y55.382 E38.31797
G1 X125.185 Y55.608 E38.36140
G1 X124.741 Y55.961 E38.41297
G1 X124.371 Y56.403 E38.46538
G1 X124.095 Y56.909 E38.51778
G1 X123.925 Y57.460 E38.57019
G1 X123.868 Y58.033 E38.62260
G1 X123.925 Y58.607 E38.67501
G1 X124.095 Y59.158 E38.72742
G1 X124.371 Y59.664 E38.77983
G1 X124.741 Y60.105 E38.83223
G1 X125.192 Y60.465 E38.88464
G1 X125.705 Y60.728 E38.93705
G1 X126.260 Y60.884 E38.98946
G1 X126.835 Y60.927 E39.04187
G1 X127.406 Y60.855 E39.09428
G1 X127.953 Y60.672 E39.14668
G1 X128.452 Y60.383 E39.19909
G1 X128.884 Y60.002 E39.25150
G1 X129.201 Y59.583 E39.29928
G1 X129.461 Y59.678 E39.32443
G1 X129.404 Y60.834 E39.42968
G1 X129.220 Y62.693 E39.59957
G1 X128.945 Y64.541 E39.76947
G1 X128.579 Y66.373 E39.93936
G1 X128.124 Y68.185 E40.10926
G1 X127.579 Y69.973 E40.27915
G1 X126.948 Y71.731 E40.44904
G1 X126.230 Y73.456 E40.61894
G1 X125.429 Y75.144 E40.78883
G1 X124.545 Y76.790 E40.95872
G1 X123.581 Y78.391 E41.12862
G1 X122.539 Y79.942 E41.29851
G1 X121.423 Y81.440 E41.46841
G1 X120.234 Y82.881 E41.63830
G1 X118.649 Y84.620 E41.85221
G1 X118.649 Y90.049 E42.34585
G1 X118.627 Y90.272 E42.36623
G1 X118.599 Y90.376 E42.37604
G1 X118.515 Y90.547 E42.39340
G1 X118.346 Y90.735 E42.41634
