; generated by PrusaSlicer 2.3.3+linux-x64 on 2021-10-12 at 17:39:36 UTC

; 

; external perimeters extrusion width = 0.45mm
; perimeters extrusion width = 0.45mm
; infill extrusion width = 0.45mm
; solid infill extrusion width = 0.45mm
; top infill extrusion width = 0.40mm
; first layer extrusion width = 0.70mm

M107
M104 S200 ; set temperature
;TYPE:Custom
G28 ; home all axes
G1 Z5 F5000 ; lift nozzle
M109 S200 ; set temperature and wait for it to be reached
G21 ; set units to millimeters
G90 ; use absolute coordinates
M82 ; use absolute distances for extrusion
G92 E0
; Filament gcode
;LAYER_CHANGE
;Z:0.35
;HEIGHT:0.35
G1 Z0.350 F7800.000
G1 E-2.00000 F2400.000
G92 E0
G1 X63.892 Y37.462 F7800.000
G1 E2.00000 F2400.000
;TYPE:Skirt
;WIDTH:0.7
G1 F1800.000
G1 X66.091 Y34.902 E2.30682
G1 X68.594 Y32.764 E2.60615
G1 X71.139 Y31.177 E2.87890
G1 X71.990 Y30.748 E2.96556
G1 X75.048 Y29.551 E3.26416
G1 X77.995 Y28.866 E3.53923
G1 X81.200 Y28.607 E3.83163
G1 X118.661 Y28.605 E7.23799
G1 X122.052 Y28.874 E7.54722
G1 X125.423 Y29.692 E7.86269
G1 X128.564 Y31.009 E8.17239
G1 X131.036 Y32.510 E8.43534
G1 X131.774 Y33.057 E8.51891
G1 X133.947 Y34.940 E8.78031
G1 X135.832 Y37.116 E9.04209
G1 X136.355 Y37.819 E9.12182
G1 X137.705 Y40.018 E9.35646
G1 X138.102 Y40.793 E9.43562
G1 X139.196 Y43.470 E9.69857
G1 X140.011 Y46.829 E10.01288
G1 X140.280 Y50.212 E10.32144
G1 X140.280 Y149.815 E19.37825
G1 X140.014 Y153.148 E19.68229
G1 X139.250 Y156.363 E19.98277
G1 X137.957 Y159.520 E20.29305
G1 X136.405 Y162.102 E20.56695
G1 X135.828 Y162.889 E20.65571
G1 X134.207 Y164.785 E20.88246
G1 X133.615 Y165.370 E20.95815
G1 X131.318 Y167.299 E21.23090
G1 X128.466 Y169.041 E21.53484
G1 X125.385 Y170.321 E21.83821
G1 X122.406 Y171.060 E22.11731
G1 X121.601 Y171.183 E22.19128
G1 X118.711 Y171.395 E22.45480
G1 X81.250 Y171.394 E25.86116
G1 X77.961 Y171.128 E26.16116
G1 X74.752 Y170.365 E26.46107
G1 X71.549 Y169.049 E26.77596
G1 X68.700 Y167.312 E27.07932
G1 X66.107 Y165.114 E27.38845
G1 X64.147 Y162.860 E27.66003
G1 X63.641 Y162.176 E27.73746
G1 X62.331 Y160.041 E27.96516
G1 X61.871 Y159.142 E28.05701
G1 X60.744 Y156.342 E28.33147
G1 X59.945 Y152.843 E28.65784
G1 X59.720 Y149.782 E28.93696
G1 X59.720 Y50.179 E37.99378
G1 X59.986 Y46.852 E38.29724
G1 X60.750 Y43.637 E38.59772
G1 X61.894 Y40.803 E38.87566
G1 X62.329 Y39.962 E38.96174
G1 X63.860 Y37.513 E39.22440
G1 E37.22440 F2400.000
G92 E0
G1 X98.078 Y108.382 F7800.000
G1 E2.00000 F2400.000
;TYPE:Perimeter
G1 F1800.000
G1 X99.352 Y108.056 E2.11964
G1 X100.640 Y108.056 E2.23679
G1 X101.884 Y108.362 E2.35325
G1 X103.018 Y108.957 E2.46972
G1 X103.977 Y109.807 E2.58618
G1 X104.704 Y110.861 E2.70265
G1 X105.159 Y112.059 E2.81911
G1 X105.308 Y113.287 E2.93163
G1 X105.161 Y114.594 E3.05127
G1 X104.704 Y115.799 E3.16842
G1 X103.977 Y116.853 E3.28488
G1 X103.018 Y117.703 E3.40134
G1 X101.884 Y118.298 E3.51781
G1 X100.640 Y118.604 E3.63427
G1 X99.360 Y118.604 E3.75074
G1 X98.116 Y118.298 E3.86720
G1 X96.982 Y117.703 E3.98367
G1 X96.023 Y116.853 E4.10013
G1 X95.296 Y115.799 E4.21660
G1 X94.841 Y114.601 E4.33306
G1 X94.692 Y113.373 E4.44558
G1 X94.839 Y112.066 E4.56522
G1 X95.296 Y110.861 E4.68237
G1 X96.023 Y109.807 E4.79883
G1 X96.982 Y108.957 E4.91529
G1 X98.024 Y108.410 E5.02235
G1 X98.303 Y108.970 F7800.000
G1 F1800.000
G1 X99.431 Y108.681 E5.12819
G1 X100.565 Y108.681 E5.23128
G1 X101.661 Y108.951 E5.33394
G1 X102.661 Y109.476 E5.43661
G1 X103.506 Y110.224 E5.53928
G1 X104.147 Y111.153 E5.64194
G1 X104.547 Y112.209 E5.74461
G1 X104.679 Y113.290 E5.84359
G1 X104.549 Y114.447 E5.94943
G1 X104.147 Y115.507 E6.05252
G1 X103.506 Y116.436 E6.15518
G1 X102.661 Y117.184 E6.25785
G1 X101.661 Y117.709 E6.36051
G1 X100.565 Y117.979 E6.46318
G1 X99.435 Y117.979 E6.56585
G1 X98.339 Y117.709 E6.66851
G1 X97.339 Y117.184 E6.77118
G1 X96.494 Y116.436 E6.87384
G1 X95.853 Y115.507 E6.97651
G1 X95.453 Y114.451 E7.07918
G1 X95.321 Y113.370 E7.17816
G1 X95.451 Y112.213 E7.28400
G1 X95.853 Y111.153 E7.38708
G1 X96.494 Y110.224 E7.48975
G1 X97.339 Y109.476 E7.59241
G1 X98.250 Y108.998 E7.68594
G1 X98.529 Y109.557 F7800.000
;TYPE:External perimeter
G1 F1800.000
G1 X99.510 Y109.306 E7.77798
G1 X100.489 Y109.306 E7.86700
G1 X101.438 Y109.539 E7.95587
G1 X102.303 Y109.994 E8.04474
G1 X103.034 Y110.642 E8.13360
G1 X103.590 Y111.446 E8.22247
G1 X103.936 Y112.360 E8.31134
G1 X104.050 Y113.293 E8.39679
G1 X103.937 Y114.299 E8.48883
G1 X103.590 Y115.214 E8.57785
G1 X103.034 Y116.018 E8.66672
G1 X102.303 Y116.666 E8.75558
G1 X101.438 Y117.121 E8.84445
G1 X100.489 Y117.354 E8.93332
G1 X99.511 Y117.354 E9.02219
G1 X98.562 Y117.121 E9.11105
G1 X97.697 Y116.666 E9.19992
G1 X96.966 Y116.018 E9.28879
G1 X96.410 Y115.214 E9.37766
G1 X96.064 Y114.300 E9.46652
G1 X95.950 Y113.367 E9.55198
G1 X96.063 Y112.361 E9.64402
G1 X96.410 Y111.446 E9.73304
G1 X96.966 Y110.642 E9.82190
G1 X97.697 Y109.994 E9.91077
G1 X98.476 Y109.585 E9.99077
G1 X98.591 Y109.162 F7800.000
G1 E7.99077 F2400.000
G92 E0
G1 X99.360 Y76.694 F7800.000
G1 E2.00000 F2400.000
;TYPE:Perimeter
G1 F1800.000
G1 X98.116 Y76.388 E2.11646
G1 X96.982 Y75.793 E2.23293
G1 X96.023 Y74.943 E2.34939
G1 X95.296 Y73.889 E2.46586
G1 X94.841 Y72.691 E2.58232
G1 X94.692 Y71.463 E2.69484
G1 X94.839 Y70.156 E2.81448
G1 X95.296 Y68.951 E2.93163
G1 X96.023 Y67.897 E3.04809
G1 X96.982 Y67.047 E3.16456
G1 X98.116 Y66.452 E3.28102
G1 X99.360 Y66.146 E3.39749
G1 X100.640 Y66.146 E3.51395
G1 X101.884 Y66.452 E3.63041
G1 X103.018 Y67.047 E3.74688
G1 X103.977 Y67.897 E3.86334
G1 X104.704 Y68.951 E3.97981
G1 X105.159 Y70.149 E4.09627
G1 X105.308 Y71.377 E4.20879
G1 X105.161 Y72.684 E4.32843
G1 X104.704 Y73.889 E4.44558
G1 X103.977 Y74.943 E4.56204
G1 X103.018 Y75.793 E4.67851
G1 X101.922 Y76.368 E4.79102
G1 X100.648 Y76.694 E4.91066
G1 X99.420 Y76.694 E5.02235
G1 X99.435 Y76.069 F7800.000
G1 F1800.000
G1 X98.339 Y75.799 E5.12502
G1 X97.339 Y75.274 E5.22769
G1 X96.494 Y74.526 E5.33035
G1 X95.853 Y73.597 E5.43302
G1 X95.453 Y72.541 E5.53568
G1 X95.321 Y71.460 E5.63467
G1 X95.451 Y70.303 E5.74051
G1 X95.853 Y69.243 E5.84359
G1 X96.494 Y68.314 E5.94626
G1 X97.339 Y67.566 E6.04892
G1 X98.339 Y67.041 E6.15159
G1 X99.435 Y66.771 E6.25426
G1 X100.565 Y66.771 E6.35692
G1 X101.661 Y67.041 E6.45959
G1 X102.661 Y67.566 E6.56225
G1 X103.506 Y68.314 E6.66492
G1 X104.147 Y69.243 E6.76759
G1 X104.547 Y70.299 E6.87025
G1 X104.679 Y71.380 E6.96924
G1 X104.549 Y72.537 E7.07508
G1 X104.147 Y73.597 E7.17816
G1 X103.506 Y74.526 E7.28083
G1 X102.661 Y75.274 E7.38349
G1 X101.697 Y75.780 E7.48248
G1 X100.569 Y76.069 E7.58832
G1 X99.495 Y76.069 E7.68594
G1 X99.511 Y75.444 F7800.000
;TYPE:External perimeter
G1 F1800.000
G1 X98.562 Y75.211 E7.77481
G1 X97.697 Y74.756 E7.86368
G1 X96.966 Y74.108 E7.95255
G1 X96.410 Y73.304 E8.04141
G1 X96.064 Y72.390 E8.13028
G1 X95.950 Y71.457 E8.21573
G1 X96.063 Y70.451 E8.30777
G1 X96.410 Y69.536 E8.39679
G1 X96.966 Y68.732 E8.48566
G1 X97.697 Y68.084 E8.57453
G1 X98.562 Y67.629 E8.66339
G1 X99.511 Y67.396 E8.75226
G1 X100.489 Y67.396 E8.84113
G1 X101.438 Y67.629 E8.93000
G1 X102.303 Y68.084 E9.01886
G1 X103.034 Y68.732 E9.10773
G1 X103.590 Y69.536 E9.19660
G1 X103.936 Y70.450 E9.28547
G1 X104.050 Y71.383 E9.37092
G1 X103.937 Y72.389 E9.46296
G1 X103.590 Y73.304 E9.55198
G1 X103.034 Y74.108 E9.64084
G1 X102.303 Y74.756 E9.72971
G1 X101.471 Y75.193 E9.81516
G1 X100.490 Y75.444 E9.90721
G1 X99.571 Y75.444 E9.99077
G1 X99.272 Y75.765 F7800.000
G1 E7.99077 F2400.000
G92 E0
G1 X68.145 Y75.444 F7800.000
G1 E2.00000 F2400.000
;TYPE:Perimeter
G1 F1800.000
G1 X68.145 Y50.301 E4.28631
G1 X68.313 Y48.166 E4.48103
G1 X68.796 Y46.153 E4.66930
G1 X69.588 Y44.240 E4.85757
G1 X70.670 Y42.474 E5.04583
G1 X72.015 Y40.900 E5.23410
G1 X73.589 Y39.555 E5.42237
G1 X75.355 Y38.473 E5.61064
G1 X77.268 Y37.681 E5.79891
G1 X79.281 Y37.198 E5.98717
G1 X81.416 Y37.030 E6.18189
G1 X118.584 Y37.030 E9.56162
G1 X120.719 Y37.198 E9.75633
G1 X122.732 Y37.681 E9.94460
G1 X124.645 Y38.473 E10.13287
G1 X126.411 Y39.555 E10.32114
G1 X127.985 Y40.900 E10.50940
G1 X129.330 Y42.474 E10.69767
G1 X130.412 Y44.240 E10.88594
G1 X131.204 Y46.153 E11.07421
G1 X131.687 Y48.166 E11.26248
G1 X131.855 Y50.301 E11.45720
G1 X131.855 Y149.699 E20.49547
G1 X131.687 Y151.834 E20.69018
G1 X131.204 Y153.847 E20.87845
G1 X130.412 Y155.760 E21.06672
G1 X129.330 Y157.526 E21.25499
G1 X127.985 Y159.100 E21.44326
G1 X126.411 Y160.445 E21.63152
G1 X124.645 Y161.527 E21.81979
G1 X122.732 Y162.319 E22.00806
G1 X120.719 Y162.802 E22.19633
G1 X118.584 Y162.970 E22.39105
G1 X81.416 Y162.970 E25.77077
G1 X79.281 Y162.802 E25.96549
G1 X77.268 Y162.319 E26.15375
G1 X75.355 Y161.527 E26.34202
G1 X73.589 Y160.445 E26.53029
G1 X72.015 Y159.100 E26.71856
G1 X70.670 Y157.526 E26.90683
G1 X69.588 Y155.760 E27.09509
G1 X68.796 Y153.847 E27.28336
G1 X68.313 Y151.834 E27.47163
G1 X68.145 Y149.699 E27.66635
G1 X68.145 Y75.504 E34.41285
G1 X67.520 Y75.504 F7800.000
G1 F1800.000
G1 X67.520 Y50.276 E36.70685
G1 X67.694 Y48.068 E36.90827
G1 X68.200 Y45.959 E37.10549
G1 X69.030 Y43.955 E37.30270
G1 X70.163 Y42.106 E37.49991
G1 X71.572 Y40.457 E37.69712
G1 X73.221 Y39.048 E37.89433
G1 X75.070 Y37.915 E38.09155
G1 X77.074 Y37.085 E38.28876
G1 X79.183 Y36.579 E38.48597
G1 X81.391 Y36.405 E38.68739
G1 X118.609 Y36.405 E42.07158
G1 X120.817 Y36.579 E42.27300
G1 X122.926 Y37.085 E42.47021
G1 X124.930 Y37.915 E42.66743
G1 X126.779 Y39.048 E42.86464
G1 X128.428 Y40.457 E43.06185
G1 X129.837 Y42.106 E43.25906
G1 X130.970 Y43.955 E43.45627
G1 X131.800 Y45.959 E43.65348
G1 X132.306 Y48.068 E43.85070
G1 X132.480 Y50.276 E44.05212
G1 X132.480 Y149.724 E53.09485
G1 X132.306 Y151.932 E53.29628
G1 X131.800 Y154.041 E53.49349
G1 X130.970 Y156.045 E53.69070
G1 X129.837 Y157.894 E53.88791
G1 X128.428 Y159.543 E54.08512
G1 X126.779 Y160.952 E54.28234
G1 X124.930 Y162.085 E54.47955
G1 X122.926 Y162.915 E54.67676
G1 X120.817 Y163.421 E54.87397
G1 X118.609 Y163.595 E55.07539
G1 X81.391 Y163.595 E58.45958
G1 X79.183 Y163.421 E58.66100
G1 X77.074 Y162.915 E58.85822
G1 X75.070 Y162.085 E59.05543
G1 X73.221 Y160.952 E59.25264
G1 X71.572 Y159.543 E59.44985
G1 X70.163 Y157.894 E59.64706
G1 X69.030 Y156.045 E59.84427
G1 X68.200 Y154.041 E60.04149
G1 X67.694 Y151.932 E60.23870
G1 X67.520 Y149.724 E60.44012
G1 X67.520 Y75.564 E67.18340
G1 X66.895 Y75.564 F7800.000
;TYPE:External perimeter
G1 F1800.000
G1 X66.895 Y50.252 E69.48509
G1 X67.075 Y47.970 E69.69322
G1 X67.604 Y45.765 E69.89937
G1 X68.471 Y43.671 E70.10553
G1 X69.656 Y41.738 E70.31168
G1 X71.129 Y40.014 E70.51784
G1 X72.853 Y38.541 E70.72399
G1 X74.786 Y37.356 E70.93015
G1 X76.880 Y36.489 E71.13630
G1 X79.085 Y35.960 E71.34246
G1 X81.367 Y35.780 E71.55059
G1 X118.633 Y35.780 E74.93924
G1 X120.915 Y35.960 E75.14737
G1 X123.120 Y36.489 E75.35352
G1 X125.214 Y37.356 E75.55968
G1 X127.147 Y38.541 E75.76583
G1 X128.871 Y40.014 E75.97199
G1 X130.344 Y41.738 E76.17814
G1 X131.529 Y43.671 E76.38430
G1 X132.396 Y45.765 E76.59046
G1 X132.925 Y47.970 E76.79661
G1 X133.105 Y50.252 E77.00474
G1 X133.105 Y149.748 E86.05194
G1 X132.925 Y152.030 E86.26007
G1 X132.396 Y154.235 E86.46622
G1 X131.529 Y156.329 E86.67238
G1 X130.344 Y158.262 E86.87853
G1 X128.871 Y159.986 E87.08469
G1 X127.147 Y161.459 E87.29084
G1 X125.214 Y162.644 E87.49700
G1 X123.120 Y163.511 E87.70316
G1 X120.915 Y164.040 E87.90931
G1 X118.633 Y164.220 E88.11744
G1 X81.367 Y164.220 E91.50609
G1 X79.085 Y164.040 E91.71422
G1 X76.880 Y163.511 E91.92037
G1 X74.786 Y162.644 E92.12653
G1 X72.853 Y161.459 E92.33268
G1 X71.129 Y159.986 E92.53884
G1 X69.656 Y158.262 E92.74500
G1 X68.471 Y156.329 E92.95115
G1 X67.604 Y154.235 E93.15731
G1 X67.075 Y152.030 E93.36346
G1 X66.895 Y149.748 E93.57159
G1 X66.895 Y75.624 E100.31164
G1 X67.241 Y75.364 F7800.000
G1 E98.31164 F2400.000
G92 E0
G1 X125.855 Y39.434 F7800.000
G1 E2.00000 F2400.000
;TYPE:Solid infill
;WIDTH:0.701863
G1 F1800.000
G1 X127.653 Y41.233 E2.23191
G1 X128.949 Y42.751 E2.41399
G1 X129.997 Y44.463 E2.59703
G1 X124.422 Y38.888 E3.31601
G1 X122.909 Y38.262 E3.46537
G1 X130.623 Y45.976 E4.46034
G1 X130.757 Y46.298 E4.49213
G1 X130.977 Y47.216 E4.57824
G1 X121.669 Y37.908 E5.77880
G1 X120.646 Y37.662 E5.87478
G1 X120.528 Y37.653 E5.88557
G1 X131.232 Y48.357 E7.26622
G1 X131.308 Y49.319 E7.35423
G1 X119.566 Y37.577 E8.86873
G1 X118.603 Y37.501 E8.95675
G1 X131.384 Y50.282 E10.60510
G1 X131.387 Y51.171 E10.68620
G1 X117.714 Y37.498 E12.44964
G1 X116.828 Y37.498 E12.53047
G1 X131.387 Y52.057 E14.40823
G1 X131.387 Y52.944 E14.48907
G1 X115.941 Y37.498 E16.48114
G1 X115.055 Y37.498 E16.56198
G1 X131.387 Y53.830 E18.66837
G1 X131.387 Y54.716 E18.74921
G1 X114.169 Y37.498 E20.96992
G1 X113.282 Y37.498 E21.05076
G1 X131.387 Y55.603 E23.38580
G1 X131.387 Y56.489 E23.46663
G1 X112.396 Y37.498 E25.91599
G1 X111.510 Y37.498 E25.99682
G1 X131.387 Y57.375 E28.56050
G1 X131.387 Y58.262 E28.64134
G1 X110.623 Y37.498 E31.31933
G1 X109.737 Y37.498 E31.40017
G1 X131.387 Y59.148 E34.19249
G1 X131.387 Y60.034 E34.27332
G1 X108.850 Y37.498 E37.17996
G1 X107.964 Y37.498 E37.26080
G1 X131.387 Y60.921 E40.28176
G1 X131.387 Y61.807 E40.36259
G1 X107.078 Y37.498 E43.49787
G1 X106.191 Y37.498 E43.57871
G1 X131.387 Y62.694 E46.82830
G1 X131.387 Y63.580 E46.90914
G1 X105.305 Y37.498 E50.27306
G1 X104.419 Y37.498 E50.35390
G1 X131.387 Y64.466 E53.83214
G1 X131.387 Y65.353 E53.91297
G1 X103.532 Y37.498 E57.50553
G1 X102.646 Y37.498 E57.58637
G1 X131.387 Y66.239 E61.29325
G1 X131.387 Y67.125 E61.37408
G1 X101.760 Y37.498 E65.19528
G1 X100.873 Y37.498 E65.27612
G1 X131.387 Y68.012 E69.21164
G1 X131.387 Y68.898 E69.29248
G1 X99.987 Y37.498 E73.34232
G1 X99.101 Y37.498 E73.42316
G1 X131.387 Y69.784 E77.58732
G1 X131.387 Y70.671 E77.66815
G1 X98.214 Y37.498 E81.94663
G1 X97.328 Y37.498 E82.02747
G1 X131.387 Y71.557 E86.42027
G1 X131.387 Y72.444 E86.50111
G1 X96.441 Y37.498 E91.00823
G1 X95.555 Y37.498 E91.08907
G1 X131.387 Y73.330 E95.71051
G1 X131.387 Y74.216 E95.79135
G1 X94.669 Y37.498 E100.52711
G1 X93.782 Y37.498 E100.60795
G1 X131.387 Y75.103 E105.45803
G1 X131.387 Y75.989 E105.53887
G1 X92.896 Y37.498 E110.50327
G1 X92.010 Y37.498 E110.58411
G1 X131.387 Y76.875 E115.66283
G1 X131.387 Y77.762 E115.74367
G1 X91.123 Y37.498 E120.93671
G1 X90.237 Y37.498 E121.01755
G1 X131.387 Y78.648 E126.32491
G1 X131.387 Y79.534 E126.40575
G1 X89.351 Y37.498 E131.82743
G1 X88.464 Y37.498 E131.90827
G1 X131.387 Y80.421 E137.44427
G1 X131.387 Y81.307 E137.52511
G1 X87.578 Y37.498 E143.17544
G1 X86.691 Y37.498 E143.25627
G1 X131.387 Y82.194 E149.02092
G1 X131.387 Y83.080 E149.10176
G1 X85.805 Y37.498 E154.98072
G1 X84.919 Y37.498 E155.06156
G1 X131.387 Y83.966 E161.05484
G1 X131.387 Y84.853 E161.13568
G1 X84.032 Y37.498 E167.24329
G1 X83.146 Y37.498 E167.32412
G1 X131.387 Y85.739 E173.54605
G1 X131.387 Y86.625 E173.62689
G1 X82.260 Y37.498 E179.96314
G1 X81.378 Y37.503 E180.04357
G1 X131.387 Y87.512 E186.49356
G1 X131.387 Y88.398 E186.57440
G1 X80.556 Y37.568 E193.13038
G1 X79.734 Y37.632 E193.20555
G1 X131.387 Y89.284 E199.86750
G1 X131.387 Y90.171 E199.94834
G1 X78.970 Y37.754 E206.70886
G1 X78.255 Y37.926 E206.77589
G1 X131.387 Y91.057 E213.62860
G1 X131.387 Y91.943 E213.70944
G1 X77.541 Y38.098 E220.65433
G1 X77.413 Y38.128 E220.66631
G1 X76.898 Y38.341 E220.71712
G1 X131.387 Y92.830 E227.74488
G1 X131.387 Y93.716 E227.82572
G1 X76.271 Y38.601 E234.93432
G1 X75.645 Y38.861 E234.99619
G1 X131.387 Y94.603 E242.18562
G1 X131.387 Y95.489 E242.26646
G1 X105.424 Y69.526 E245.61506
G1 X105.122 Y68.732 E245.69257
G1 X104.330 Y67.584 E245.81976
G1 X103.286 Y66.659 E245.94695
G1 X102.051 Y66.011 E246.07414
G1 X101.862 Y65.964 E246.09196
G1 X75.086 Y39.188 E249.54546
G1 X74.536 Y39.525 E249.60424
G1 X100.688 Y65.677 E252.97729
G1 X99.802 Y65.677 E253.05813
G1 X73.986 Y39.862 E256.38773
G1 X73.866 Y39.936 E256.40066
G1 X73.493 Y40.254 E256.44539
G1 X98.992 Y65.754 E259.73424
G1 X98.281 Y65.929 E259.80103
G1 X73.015 Y40.662 E263.05982
G1 X72.537 Y41.071 E263.11716
G1 X97.639 Y66.173 E266.35480
G1 X97.058 Y66.478 E266.41467
G1 X72.101 Y41.521 E269.63357
G1 X71.692 Y41.999 E269.69091
